;FLAVOR:Repetier
;TIME:11649
;Generated with Cura_SteamEngine 2.4.0
G21        ;metric values
G90        ;absolute positioning
M82        ;set extruder to absolute mode
G28 X0 Y0  ;move X/Y to min endstops
G28 Z0     ;move Z to min endstops
G0 Z10 F250
M109 S205 ;Uncomment to add your own temperature line
G92 E0
G1 F200 E5              ;extrude 3mm of feed stock
G0 Z0 F250
G92 E0                  ;zero the extruded length
;LAYER_COUNT:73
;LAYER:-5
M107
M207 X20
G1 F6000 E-7
G0 F7200 X19.92 Y31.24 Z0.2
G1 F6000 E0
G1 F1800 X21.582 Y30.348 E0.12547
G1 X22.105 Y30.132 E0.16311
G1 X23.906 Y29.586 E0.2883
G1 X24.446 Y29.479 E0.32492
G1 X26.325 Y29.293 E0.45052
G1 X26.627 Y29.279 E0.47063
G1 X66.573 Y29.279 E3.12785
G1 X66.875 Y29.293 E3.14796
G1 X68.755 Y29.479 E3.27363
G1 X69.293 Y29.586 E3.31012
G1 X71.098 Y30.131 E3.43554
G1 X71.604 Y30.342 E3.47201
G1 X73.272 Y31.234 E3.59784
G1 X73.73 Y31.54 E3.63448
G1 X75.189 Y32.737 E3.76001
G1 X75.582 Y33.13 E3.79699
G1 X76.782 Y34.592 E3.9228
G1 X78.055 Y36.495 E4.0751
G1 X79.959 Y34.177 E4.27464
G1 X80.331 Y33.804 E4.30969
G1 X81.79 Y32.606 E4.43527
G1 X82.251 Y32.299 E4.47211
G1 X83.915 Y31.405 E4.59776
G1 X84.43 Y31.191 E4.63486
G1 X86.237 Y30.643 E4.76047
G1 X86.776 Y30.536 E4.79702
G1 X88.656 Y30.35 E4.92269
G1 X88.958 Y30.336 E4.9428
G1 X128.904 Y30.336 E7.60002
G1 X129.206 Y30.35 E7.62013
G1 X131.085 Y30.536 E7.74573
G1 X131.625 Y30.643 E7.78235
G1 X133.437 Y31.192 E7.9083
G1 X133.932 Y31.398 E7.94396
G1 X135.608 Y32.295 E8.07042
G1 X136.064 Y32.599 E8.10687
G1 X137.519 Y33.794 E8.23212
G1 X137.909 Y34.184 E8.26881
G1 X139.112 Y35.65 E8.39496
G1 X139.413 Y36.1 E8.43097
G1 X140.308 Y37.773 E8.55718
G1 X140.519 Y38.279 E8.59365
G1 X141.064 Y40.084 E8.71907
G1 X141.171 Y40.622 E8.75556
G1 X141.357 Y42.501 E8.88116
G1 X141.371 Y42.795 E8.90074
G1 X141.371 Y102.748 E12.88883
G1 X141.357 Y103.05 E12.90894
G1 X141.171 Y104.93 E13.03461
G1 X141.064 Y105.468 E13.0711
G1 X140.519 Y107.273 E13.19652
G1 X140.308 Y107.779 E13.23299
G1 X139.413 Y109.452 E13.35921
G1 X139.112 Y109.902 E13.39522
G1 X137.909 Y111.368 E13.52137
G1 X137.519 Y111.758 E13.55806
G1 X136.064 Y112.953 E13.6833
G1 X135.608 Y113.257 E13.71976
G1 X133.935 Y114.152 E13.84597
G1 X133.429 Y114.363 E13.88244
G1 X131.624 Y114.908 E14.00786
G1 X131.086 Y115.015 E14.04435
G1 X129.206 Y115.201 E14.17002
G1 X128.904 Y115.215 E14.19013
G1 X88.958 Y115.215 E16.84735
G1 X88.656 Y115.201 E16.86746
G1 X86.777 Y115.015 E16.99306
G1 X86.237 Y114.908 E17.02968
G1 X84.437 Y114.362 E17.15481
G1 X83.911 Y114.144 E17.19268
G1 X82.25 Y113.253 E17.31807
G1 X81.793 Y112.948 E17.35461
G1 X80.338 Y111.753 E17.47986
G1 X79.953 Y111.368 E17.51608
G1 X78.75 Y109.903 E17.64218
G1 X77.477 Y107.995 E17.79475
G1 X75.582 Y110.306 E17.99356
G1 X75.188 Y110.7 E18.03062
G1 X73.727 Y111.899 E18.15635
G1 X73.28 Y112.198 E18.19212
G1 X71.602 Y113.095 E18.31869
G1 X71.112 Y113.299 E18.35399
G1 X69.288 Y113.853 E18.4808
G1 X68.753 Y113.959 E18.51708
G1 X66.874 Y114.144 E18.64268
G1 X66.573 Y114.158 E18.66272
G1 X26.627 Y114.158 E21.31994
G1 X26.326 Y114.144 E21.33998
G1 X24.45 Y113.959 E21.46538
G1 X23.909 Y113.851 E21.50208
G1 X22.098 Y113.301 E21.62798
G1 X21.584 Y113.088 E21.66499
G1 X19.919 Y112.194 E21.7907
G1 X19.458 Y111.887 E21.82755
G1 X18.006 Y110.695 E21.95251
G1 X17.613 Y110.302 E21.98948
G1 X16.425 Y108.852 E22.11418
G1 X16.113 Y108.385 E22.15154
G1 X15.231 Y106.74 E22.2757
G1 X15.012 Y106.211 E22.31378
G1 X14.468 Y104.414 E22.43868
G1 X14.36 Y103.871 E22.47551
G1 X14.174 Y101.993 E22.60104
G1 X14.16 Y101.691 E22.62115
G1 X14.16 Y41.746 E26.60871
G1 X14.174 Y41.444 E26.62882
G1 X14.36 Y39.564 E26.75449
G1 X14.467 Y39.026 E26.79098
G1 X15.013 Y37.217 E26.91668
G1 X15.226 Y36.704 E26.95363
G1 X16.113 Y35.053 E27.0783
G1 X16.424 Y34.586 E27.11562
G1 X17.618 Y33.131 E27.24082
G1 X18.01 Y32.738 E27.27775
G1 X19.458 Y31.55 E27.40234
G1 X19.92 Y31.24 E27.43935
G0 F7200 X25.184 Y39.257
G1 F1800 X24.592 Y39.714 E27.4891
G1 X24.141 Y40.299 E27.53823
G1 X23.857 Y40.983 E27.5875
G1 X23.763 Y41.714 E27.63653
G1 X23.857 Y42.45 E27.68588
G1 X24.142 Y43.139 E27.73548
G1 X24.593 Y43.725 E27.78467
G1 X25.178 Y44.175 E27.83377
G1 X25.875 Y44.464 E27.88396
G1 X26.6 Y44.56 E27.93261
G1 X27.331 Y44.462 E27.98167
G1 X28.019 Y44.18 E28.03113
G1 X28.607 Y43.726 E28.08055
G1 X29.061 Y43.134 E28.13017
G1 X29.342 Y42.459 E28.17881
G1 X29.437 Y41.713 E28.22883
G1 X29.343 Y40.982 E28.27786
G1 X29.06 Y40.3 E28.32698
G1 X28.606 Y39.711 E28.37645
G1 X28.019 Y39.26 E28.42569
G1 X27.334 Y38.975 E28.47504
G1 X26.596 Y38.881 E28.52453
G1 X25.869 Y38.976 E28.5733
G1 X25.184 Y39.257 E28.62255
G0 F7200 X43.763 Y41.714
G1 F1800 X43.857 Y42.45 E28.67191
G1 X44.142 Y43.139 E28.72151
G1 X44.593 Y43.725 E28.7707
G1 X45.178 Y44.175 E28.81979
G1 X45.875 Y44.464 E28.86999
G1 X46.6 Y44.56 E28.91863
G1 X47.331 Y44.462 E28.96769
G1 X48.019 Y44.18 E29.01716
G1 X48.607 Y43.726 E29.06657
G1 X49.061 Y43.134 E29.1162
G1 X49.342 Y42.459 E29.16484
G1 X49.437 Y41.713 E29.21486
G1 X49.343 Y40.982 E29.26389
G1 X49.06 Y40.3 E29.313
G1 X48.606 Y39.711 E29.36247
G1 X48.019 Y39.26 E29.41171
G1 X47.334 Y38.975 E29.46107
G1 X46.596 Y38.881 E29.51056
G1 X45.869 Y38.976 E29.55933
G1 X45.184 Y39.257 E29.60858
G1 X44.592 Y39.714 E29.65833
G1 X44.141 Y40.299 E29.70746
G1 X43.857 Y40.983 E29.75673
G1 X43.763 Y41.714 E29.80576
G0 F7200 X45.869 Y58.976
G1 F1800 X45.184 Y59.257 E29.85501
G1 X44.592 Y59.714 E29.90476
G1 X44.141 Y60.299 E29.95389
G1 X43.858 Y60.982 E30.00307
G1 X43.764 Y61.721 E30.05263
G1 X43.861 Y62.462 E30.10234
G1 X44.14 Y63.135 E30.1508
G1 X44.593 Y63.723 E30.20018
G1 X45.18 Y64.176 E30.2495
G1 X45.875 Y64.464 E30.29954
G1 X46.6 Y64.56 E30.34819
G1 X47.331 Y64.462 E30.39725
G1 X48.019 Y64.18 E30.44671
G1 X48.605 Y63.727 E30.49598
G1 X49.062 Y63.135 E30.54573
G1 X49.343 Y62.45 E30.59498
G1 X49.438 Y61.723 E30.64376
G1 X49.344 Y60.985 E30.69324
G1 X49.059 Y60.3 E30.7426
G1 X48.607 Y59.712 E30.79193
G1 X48.019 Y59.26 E30.84127
G1 X47.334 Y58.975 E30.89062
G1 X46.596 Y58.881 E30.94011
G1 X45.869 Y58.976 E30.98888
G0 F7200 X63.858 Y60.982
G1 F1800 X63.764 Y61.721 E31.03843
G1 X63.861 Y62.464 E31.08828
G1 X64.141 Y63.135 E31.13664
G1 X64.592 Y63.726 E31.1861
G1 X65.181 Y64.178 E31.23548
G1 X65.871 Y64.462 E31.28512
G1 X66.602 Y64.56 E31.33418
G1 X67.332 Y64.462 E31.38318
G1 X68.019 Y64.18 E31.43258
G1 X68.605 Y63.727 E31.48185
G1 X69.062 Y63.135 E31.53159
G1 X69.343 Y62.45 E31.58085
G1 X69.438 Y61.723 E31.62962
G1 X69.344 Y60.985 E31.67911
G1 X69.059 Y60.3 E31.72846
G1 X68.607 Y59.712 E31.77779
G1 X68.019 Y59.26 E31.82713
G1 X67.334 Y58.975 E31.87648
G1 X66.596 Y58.881 E31.92597
G1 X65.869 Y58.976 E31.97474
G1 X65.184 Y59.257 E32.02399
G1 X64.592 Y59.714 E32.07374
G1 X64.141 Y60.299 E32.12288
G1 X63.858 Y60.982 E32.17206
G0 F7200 X65.871 Y44.462
G1 F1800 X66.602 Y44.56 E32.22112
G1 X67.332 Y44.462 E32.27011
G1 X68.019 Y44.18 E32.31951
G1 X68.607 Y43.726 E32.36893
G1 X69.061 Y43.134 E32.41856
G1 X69.342 Y42.459 E32.46719
G1 X69.437 Y41.713 E32.51722
G1 X69.343 Y40.982 E32.56624
G1 X69.06 Y40.3 E32.61536
G1 X68.606 Y39.711 E32.66483
G1 X68.019 Y39.26 E32.71407
G1 X67.334 Y38.975 E32.76343
G1 X66.596 Y38.881 E32.81291
G1 X65.869 Y38.976 E32.86168
G1 X65.184 Y39.257 E32.91094
G1 X64.592 Y39.714 E32.96068
G1 X64.141 Y40.299 E33.00982
G1 X63.857 Y40.983 E33.05909
G1 X63.763 Y41.714 E33.10811
G1 X63.857 Y42.451 E33.15754
G1 X64.141 Y43.136 E33.20686
G1 X64.594 Y43.725 E33.25629
G1 X65.183 Y44.179 E33.30576
G1 X65.871 Y44.462 E33.35525
G0 F7200 X86.091 Y42.776
G1 F1800 X86.189 Y43.507 E33.40431
G1 X86.472 Y44.195 E33.4538
G1 X86.926 Y44.783 E33.50321
G1 X87.515 Y45.238 E33.55272
G1 X88.2 Y45.519 E33.60197
G1 X88.927 Y45.614 E33.65074
G1 X89.665 Y45.52 E33.70023
G1 X90.35 Y45.235 E33.74958
G1 X90.937 Y44.785 E33.79879
G1 X91.392 Y44.195 E33.84835
G1 X91.673 Y43.515 E33.89729
G1 X91.768 Y42.776 E33.94685
G1 X91.672 Y42.035 E33.99656
G1 X91.392 Y41.361 E34.04511
G1 X90.938 Y40.769 E34.09473
G1 X90.35 Y40.315 E34.14415
G1 X89.662 Y40.033 E34.19361
G1 X88.931 Y39.935 E34.24267
G1 X88.205 Y40.031 E34.29139
G1 X87.513 Y40.319 E34.34125
G1 X86.925 Y40.77 E34.39054
G1 X86.471 Y41.359 E34.44001
G1 X86.189 Y42.045 E34.48935
G1 X86.091 Y42.776 E34.53841
G0 F7200 X106.091 Y42.776
G1 F1800 X106.189 Y43.507 E34.58747
G1 X106.471 Y44.195 E34.63693
G1 X106.926 Y44.784 E34.68644
G1 X107.512 Y45.237 E34.73571
G1 X108.201 Y45.52 E34.78526
G1 X108.928 Y45.614 E34.83402
G1 X109.665 Y45.52 E34.88345
G1 X110.35 Y45.235 E34.9328
G1 X110.937 Y44.785 E34.982
G1 X111.392 Y44.195 E35.03156
G1 X111.673 Y43.515 E35.08051
G1 X111.768 Y42.776 E35.13007
G1 X111.672 Y42.035 E35.17977
G1 X111.392 Y41.361 E35.22832
G1 X110.938 Y40.769 E35.27795
G1 X110.35 Y40.315 E35.32736
G1 X109.662 Y40.033 E35.37683
G1 X108.931 Y39.935 E35.42589
G1 X108.205 Y40.031 E35.4746
G1 X107.513 Y40.319 E35.52446
G1 X106.925 Y40.77 E35.57375
G1 X106.471 Y41.359 E35.62322
G1 X106.189 Y42.045 E35.67256
G1 X106.091 Y42.776 E35.72162
G0 F7200 X108.205 Y60.031
G1 F1800 X107.513 Y60.319 E35.77148
G1 X106.925 Y60.77 E35.82078
G1 X106.472 Y61.359 E35.87021
G1 X106.189 Y62.042 E35.91938
G1 X106.095 Y62.776 E35.96861
G1 X106.191 Y63.518 E36.01838
G1 X106.474 Y64.198 E36.06737
G1 X106.922 Y64.781 E36.11628
G1 X107.516 Y65.238 E36.16614
G1 X108.2 Y65.519 E36.21533
G1 X108.927 Y65.614 E36.2641
G1 X109.665 Y65.52 E36.31359
G1 X110.35 Y65.235 E36.36294
G1 X110.938 Y64.783 E36.41227
G1 X111.39 Y64.195 E36.46161
G1 X111.675 Y63.51 E36.51096
G1 X111.769 Y62.772 E36.56045
G1 X111.674 Y62.045 E36.60922
G1 X111.393 Y61.36 E36.65847
G1 X110.936 Y60.768 E36.70822
G1 X110.35 Y60.315 E36.75749
G1 X109.662 Y60.033 E36.80695
G1 X108.931 Y59.935 E36.85601
G1 X108.205 Y60.031 E36.90473
G0 F7200 X108.931 Y79.934
G1 F1800 X108.205 Y80.03 E36.95344
G1 X107.513 Y80.318 E37.0033
G1 X106.925 Y80.769 E37.0526
G1 X106.472 Y81.358 E37.10202
G1 X106.189 Y82.041 E37.1512
G1 X106.095 Y82.775 E37.20043
G1 X106.191 Y83.517 E37.2502
G1 X106.474 Y84.197 E37.29919
G1 X106.922 Y84.78 E37.3481
G1 X107.516 Y85.237 E37.39796
G1 X108.2 Y85.518 E37.44715
G1 X108.927 Y85.613 E37.49592
G1 X109.665 Y85.519 E37.54541
G1 X110.35 Y85.234 E37.59476
G1 X110.938 Y84.782 E37.64409
G1 X111.39 Y84.194 E37.69343
G1 X111.675 Y83.509 E37.74278
G1 X111.769 Y82.771 E37.79227
G1 X111.674 Y82.044 E37.84104
G1 X111.393 Y81.359 E37.89029
G1 X110.936 Y80.767 E37.94004
G1 X110.35 Y80.314 E37.98931
G1 X109.662 Y80.032 E38.03877
G1 X108.931 Y79.934 E38.08783
G0 F7200 X108.931 Y99.934
G1 F1800 X108.205 Y100.03 E38.13655
G1 X107.513 Y100.318 E38.18641
G1 X106.925 Y100.769 E38.2357
G1 X106.472 Y101.358 E38.28513
G1 X106.189 Y102.041 E38.33431
G1 X106.095 Y102.775 E38.38353
G1 X106.191 Y103.517 E38.4333
G1 X106.474 Y104.197 E38.4823
G1 X106.922 Y104.78 E38.53121
G1 X107.516 Y105.237 E38.58106
G1 X108.2 Y105.518 E38.63025
G1 X108.927 Y105.613 E38.67902
G1 X109.665 Y105.519 E38.72851
G1 X110.35 Y105.234 E38.77786
G1 X110.938 Y104.782 E38.8272
G1 X111.39 Y104.194 E38.87653
G1 X111.675 Y103.509 E38.92589
G1 X111.769 Y102.771 E38.97537
G1 X111.674 Y102.043 E39.02421
G1 X111.391 Y101.357 E39.07358
G1 X110.937 Y100.766 E39.12315
G1 X110.349 Y100.315 E39.17244
G1 X109.664 Y100.032 E39.22175
G1 X108.931 Y99.934 E39.27094
G0 F7200 X91.674 Y102.043
G1 F1800 X91.391 Y101.357 E39.3203
G1 X90.937 Y100.766 E39.36988
G1 X90.349 Y100.315 E39.41917
G1 X89.664 Y100.032 E39.46847
G1 X88.931 Y99.934 E39.51767
G1 X88.205 Y100.03 E39.56638
G1 X87.513 Y100.318 E39.61624
G1 X86.925 Y100.769 E39.66553
G1 X86.472 Y101.358 E39.71496
G1 X86.189 Y102.041 E39.76414
G1 X86.095 Y102.775 E39.81337
G1 X86.191 Y103.517 E39.86314
G1 X86.474 Y104.197 E39.91213
G1 X86.922 Y104.78 E39.96104
G1 X87.516 Y105.237 E40.01089
G1 X88.2 Y105.518 E40.06008
G1 X88.927 Y105.613 E40.10885
G1 X89.665 Y105.519 E40.15834
G1 X90.35 Y105.234 E40.2077
G1 X90.938 Y104.782 E40.25703
G1 X91.39 Y104.194 E40.30637
G1 X91.675 Y103.509 E40.35572
G1 X91.769 Y102.771 E40.40521
G1 X91.674 Y102.043 E40.45405
G0 F7200 X89.665 Y85.519
G1 F1800 X90.35 Y85.234 E40.5034
G1 X90.938 Y84.782 E40.55273
G1 X91.39 Y84.194 E40.60207
G1 X91.675 Y83.509 E40.65142
G1 X91.769 Y82.771 E40.70091
G1 X91.674 Y82.044 E40.74968
G1 X91.393 Y81.359 E40.79893
G1 X90.936 Y80.767 E40.84868
G1 X90.35 Y80.314 E40.89795
G1 X89.662 Y80.032 E40.94741
G1 X88.931 Y79.934 E40.99647
G1 X88.205 Y80.03 E41.04519
G1 X87.513 Y80.318 E41.09505
G1 X86.925 Y80.769 E41.14434
G1 X86.472 Y81.358 E41.19377
G1 X86.189 Y82.041 E41.24295
G1 X86.095 Y82.775 E41.29217
G1 X86.191 Y83.517 E41.34194
G1 X86.474 Y84.197 E41.39094
G1 X86.922 Y84.78 E41.43985
G1 X87.516 Y85.237 E41.4897
G1 X88.2 Y85.518 E41.53889
G1 X88.927 Y85.613 E41.58766
G1 X89.665 Y85.519 E41.63715
G0 F7200 X88.927 Y65.614
G1 F1800 X89.665 Y65.52 E41.68664
G1 X90.35 Y65.235 E41.73599
G1 X90.938 Y64.783 E41.78533
G1 X91.39 Y64.195 E41.83466
G1 X91.675 Y63.51 E41.88401
G1 X91.769 Y62.772 E41.9335
G1 X91.674 Y62.045 E41.98227
G1 X91.393 Y61.36 E42.03153
G1 X90.936 Y60.768 E42.08127
G1 X90.35 Y60.315 E42.13054
G1 X89.662 Y60.033 E42.18001
G1 X88.931 Y59.935 E42.22907
G1 X88.205 Y60.031 E42.27778
G1 X87.513 Y60.319 E42.32764
G1 X86.925 Y60.77 E42.37694
G1 X86.472 Y61.359 E42.42636
G1 X86.189 Y62.042 E42.47554
G1 X86.095 Y62.776 E42.52477
G1 X86.191 Y63.518 E42.57454
G1 X86.474 Y64.198 E42.62353
G1 X86.922 Y64.781 E42.67244
G1 X87.516 Y65.238 E42.72229
G1 X88.2 Y65.519 E42.77148
G1 X88.927 Y65.614 E42.82026
G0 F7200 X69.059 Y80.299
G1 F1800 X68.607 Y79.711 E42.86959
G1 X68.019 Y79.259 E42.91893
G1 X67.334 Y78.974 E42.96828
G1 X66.596 Y78.88 E43.01777
G1 X65.869 Y78.975 E43.06654
G1 X65.184 Y79.256 E43.11579
G1 X64.592 Y79.713 E43.16554
G1 X64.141 Y80.298 E43.21467
G1 X63.858 Y80.981 E43.26385
G1 X63.764 Y81.72 E43.31341
G1 X63.861 Y82.463 E43.36325
G1 X64.141 Y83.134 E43.41162
G1 X64.592 Y83.725 E43.46107
G1 X65.181 Y84.177 E43.51046
G1 X65.871 Y84.461 E43.56009
G1 X66.602 Y84.559 E43.60915
G1 X67.332 Y84.461 E43.65815
G1 X68.019 Y84.179 E43.70755
G1 X68.605 Y83.726 E43.75682
G1 X69.062 Y83.134 E43.80657
G1 X69.343 Y82.449 E43.85582
G1 X69.438 Y81.722 E43.90459
G1 X69.344 Y80.984 E43.95408
G1 X69.059 Y80.299 E44.00343
G0 F7200 X49.438 Y81.722
G1 F1800 X49.344 Y80.984 E44.05292
G1 X49.059 Y80.299 E44.10227
G1 X48.607 Y79.711 E44.15161
G1 X48.019 Y79.259 E44.20094
G1 X47.334 Y78.974 E44.2503
G1 X46.596 Y78.88 E44.29978
G1 X45.869 Y78.975 E44.34856
G1 X45.184 Y79.256 E44.39781
G1 X44.592 Y79.713 E44.44756
G1 X44.141 Y80.298 E44.49669
G1 X43.858 Y80.981 E44.54587
G1 X43.764 Y81.72 E44.59543
G1 X43.861 Y82.461 E44.64514
G1 X44.14 Y83.134 E44.6936
G1 X44.593 Y83.722 E44.74298
G1 X45.18 Y84.175 E44.7923
G1 X45.875 Y84.463 E44.84234
G1 X46.6 Y84.559 E44.89099
G1 X47.331 Y84.461 E44.94005
G1 X48.019 Y84.179 E44.98951
G1 X48.605 Y83.726 E45.03878
G1 X49.062 Y83.134 E45.08853
G1 X49.343 Y82.449 E45.13778
G1 X49.438 Y81.722 E45.18656
G0 F7200 X29.438 Y81.722
G1 F1800 X29.344 Y80.984 E45.23604
G1 X29.059 Y80.299 E45.2854
G1 X28.607 Y79.711 E45.33473
G1 X28.019 Y79.259 E45.38407
G1 X27.334 Y78.974 E45.43342
G1 X26.596 Y78.88 E45.48291
G1 X25.869 Y78.975 E45.53168
G1 X25.184 Y79.256 E45.58093
G1 X24.592 Y79.713 E45.63068
G1 X24.141 Y80.298 E45.67982
G1 X23.858 Y80.981 E45.72899
G1 X23.763 Y81.718 E45.77843
G1 X23.862 Y82.463 E45.82842
G1 X24.141 Y83.136 E45.87688
G1 X24.592 Y83.721 E45.92602
G1 X25.18 Y84.175 E45.97543
G1 X25.875 Y84.463 E46.02548
G1 X26.6 Y84.559 E46.07413
G1 X27.331 Y84.461 E46.12319
G1 X28.019 Y84.179 E46.17265
G1 X28.605 Y83.726 E46.22192
