;FLAVOR:Repetier
;TIME:11005
;Generated with Cura_SteamEngine 2.4.0
G21        ;metric values
G90        ;absolute positioning
M82        ;set extruder to absolute mode
G28 X0 Y0  ;move X/Y to min endstops
G28 Z0     ;move Z to min endstops
G0 Z10 F250
M109 S205 ;Uncomment to add your own temperature line
G92 E0
G1 F200 E5              ;extrude 3mm of feed stock
G0 Z0 F250
G92 E0                  ;zero the extruded length
;LAYER_COUNT:130
;LAYER:-5
M107
M207 X20
G1 F6000 E-7
G0 F7200 X32.15 Y47.974 Z0.2
G1 F6000 E0
G1 F1800 X32.518 Y47.771 E0.02796
G1 X32.918 Y47.626 E0.05626
G1 X33.338 Y47.549 E0.08466
G1 X33.602 Y47.535 E0.10225
G1 X48.818 Y47.535 E1.11442
G1 X49.333 Y45.825 E1.23322
G1 X49.545 Y45.317 E1.26984
G1 X50.437 Y43.649 E1.39566
G1 X50.743 Y43.191 E1.4323
G1 X51.94 Y41.732 E1.55784
G1 X52.333 Y41.339 E1.59481
G1 X53.792 Y40.142 E1.72034
G1 X54.25 Y39.836 E1.75699
G1 X55.918 Y38.944 E1.88281
G1 X56.424 Y38.733 E1.91928
G1 X58.229 Y38.188 E2.0447
G1 X58.767 Y38.081 E2.08119
G1 X60.647 Y37.895 E2.20686
G1 X60.949 Y37.881 E2.22697
G1 X86.894 Y37.881 E3.95284
G1 X87.196 Y37.895 E3.97295
G1 X89.075 Y38.081 E4.09855
G1 X89.613 Y38.188 E4.13504
G1 X91.418 Y38.733 E4.26046
G1 X91.924 Y38.944 E4.29693
G1 X93.597 Y39.839 E4.42314
G1 X94.047 Y40.14 E4.45916
G1 X95.513 Y41.343 E4.58531
G1 X95.903 Y41.733 E4.622
G1 X97.098 Y43.188 E4.74724
G1 X97.402 Y43.644 E4.7837
G1 X98.299 Y45.32 E4.91015
G1 X98.506 Y45.817 E4.94596
G1 X99.172 Y48.02 E5.09906
G1 X114.395 Y48.02 E6.1117
G1 X114.847 Y48.058 E6.14187
G1 X115.256 Y48.16 E6.16991
G1 X115.644 Y48.327 E6.19801
G1 X116 Y48.556 E6.22617
G1 X116.314 Y48.84 E6.25433
G1 X116.579 Y49.172 E6.28259
G1 X116.784 Y49.543 E6.31078
G1 X116.929 Y49.943 E6.33908
G1 X117.006 Y50.363 E6.36749
G1 X117.02 Y50.626 E6.38501
G1 X117.02 Y68.912 E7.6014
G1 X116.982 Y69.373 E7.63217
G1 X116.927 Y69.628 E7.64952
G1 X116.824 Y70.017 E7.67629
G1 X116.668 Y70.454 E7.70716
G1 X116.464 Y70.819 E7.73497
G1 X116.129 Y71.227 E7.77009
G1 X115.851 Y71.505 E7.79624
G1 X115.51 Y71.795 E7.82602
G1 X115.151 Y72.011 E7.85389
G1 X114.653 Y72.199 E7.8893
G1 X114.246 Y72.308 E7.91732
G1 X113.808 Y72.387 E7.94693
G1 X113.548 Y72.4 E7.96425
G1 X110.02 Y72.4 E8.19893
G1 X110.02 Y79.519 E8.67249
G1 X113.532 Y79.519 E8.90611
G1 X113.993 Y79.557 E8.93688
G1 X114.245 Y79.611 E8.95402
G1 X114.645 Y79.718 E8.98156
G1 X115.074 Y79.871 E9.01186
G1 X115.439 Y80.075 E9.03968
G1 X115.847 Y80.41 E9.07479
G1 X116.125 Y80.688 E9.10095
G1 X116.415 Y81.029 E9.13072
G1 X116.629 Y81.385 E9.15835
G1 X116.819 Y81.886 E9.194
G1 X116.928 Y82.293 E9.22202
G1 X117.007 Y82.731 E9.25163
G1 X117.02 Y82.989 E9.26881
G1 X117.02 Y101.274 E10.48514
G1 X116.982 Y101.726 E10.51531
G1 X116.88 Y102.135 E10.54335
G1 X116.713 Y102.523 E10.57145
G1 X116.484 Y102.879 E10.59961
G1 X116.2 Y103.193 E10.62777
G1 X115.868 Y103.458 E10.65603
G1 X115.497 Y103.663 E10.68422
G1 X115.097 Y103.808 E10.71253
G1 X114.677 Y103.885 E10.74093
G1 X114.414 Y103.899 E10.75845
G1 X99.363 Y103.899 E11.75965
G1 X98.204 Y103.805 E11.837
G1 X96.874 Y106.288 E12.02437
G1 X96.565 Y106.752 E12.06145
G1 X95.366 Y108.212 E12.18712
G1 X94.974 Y108.605 E12.22405
G1 X93.514 Y109.803 E12.34968
G1 X93.056 Y110.109 E12.38632
G1 X91.388 Y111.001 E12.51214
G1 X90.882 Y111.212 E12.54861
G1 X89.077 Y111.757 E12.67404
G1 X88.539 Y111.864 E12.71052
G1 X86.659 Y112.05 E12.83619
G1 X86.357 Y112.064 E12.8563
G1 X60.412 Y112.064 E14.58217
G1 X60.11 Y112.05 E14.60228
G1 X58.23 Y111.864 E14.72795
G1 X57.692 Y111.757 E14.76444
G1 X55.887 Y111.212 E14.88986
G1 X55.381 Y111.001 E14.92633
G1 X53.713 Y110.109 E15.05216
G1 X53.255 Y109.803 E15.0888
G1 X51.795 Y108.605 E15.21443
G1 X51.403 Y108.212 E15.25135
G1 X50.204 Y106.752 E15.37702
G1 X49.9 Y106.296 E15.41348
G1 X49.005 Y104.623 E15.53969
G1 X48.502 Y103.414 E15.6268
G1 X33.62 Y103.414 E16.61675
G1 X33.168 Y103.376 E16.64693
G1 X32.759 Y103.274 E16.67497
G1 X32.371 Y103.107 E16.70306
G1 X32.015 Y102.878 E16.73122
G1 X31.701 Y102.594 E16.75939
G1 X31.436 Y102.261 E16.7877
G1 X31.23 Y101.89 E16.81592
G1 X31.086 Y101.491 E16.84414
G1 X31.009 Y101.071 E16.87254
G1 X30.995 Y100.808 E16.89006
G1 X30.995 Y82.522 E18.10645
G1 X31.033 Y82.063 E18.13709
G1 X31.086 Y81.818 E18.15377
G1 X31.197 Y81.401 E18.18247
G1 X31.347 Y80.98 E18.2122
G1 X31.552 Y80.613 E18.24016
G1 X31.886 Y80.207 E18.27514
G1 X32.164 Y79.929 E18.30129
G1 X32.505 Y79.639 E18.33106
G1 X32.864 Y79.423 E18.35894
G1 X33.362 Y79.235 E18.39434
G1 X33.769 Y79.126 E18.42237
G1 X34.207 Y79.047 E18.45198
G1 X34.467 Y79.034 E18.46929
G1 X37.995 Y79.034 E18.70398
G1 X37.995 Y71.915 E19.17754
G1 X34.483 Y71.915 E19.41116
G1 X34.022 Y71.877 E19.44193
G1 X33.77 Y71.823 E19.45907
G1 X33.37 Y71.716 E19.48661
G1 X32.941 Y71.563 E19.51691
G1 X32.574 Y71.358 E19.54487
G1 X32.168 Y71.024 E19.57985
G1 X31.89 Y70.746 E19.606
G1 X31.6 Y70.405 E19.63577
G1 X31.384 Y70.046 E19.66364
G1 X31.196 Y69.548 E19.69905
G1 X31.087 Y69.141 E19.72708
G1 X31.008 Y68.703 E19.75669
G1 X30.995 Y68.445 E19.77387
G1 X30.995 Y50.16 E20.9902
G1 X31.033 Y49.708 E21.02037
G1 X31.135 Y49.299 E21.04841
G1 X31.302 Y48.911 E21.07651
G1 X31.531 Y48.555 E21.10466
G1 X31.815 Y48.241 E21.13283
G1 X32.15 Y47.974 E21.16132
G0 F7200 X61.085 Y50.315
G1 F1800 X61.18 Y51.061 E21.21135
G1 X61.461 Y51.735 E21.25992
G1 X61.916 Y52.329 E21.3097
G1 X62.505 Y52.781 E21.35909
G1 X63.185 Y53.065 E21.40811
G1 X63.927 Y53.159 E21.45786
G1 X64.652 Y53.065 E21.50649
G1 X65.341 Y52.782 E21.55604
G1 X65.928 Y52.328 E21.6054
G1 X66.381 Y51.739 E21.65483
G1 X66.665 Y51.056 E21.70403
G1 X66.763 Y50.321 E21.75336
G1 X66.665 Y49.586 E21.80268
G1 X66.381 Y48.903 E21.85189
G1 X65.928 Y48.314 E21.90132
G1 X65.341 Y47.86 E21.95068
G1 X64.652 Y47.577 E22.00023
G1 X63.927 Y47.483 E22.04886
G1 X63.185 Y47.577 E22.09861
G1 X62.505 Y47.861 E22.14763
G1 X61.916 Y48.312 E22.19698
G1 X61.46 Y48.903 E22.24663
G1 X61.179 Y49.587 E22.29582
G1 X61.085 Y50.315 E22.34465
G0 F7200 X81.084 Y50.315
G1 F1800 X81.179 Y51.061 E22.39468
G1 X81.46 Y51.735 E22.44325
G1 X81.915 Y52.329 E22.49303
G1 X82.504 Y52.781 E22.54241
G1 X83.184 Y53.065 E22.59143
G1 X83.926 Y53.159 E22.64119
G1 X84.651 Y53.065 E22.68982
G1 X85.34 Y52.782 E22.73937
G1 X85.927 Y52.328 E22.78873
G1 X86.38 Y51.739 E22.83816
G1 X86.664 Y51.056 E22.88736
G1 X86.762 Y50.321 E22.93669
G1 X86.664 Y49.586 E22.98601
G1 X86.38 Y48.903 E23.03522
G1 X85.927 Y48.314 E23.08464
G1 X85.34 Y47.86 E23.13401
G1 X84.651 Y47.577 E23.18356
G1 X83.926 Y47.483 E23.23219
G1 X83.184 Y47.577 E23.28194
G1 X82.504 Y47.861 E23.33096
G1 X81.915 Y48.312 E23.38031
G1 X81.459 Y48.903 E23.42996
G1 X81.178 Y49.587 E23.47915
G1 X81.084 Y50.315 E23.52798
G0 F7200 X83.384 Y96.783
G1 F1800 X82.653 Y96.881 E23.57704
G1 X81.965 Y97.163 E23.6265
G1 X81.379 Y97.616 E23.67577
G1 X80.922 Y98.208 E23.72552
G1 X80.641 Y98.893 E23.77477
G1 X80.546 Y99.62 E23.82354
G1 X80.64 Y100.358 E23.87303
G1 X80.925 Y101.043 E23.92239
G1 X81.377 Y101.631 E23.97172
G1 X81.965 Y102.083 E24.02106
G1 X82.65 Y102.368 E24.07041
G1 X83.388 Y102.462 E24.1199
G1 X84.115 Y102.367 E24.16867
G1 X84.8 Y102.086 E24.21792
G1 X85.392 Y101.629 E24.26767
G1 X85.843 Y101.044 E24.31681
G1 X86.126 Y100.361 E24.36598
G1 X86.221 Y99.616 E24.41594
G1 X86.127 Y98.896 E24.46424
G1 X85.843 Y98.205 E24.51394
G1 X85.391 Y97.618 E24.56322
G1 X84.806 Y97.168 E24.61232
G1 X84.109 Y96.879 E24.66251
G1 X83.384 Y96.783 E24.71116
G0 F7200 X66.128 Y98.896
G1 F1800 X65.844 Y98.205 E24.76085
G1 X65.392 Y97.618 E24.81014
G1 X64.807 Y97.168 E24.85923
G1 X64.11 Y96.879 E24.90942
G1 X63.385 Y96.783 E24.95807
G1 X62.654 Y96.881 E25.00713
G1 X61.966 Y97.163 E25.0566
G1 X61.38 Y97.616 E25.10587
G1 X60.923 Y98.208 E25.15561
G1 X60.642 Y98.893 E25.20487
G1 X60.547 Y99.62 E25.25364
G1 X60.641 Y100.358 E25.30313
G1 X60.926 Y101.043 E25.35248
G1 X61.378 Y101.631 E25.40181
G1 X61.966 Y102.083 E25.45115
G1 X62.651 Y102.368 E25.5005
G1 X63.389 Y102.462 E25.54999
G1 X64.116 Y102.367 E25.59876
G1 X64.801 Y102.086 E25.64801
G1 X65.393 Y101.629 E25.69776
G1 X65.844 Y101.044 E25.7469
G1 X66.127 Y100.361 E25.79608
G1 X66.222 Y99.616 E25.84604
G1 X66.128 Y98.896 E25.89434
G0 F7200 X64.8 Y97.165
G1 F1800 X64.8 Y53.004 E28.83194
G0 F7200 X63 Y52.988
G1 F1800 X63 Y96.835 E31.74865
G0 F7200 X61.2 Y97.85
G1 F1800 X61.2 Y51.109 E34.85788
G0 F7200 X61.2 Y49.536
G1 F1800 X61.2 Y37.881 E35.63317
G0 F7200 X63 Y37.881
G1 F1800 X63 Y47.655 E36.28334
G0 F7200 X64.8 Y47.637
G1 F1800 X64.8 Y37.881 E36.93231
G0 F7200 X66.6 Y37.881
G1 F1800 X66.6 Y49.429 E37.70049
G0 F7200 X66.6 Y51.212
G1 F1800 X66.6 Y112.064 E41.74838
G0 F7200 X64.8 Y112.064
G1 F1800 X64.8 Y102.086 E42.41212
G0 F7200 X63 Y102.413
G1 F1800 X63 Y112.064 E43.0541
G0 F7200 X61.2 Y112.064
G1 F1800 X61.2 Y101.4 E43.76348
G0 F7200 X59.4 Y111.979
G1 F1800 X59.4 Y38.018 E48.68338
G0 F7200 X57.6 Y38.377
G1 F1800 X57.6 Y111.729 E53.56278
G0 F7200 X55.8 Y111.175
G1 F1800 X55.8 Y39.007 E58.36341
G0 F7200 X54 Y40.003
G1 F1800 X54 Y110.262 E63.03706
G0 F7200 X52.2 Y108.937
G1 F1800 X52.2 Y41.472 E67.52485
G0 F7200 X50.4 Y43.718
G1 F1800 X50.4 Y106.99 E71.73372
G0 F7200 X48.6 Y103.649
G1 F1800 X48.6 Y47.535 E75.46644
G0 F7200 X46.8 Y47.535
G1 F1800 X46.8 Y103.414 E79.18353
G0 F7200 X45 Y103.414
G1 F1800 X45 Y47.535 E82.90061
G0 F7200 X43.2 Y47.535
G1 F1800 X43.2 Y103.414 E86.6177
G0 F7200 X41.4 Y103.414
G1 F1800 X41.4 Y47.535 E90.33478
G0 F7200 X39.6 Y47.535
G1 F1800 X39.6 Y103.414 E94.05187
G0 F7200 X37.8 Y103.414
G1 F1800 X37.8 Y79.034 E95.67363
G0 F7200 X36 Y79.034
G1 F1800 X36 Y103.414 E97.2954
G0 F7200 X34.2 Y103.414
G1 F1800 X34.2 Y79.048 E98.91623
G0 F7200 X32.4 Y79.728
G1 F1800 X32.4 Y103.119 E100.47221
G0 F7200 X34.2 Y71.891
G1 F1800 X34.2 Y47.535 E102.09237
G0 F7200 X36 Y47.535
G1 F1800 X36 Y71.915 E103.71414
G0 F7200 X37.8 Y71.915
G1 F1800 X37.8 Y47.535 E105.3359
G0 F7200 X32.4 Y47.836
G1 F1800 X32.4 Y71.214 E106.89101
G0 F7200 X68.4 Y37.881
G1 F1800 X68.4 Y112.064 E111.82569
G0 F7200 X70.2 Y112.064
G1 F1800 X70.2 Y37.881 E116.76036
G0 F7200 X72 Y37.881
G1 F1800 X72 Y112.064 E121.69503
G0 F7200 X73.8 Y112.064
G1 F1800 X73.8 Y37.881 E126.62971
G0 F7200 X75.6 Y37.881
G1 F1800 X75.6 Y112.064 E131.56438
G0 F7200 X77.4 Y112.064
G1 F1800 X77.4 Y37.881 E136.49905
G0 F7200 X79.2 Y37.881
G1 F1800 X79.2 Y112.064 E141.43373
G0 F7200 X81 Y112.064
G1 F1800 X81 Y101.141 E142.16033
G0 F7200 X82.8 Y102.388
G1 F1800 X82.8 Y112.064 E142.80398
G0 F7200 X84.6 Y112.064
G1 F1800 X84.6 Y102.168 E143.46226
G0 F7200 X84.6 Y97.082
G1 F1800 X84.6 Y53.071 E146.38989
G0 F7200 X82.8 Y52.905
G1 F1800 X82.8 Y96.862 E149.31392
G0 F7200 X81 Y98.107
G1 F1800 X81 Y37.881 E153.32017
G0 F7200 X82.8 Y37.881
G1 F1800 X82.8 Y47.738 E153.97586
G0 F7200 X84.6 Y47.57
G1 F1800 X84.6 Y37.881 E154.62037
G0 F7200 X86.4 Y37.881
G1 F1800 X86.4 Y48.951 E155.35675
G0 F7200 X86.4 Y51.69
G1 F1800 X86.4 Y112.063 E159.37278
G0 F7200 X88.2 Y111.898
G1 F1800 X88.2 Y37.995 E164.28883
G0 F7200 X90 Y38.305
G1 F1800 X90 Y111.479 E169.15638
G0 F7200 X91.8 Y110.781
G1 F1800 X91.8 Y38.893 E173.93839
G0 F7200 X93.6 Y39.842
G1 F1800 X93.6 Y109.733 E178.58756
G0 F7200 X95.4 Y108.171
G1 F1800 X95.4 Y41.251 E183.0391
G0 F7200 X97.2 Y43.341
G1 F1800 X97.2 Y105.68 E187.1859
G0 F7200 X99 Y103.869
G1 F1800 X99 Y47.452 E190.93878
G0 F7200 X100.8 Y48.02
G1 F1800 X100.8 Y103.899 E194.65586
G0 F7200 X102.6 Y103.899
G1 F1800 X102.6 Y48.02 E198.37295
G0 F7200 X104.4 Y48.02
G1 F1800 X104.4 Y103.899 E202.09003
G0 F7200 X106.2 Y103.899
G1 F1800 X106.2 Y48.02 E205.80712
G0 F7200 X108 Y48.02
G1 F1800 X108 Y103.899 E209.52421
G0 F7200 X109.8 Y103.899
G1 F1800 X109.8 Y48.02 E213.24129
G0 F7200 X111.6 Y48.02
G1 F1800 X111.6 Y72.4 E214.86306
G0 F7200 X113.4 Y72.4
G1 F1800 X113.4 Y48.02 E216.48482
G0 F7200 X115.2 Y48.147
G1 F1800 X115.2 Y71.982 E218.07033
G0 F7200 X117 Y69.155
G1 F1800 X117 Y50.331 E219.32251
G0 F7200 X113.4 Y79.519
G1 F1800 X113.4 Y103.899 E220.94427
G0 F7200 X111.6 Y103.899
G1 F1800 X111.6 Y79.519 E222.56604
G0 F7200 X115.2 Y79.942
G1 F1800 X115.2 Y103.771 E224.15115
G0 F7200 X117 Y101.512
M104 S205
G1 F1800 X117 Y82.693 E225.40299
;TIME_ELAPSED:126.129571
;LAYER:-4
M140 S55
G0 F7200 X117.019 Y83.078 Z0.4
;TYPE:SUPPORT
G1 F1800 X113.46 Y79.519 E225.7378
G1 X111.197 Y79.519 E225.88834
G1 X117.019 Y85.341 E226.43604
G1 X117.019 Y87.604 E226.58657
G1 X67.296 Y37.881 E231.26421
G1 X65.034 Y37.881 E231.41468
G1 X117.019 Y89.866 E236.30511
G1 X117.019 Y92.129 E236.45564
G1 X62.771 Y37.881 E241.55896
G1 X60.948 Y37.881 E241.68023
G1 X60.646 Y37.894 E241.70034
G1 X60.533 Y37.905 E241.70789
G1 X117.019 Y94.392 E247.02179
G1 X117.019 Y96.655 E247.17233
G1 X58.498 Y38.134 E252.67762
G1 X58.228 Y38.188 E252.69594
G1 X56.74 Y38.638 E252.79935
G1 X117.019 Y98.917 E258.47003
G1 X117.019 Y101.18 E258.62056
G1 X66.691 Y50.852 E263.35511
G1 X66.664 Y51.055 E263.36874
G1 X66.38 Y51.739 E263.418
G1 X65.927 Y52.328 E263.46743
G1 X65.914 Y52.337 E263.46848
G1 X116.47 Y102.893 E268.22448
G1 X116.199 Y103.193 E268.25137
G1 X115.867 Y103.457 E268.27959
G1 X115.495 Y103.663 E268.30787
G1 X115.114 Y103.801 E268.33483
G1 X64.41 Y53.096 E273.1048
G0 F7200 X61.147 Y49.833
G1 F1800 X61.178 Y49.587 E273.12129
G1 X61.459 Y48.902 E273.17054
G1 X61.903 Y48.327 E273.21887
G1 X53.751 Y40.174 E273.98581
G1 X53.791 Y40.141 E273.98925
G1 X54.249 Y39.835 E274.0259
G1 X55.178 Y39.339 E274.09595
G1 X63.39 Y47.55 E274.86844
G0 F7200 X61.147 Y49.833
G1 F1800 X52.509 Y41.195 E275.68105
G1 X52.332 Y41.339 E275.69623
G1 X51.939 Y41.732 E275.7332
G1 X51.417 Y42.367 E275.78788
G1 X112.948 Y103.898 E281.57634
G1 X110.686 Y103.898 E281.7268
G1 X50.435 Y43.647 E287.39485
G1 X50.435 Y43.648 E287.39492
G1 X49.648 Y45.122 E287.50607
G1 X108.423 Y103.898 E293.03531
G1 X106.16 Y103.898 E293.18584
G1 X49.043 Y46.78 E298.55911
G1 X48.817 Y47.534 E298.61147
G1 X47.534 Y47.534 E298.69681
G1 X103.898 Y103.898 E303.99919
G1 X101.635 Y103.898 E304.14973
G1 X45.271 Y47.534 E309.45211
G1 X43.009 Y47.534 E309.60258
G1 X99.372 Y103.898 E314.90491
G1 X99.362 Y103.898 E314.90557
G1 X98.203 Y103.803 E314.98293
G1 X97.79 Y104.578 E315.04135
G1 X40.746 Y47.534 E320.40769
G1 X38.483 Y47.534 E320.55823
G1 X97 Y106.051 E326.06315
G1 X96.874 Y106.287 E326.08095
G1 X96.564 Y106.751 E326.11807
G1 X96.056 Y107.37 E326.17133
G1 X36.22 Y47.534 E331.80034
G1 X33.958 Y47.534 E331.95081
G1 X83.226 Y96.802 E336.58564
G1 X82.653 Y96.879 E336.6241
G1 X81.964 Y97.162 E336.67365
G1 X81.602 Y97.441 E336.70405
G1 X32.141 Y47.98 E341.35703
G1 X31.815 Y48.24 E341.38477
G1 X31.531 Y48.554 E341.41294
G1 X31.302 Y48.91 E341.44109
G1 X31.153 Y49.254 E341.46603
G1 X80.684 Y98.786 E346.12565
G0 F7200 X84.221 Y102.323
G1 F1800 X84.799 Y102.085 E346.16723
G1 X85.391 Y101.628 E346.21698
G1 X85.564 Y101.403 E346.23586
G1 X93.76 Y109.599 E347.00689
G1 X94.974 Y108.604 E347.1113
G1 X95.001 Y108.577 E347.11384
G1 X86.199 Y99.776 E347.94183
G0 F7200 X84.221 Y102.323
G1 F1800 X92.371 Y110.473 E348.70854
G1 X91.387 Y111 E348.78279
G1 X90.882 Y111.211 E348.8192
G1 X90.854 Y111.219 E348.82113
G1 X30.994 Y51.359 E354.4524
G1 X30.994 Y53.622 E354.60293
G1 X89.116 Y111.744 E360.07069
G1 X89.077 Y111.756 E360.07341
G1 X88.538 Y111.863 E360.10996
G1 X87.114 Y112.004 E360.20515
G1 X30.994 Y55.884 E365.48457
G1 X30.994 Y58.147 E365.63511
G1 X84.91 Y112.062 E370.70715
G1 X82.647 Y112.062 E370.85768
G1 X30.994 Y60.41 E375.71683
G1 X30.994 Y62.672 E375.8673
G1 X80.384 Y112.062 E380.51361
G1 X78.121 Y112.062 E380.66415
G1 X66.159 Y100.1 E381.78946
G1 X66.126 Y100.36 E381.80689
G1 X65.843 Y101.043 E381.85607
G1 X65.406 Y101.61 E381.90369
