;FLAVOR:Repetier
;TIME:9736
;Generated with Cura_SteamEngine 2.4.0
G21        ;metric values
G90        ;absolute positioning
M82        ;set extruder to absolute mode
G28 X0 Y0  ;move X/Y to min endstops
G28 Z0     ;move Z to min endstops
G0 Z10 F250
M109 S205 ;Uncomment to add your own temperature line
G92 E0
G1 F200 E5              ;extrude 3mm of feed stock
G0 Z0 F250
G92 E0                  ;zero the extruded length
;LAYER_COUNT:18
;LAYER:-5
M107
M207 X20
G1 F6000 E-7
G0 F7200 X43.622 Y23.8 Z0.2
G1 F6000 E0
G1 F1800 X44.52 Y22.122 E0.1266
G1 X44.821 Y21.672 E0.16261
G1 X46.017 Y20.213 E0.28811
G1 X46.413 Y19.817 E0.32536
G1 X47.872 Y18.621 E0.45086
G1 X48.322 Y18.32 E0.48687
G1 X50 Y17.422 E0.61347
G1 X50.495 Y17.216 E0.64913
G1 X52.307 Y16.667 E0.77508
G1 X52.847 Y16.56 E0.8117
G1 X54.725 Y16.374 E0.93723
G1 X55.027 Y16.36 E0.95735
G1 X94.973 Y16.36 E3.61456
G1 X95.275 Y16.374 E3.63467
G1 X97.153 Y16.56 E3.76021
G1 X97.693 Y16.667 E3.79683
G1 X99.505 Y17.216 E3.92278
G1 X100 Y17.422 E3.95844
G1 X101.678 Y18.32 E4.08504
G1 X102.128 Y18.621 E4.12105
G1 X103.587 Y19.817 E4.24655
G1 X103.983 Y20.213 E4.2838
G1 X105.179 Y21.672 E4.4093
G1 X105.48 Y22.122 E4.44531
G1 X106.378 Y23.8 E4.57191
G1 X106.584 Y24.295 E4.60757
G1 X107.133 Y26.107 E4.73352
G1 X107.24 Y26.647 E4.77014
G1 X107.425 Y28.523 E4.89554
G1 X107.425 Y29.077 E4.93239
G1 X107.24 Y30.954 E5.05785
G1 X107.133 Y31.494 E5.09447
G1 X106.584 Y33.306 E5.22042
G1 X106.378 Y33.801 E5.25608
G1 X105.48 Y35.479 E5.38268
G1 X105.179 Y35.929 E5.4187
G1 X103.983 Y37.388 E5.54419
G1 X103.587 Y37.784 E5.58144
G1 X102.128 Y38.98 E5.70694
G1 X100.082 Y40.347 E5.87062
G1 X102.123 Y41.716 E6.0341
G1 X103.587 Y42.917 E6.16006
G1 X103.983 Y43.313 E6.19732
G1 X105.177 Y44.77 E6.32262
G1 X106.807 Y47.212 E6.51793
G1 X107.967 Y45.052 E6.68102
G1 X108.28 Y44.585 E6.71842
G1 X109.474 Y43.13 E6.84362
G1 X109.864 Y42.74 E6.88031
G1 X111.329 Y41.537 E7.00641
G1 X111.791 Y41.23 E7.04331
G1 X113.441 Y40.344 E7.16789
G1 X113.954 Y40.131 E7.20484
G1 X115.763 Y39.585 E7.33054
G1 X116.301 Y39.478 E7.36703
G1 X118.179 Y39.293 E7.49256
G1 X118.733 Y39.293 E7.52941
G1 X120.611 Y39.478 E7.65494
G1 X121.149 Y39.585 E7.69143
G1 X122.954 Y40.13 E7.81685
G1 X123.46 Y40.341 E7.85332
G1 X125.128 Y41.233 E7.97914
G1 X125.586 Y41.539 E8.01578
G1 X127.045 Y42.736 E8.14132
G1 X127.438 Y43.129 E8.17829
G1 X128.635 Y44.588 E8.30383
G1 X128.941 Y45.046 E8.34047
G1 X129.833 Y46.714 E8.46629
G1 X130.041 Y47.212 E8.50219
G1 X130.589 Y49.025 E8.62818
G1 X130.696 Y49.563 E8.66467
G1 X130.882 Y51.443 E8.79034
G1 X130.896 Y51.734 E8.80972
G1 X130.896 Y91.69 E11.4676
G1 X130.882 Y91.992 E11.48772
G1 X130.696 Y93.872 E11.61338
G1 X130.589 Y94.41 E11.64987
G1 X130.044 Y96.215 E11.7753
G1 X129.833 Y96.721 E11.81176
G1 X128.941 Y98.389 E11.93759
G1 X128.635 Y98.847 E11.97423
G1 X127.438 Y100.306 E12.09977
G1 X127.045 Y100.699 E12.13674
G1 X125.586 Y101.896 E12.26227
G1 X125.128 Y102.202 E12.29891
G1 X123.46 Y103.094 E12.42474
G1 X122.954 Y103.305 E12.46121
G1 X121.149 Y103.85 E12.58663
G1 X120.611 Y103.957 E12.62312
G1 X118.733 Y104.142 E12.74865
G1 X118.179 Y104.142 E12.7855
G1 X116.301 Y103.957 E12.91103
G1 X115.763 Y103.85 E12.94752
G1 X113.954 Y103.304 E13.07322
G1 X113.441 Y103.091 E13.11017
G1 X111.791 Y102.205 E13.23475
G1 X111.329 Y101.898 E13.27165
G1 X109.864 Y100.695 E13.39774
G1 X109.475 Y100.306 E13.43434
G1 X108.971 Y99.685 E13.48754
G1 X107.32 Y100.011 E13.59949
G1 X106.571 Y102.487 E13.77156
G1 X106.361 Y102.995 E13.80813
G1 X105.466 Y104.665 E13.93416
G1 X105.165 Y105.116 E13.97023
G1 X103.962 Y106.582 E14.09638
G1 X103.572 Y106.972 E14.13307
G1 X102.117 Y108.166 E14.25828
G1 X99.806 Y109.709 E14.44312
G1 X102.495 Y111.153 E14.64615
G1 X102.965 Y111.466 E14.68372
G1 X104.424 Y112.663 E14.80925
G1 X104.817 Y113.056 E14.84622
G1 X106.014 Y114.515 E14.97176
G1 X106.32 Y114.973 E15.0084
G1 X107.212 Y116.641 E15.13423
G1 X107.423 Y117.147 E15.17069
G1 X107.968 Y118.952 E15.29612
G1 X108.075 Y119.49 E15.33261
G1 X108.26 Y121.368 E15.45814
G1 X108.26 Y121.922 E15.49499
G1 X108.075 Y123.8 E15.62052
G1 X107.968 Y124.338 E15.65701
G1 X107.423 Y126.143 E15.78243
G1 X107.212 Y126.649 E15.8189
G1 X106.32 Y128.317 E15.94472
G1 X106.016 Y128.773 E15.98118
G1 X104.817 Y130.233 E16.10685
G1 X104.425 Y130.626 E16.14378
G1 X102.965 Y131.824 E16.26941
G1 X102.507 Y132.13 E16.30605
G1 X100.839 Y133.022 E16.43187
G1 X100.333 Y133.233 E16.46834
G1 X98.528 Y133.778 E16.59376
G1 X97.99 Y133.885 E16.63025
G1 X96.11 Y134.071 E16.75592
G1 X95.808 Y134.085 E16.77603
G1 X55.863 Y134.085 E19.43318
G1 X55.561 Y134.071 E19.45329
G1 X53.683 Y133.885 E19.57883
G1 X53.14 Y133.777 E19.61566
G1 X51.339 Y133.232 E19.74083
G1 X50.831 Y133.022 E19.77739
G1 X49.161 Y132.127 E19.90343
G1 X48.71 Y131.826 E19.9395
G1 X47.244 Y130.623 E20.06565
G1 X46.854 Y130.233 E20.10234
G1 X45.655 Y128.772 E20.22806
G1 X45.356 Y128.325 E20.26383
G1 X44.459 Y126.647 E20.3904
G1 X44.255 Y126.157 E20.42571
G1 X43.701 Y124.331 E20.55264
G1 X43.595 Y123.799 E20.58873
G1 X43.411 Y121.92 E20.71432
G1 X43.411 Y121.37 E20.7509
G1 X43.595 Y119.491 E20.87649
G1 X43.701 Y118.959 E20.91258
G1 X44.256 Y117.131 E21.03966
G1 X44.459 Y116.643 E21.07481
G1 X45.356 Y114.965 E21.20138
G1 X45.655 Y114.518 E21.23716
G1 X46.854 Y113.057 E21.36288
G1 X47.244 Y112.667 E21.39957
G1 X48.712 Y111.462 E21.52591
G1 X51.019 Y109.921 E21.71045
G1 X48.31 Y108.472 E21.91482
G1 X47.857 Y108.169 E21.95107
G1 X46.398 Y106.973 E22.07656
G1 X46.002 Y106.577 E22.11382
G1 X44.806 Y105.118 E22.23931
G1 X44.505 Y104.668 E22.27532
G1 X43.607 Y102.99 E22.40192
G1 X42.758 Y100.942 E22.5494
G1 X40.09 Y103.131 E22.77897
G1 X39.623 Y103.442 E22.81629
G1 X37.972 Y104.329 E22.94096
G1 X37.459 Y104.542 E22.97791
G1 X35.65 Y105.088 E23.10361
G1 X35.112 Y105.195 E23.1401
G1 X33.234 Y105.38 E23.26563
G1 X32.68 Y105.38 E23.30248
G1 X30.802 Y105.195 E23.42801
G1 X30.264 Y105.088 E23.4645
G1 X28.455 Y104.542 E23.59019
G1 X27.942 Y104.329 E23.62714
G1 X26.291 Y103.442 E23.75181
G1 X25.824 Y103.131 E23.78914
G1 X24.369 Y101.937 E23.91434
G1 X23.979 Y101.547 E23.95103
G1 X22.776 Y100.082 E24.07713
G1 X22.469 Y99.62 E24.11403
G1 X21.583 Y97.97 E24.23861
G1 X21.37 Y97.457 E24.27556
G1 X20.824 Y95.648 E24.40126
G1 X20.717 Y95.11 E24.43774
G1 X20.531 Y93.23 E24.56341
G1 X20.517 Y92.928 E24.58352
G1 X20.517 Y52.979 E27.24094
G1 X20.531 Y52.681 E27.26079
G1 X20.717 Y50.801 E27.38646
G1 X20.824 Y50.263 E27.42294
G1 X21.369 Y48.458 E27.54837
G1 X21.58 Y47.952 E27.58484
G1 X22.472 Y46.284 E27.71066
G1 X22.778 Y45.826 E27.7473
G1 X23.975 Y44.367 E27.87284
G1 X24.368 Y43.974 E27.90981
G1 X25.827 Y42.777 E28.03535
G1 X26.285 Y42.471 E28.07199
G1 X27.953 Y41.579 E28.19781
G1 X28.459 Y41.368 E28.23428
G1 X30.264 Y40.823 E28.3597
G1 X30.802 Y40.716 E28.39619
G1 X32.68 Y40.531 E28.52172
G1 X33.234 Y40.531 E28.55857
G1 X35.112 Y40.716 E28.6841
G1 X35.65 Y40.823 E28.72059
G1 X37.455 Y41.368 E28.84601
G1 X37.961 Y41.579 E28.88248
G1 X39.629 Y42.471 E29.00831
G1 X40.087 Y42.777 E29.04495
G1 X41.546 Y43.974 E29.17049
G1 X41.939 Y44.367 E29.20746
G1 X43.674 Y46.482 E29.38943
G1 X44.822 Y44.77 E29.52655
G1 X46.017 Y43.313 E29.65189
G1 X46.413 Y42.917 E29.68915
G1 X47.877 Y41.716 E29.81511
G1 X49.918 Y40.347 E29.97859
G1 X47.872 Y38.98 E30.14227
G1 X46.413 Y37.784 E30.26777
G1 X46.017 Y37.388 E30.30502
G1 X44.821 Y35.929 E30.43052
G1 X44.52 Y35.479 E30.46653
G1 X43.622 Y33.801 E30.59313
G1 X43.416 Y33.306 E30.62879
G1 X42.867 Y31.494 E30.75474
G1 X42.76 Y30.954 E30.79136
G1 X42.575 Y29.077 E30.91682
G1 X42.575 Y28.523 E30.95367
G1 X42.76 Y26.647 E31.07907
G1 X42.867 Y26.107 E31.11569
G1 X43.416 Y24.295 E31.24164
G1 X43.622 Y23.8 E31.2773
G0 F7200 X52.54 Y27.381
G1 F1800 X52.257 Y28.07 E31.32685
G1 X52.163 Y28.797 E31.37561
G1 X52.257 Y29.534 E31.42504
G1 X52.541 Y30.218 E31.4743
G1 X52.998 Y30.81 E31.52405
G1 X53.58 Y31.261 E31.57303
G1 X54.269 Y31.543 E31.62255
G1 X55 Y31.641 E31.67161
G1 X55.737 Y31.543 E31.72107
G1 X56.418 Y31.261 E31.7701
G1 X57.003 Y30.81 E31.81924
G1 X57.461 Y30.216 E31.86913
G1 X57.742 Y29.539 E31.91789
G1 X57.837 Y28.794 E31.96785
G1 X57.742 Y28.066 E32.01669
G1 X57.46 Y27.384 E32.06578
G1 X57.009 Y26.794 E32.11518
G1 X56.423 Y26.344 E32.16433
G1 X55.73 Y26.056 E32.21425
G1 X54.996 Y25.962 E32.26347
G1 X54.276 Y26.054 E32.31176
G1 X53.578 Y26.344 E32.36204
G1 X52.993 Y26.794 E32.41113
G1 X52.54 Y27.381 E32.46045
G0 F7200 X72.159 Y28.802
G1 F1800 X72.257 Y29.533 E32.50952
G1 X72.541 Y30.217 E32.55878
G1 X72.998 Y30.81 E32.60858
G1 X73.58 Y31.261 E32.65756
G1 X74.269 Y31.543 E32.70708
G1 X75 Y31.641 E32.75615
G1 X75.731 Y31.543 E32.80521
G1 X76.42 Y31.261 E32.85473
G1 X77.002 Y30.81 E32.90371
G1 X77.459 Y30.218 E32.95346
G1 X77.743 Y29.534 E33.00272
G1 X77.838 Y28.796 E33.05222
G1 X77.741 Y28.066 E33.10121
G1 X77.459 Y27.384 E33.1503
G1 X77.008 Y26.794 E33.1997
G1 X76.421 Y26.344 E33.2489
G1 X75.724 Y26.055 E33.29909
G1 X75 Y25.961 E33.34766
G1 X74.276 Y26.055 E33.39622
G1 X73.578 Y26.344 E33.44648
G1 X72.993 Y26.794 E33.49557
G1 X72.542 Y27.38 E33.54476
G1 X72.257 Y28.067 E33.59424
G1 X72.159 Y28.802 E33.64356
G0 F7200 X92.162 Y28.797
G1 F1800 X92.256 Y29.534 E33.69298
G1 X92.54 Y30.218 E33.74225
G1 X92.997 Y30.81 E33.792
G1 X93.582 Y31.261 E33.84113
G1 X94.263 Y31.543 E33.89016
G1 X95 Y31.641 E33.93962
G1 X95.731 Y31.543 E33.98868
G1 X96.42 Y31.261 E34.03821
G1 X97.002 Y30.81 E34.08718
G1 X97.46 Y30.216 E34.13708
G1 X97.741 Y29.539 E34.18584
G1 X97.836 Y28.794 E34.2358
G1 X97.741 Y28.066 E34.28463
G1 X97.459 Y27.384 E34.33373
G1 X97.008 Y26.794 E34.38313
G1 X96.421 Y26.344 E34.43233
G1 X95.724 Y26.054 E34.48255
G1 X95.004 Y25.962 E34.53083
G1 X94.27 Y26.056 E34.58005
G1 X93.577 Y26.344 E34.62997
G1 X92.992 Y26.794 E34.67907
G1 X92.539 Y27.381 E34.72839
G1 X92.256 Y28.07 E34.77794
G1 X92.162 Y28.797 E34.8267
G0 F7200 X94.999 Y49.06
G1 F1800 X94.268 Y49.158 E34.87577
G1 X93.579 Y49.44 E34.92529
G1 X92.993 Y49.894 E34.9746
G1 X92.539 Y50.48 E35.02391
G1 X92.257 Y51.169 E35.07343
G1 X92.159 Y51.898 E35.12236
G1 X92.257 Y52.636 E35.17188
G1 X92.539 Y53.318 E35.22098
G1 X92.993 Y53.907 E35.27045
G1 X93.582 Y54.361 E35.31991
G1 X94.263 Y54.643 E35.36895
G1 X95 Y54.741 E35.4184
G1 X95.731 Y54.643 E35.46746
G1 X96.42 Y54.361 E35.51699
G1 X97.006 Y53.907 E35.5663
G1 X97.46 Y53.32 E35.61566
G1 X97.741 Y52.639 E35.66467
G1 X97.836 Y51.895 E35.71456
G1 X97.741 Y51.166 E35.76346
G1 X97.458 Y50.482 E35.8127
G1 X97.006 Y49.894 E35.86204
G1 X96.42 Y49.442 E35.91127
G1 X95.731 Y49.157 E35.96087
G1 X94.999 Y49.06 E36.00998
G0 F7200 X104.287 Y60.183
G1 F1800 X103.587 Y60.884 E36.07588
G1 X102.128 Y62.08 E36.20138
G1 X100.082 Y63.447 E36.36506
G1 X102.123 Y64.816 E36.52854
G1 X103.587 Y66.017 E36.6545
G1 X104.287 Y66.718 E36.7204
G1 X106.016 Y66.001 E36.84491
G1 X106.016 Y60.9 E37.18423
G1 X104.287 Y60.183 E37.30874
G0 F7200 X96.42 Y72.542
G1 F1800 X95.731 Y72.257 E37.35834
G1 X94.999 Y72.16 E37.40746
G1 X94.268 Y72.258 E37.45652
G1 X93.579 Y72.54 E37.50605
G1 X92.993 Y72.994 E37.55536
G1 X92.537 Y73.582 E37.60485
G1 X92.257 Y74.266 E37.65402
G1 X92.159 Y74.998 E37.70315
G1 X92.257 Y75.731 E37.75234
G1 X92.539 Y76.42 E37.80186
G1 X92.993 Y77.006 E37.85117
G1 X93.579 Y77.46 E37.90048
G1 X94.268 Y77.742 E37.95001
G1 X94.999 Y77.84 E37.99907
G1 X95.731 Y77.743 E38.04819
G1 X96.421 Y77.458 E38.09785
G1 X97.006 Y77.006 E38.14702
G1 X97.46 Y76.419 E38.19639
G1 X97.741 Y75.738 E38.24539
G1 X97.836 Y74.994 E38.29528
G1 X97.741 Y74.267 E38.34406
G1 X97.459 Y73.582 E38.39333
G1 X97.006 Y72.994 E38.44271
G1 X96.42 Y72.542 E38.49194
G0 F7200 X104.287 Y83.282
G1 F1800 X103.587 Y83.983 E38.55784
G1 X102.13 Y85.178 E38.68319
G1 X100.151 Y86.504 E38.84165
G1 X102.117 Y87.813 E38.99876
G1 X103.571 Y89.006 E39.12387
G1 X104.287 Y89.723 E39.19128
G1 X106.016 Y89.006 E39.31579
G1 X106.016 Y83.999 E39.64886
G1 X104.287 Y83.282 E39.77337
G0 F7200 X96.403 Y95.531
G1 F1800 X95.718 Y95.246 E39.82272
G1 X94.98 Y95.152 E39.87221
G1 X94.253 Y95.247 E39.92098
G1 X93.568 Y95.528 E39.97023
G1 X92.976 Y95.985 E40.01998
G1 X92.523 Y96.571 E40.06925
G1 X92.241 Y97.259 E40.11871
G1 X92.143 Y97.989 E40.16771
G1 X92.239 Y98.716 E40.21649
G1 X92.527 Y99.408 E40.26635
G1 X92.978 Y99.996 E40.31564
G1 X93.566 Y100.447 E40.36493
G1 X94.258 Y100.735 E40.41479
G1 X94.984 Y100.831 E40.46351
G1 X95.715 Y100.733 E40.51257
G1 X96.403 Y100.451 E40.56203
G1 X96.991 Y99.997 E40.61145
G1 X97.445 Y99.405 E40.66107
G1 X97.726 Y98.73 E40.70971
G1 X97.822 Y97.983 E40.75981
G1 X97.726 Y97.26 E40.80833
G1 X97.444 Y96.571 E40.85785
G1 X96.991 Y95.983 E40.90722
G1 X96.403 Y95.531 E40.95656
G0 F7200 X77.822 Y97.983
G1 F1800 X77.726 Y97.26 E41.00507
G1 X77.444 Y96.571 E41.0546
G1 X76.991 Y95.983 E41.10397
G1 X76.403 Y95.531 E41.15331
G1 X75.718 Y95.246 E41.20266
G1 X74.981 Y95.152 E41.25208
G1 X74.254 Y95.247 E41.30085
G1 X73.569 Y95.528 E41.35011
G1 X72.977 Y95.985 E41.39985
G1 X72.524 Y96.571 E41.44912
G1 X72.242 Y97.259 E41.49859
G1 X72.144 Y97.989 E41.54758
G1 X72.24 Y98.716 E41.59636
G1 X72.528 Y99.408 E41.64622
G1 X72.979 Y99.996 E41.69552
G1 X73.567 Y100.447 E41.74481
G1 X74.259 Y100.735 E41.79467
G1 X74.982 Y100.831 E41.84319
G1 X75.719 Y100.733 E41.89264
G1 X76.404 Y100.448 E41.942
G1 X76.989 Y99.998 E41.99109
G1 X77.445 Y99.405 E42.04085
G1 X77.726 Y98.73 E42.08949
G1 X77.822 Y97.983 E42.13959
G0 F7200 X57.823 Y97.983
G1 F1800 X57.727 Y97.26 E42.1881
G1 X57.445 Y96.571 E42.23763
G1 X56.992 Y95.983 E42.287
G1 X56.404 Y95.531 E42.33634
G1 X55.719 Y95.246 E42.38569
G1 X54.981 Y95.152 E42.43518
G1 X54.254 Y95.247 E42.48395
G1 X53.569 Y95.528 E42.5332
G1 X52.977 Y95.985 E42.58295
G1 X52.524 Y96.571 E42.63222
G1 X52.242 Y97.259 E42.68168
G1 X52.144 Y97.989 E42.73068
G1 X52.24 Y98.716 E42.77946
G1 X52.528 Y99.408 E42.82932
G1 X52.979 Y99.996 E42.87861
G1 X53.567 Y100.447 E42.92791
G1 X54.259 Y100.735 E42.97776
G1 X54.985 Y100.831 E43.02648
G1 X55.716 Y100.733 E43.07554
G1 X56.404 Y100.451 E43.125
G1 X56.992 Y99.997 E43.17442
G1 X57.446 Y99.405 E43.22404
G1 X57.727 Y98.73 E43.27268
G1 X57.823 Y97.983 E43.32278
G0 F7200 X49.827 Y86.488
G1 F1800 X47.88 Y85.186 E43.47859
G1 X46.999 Y84.463 E43.5544
G1 X45.397 Y85.222 E43.67232
G1 X45.397 Y87.757 E43.84095
G1 X47.001 Y88.514 E43.95893
G1 X47.86 Y87.807 E44.03294
G1 X49.827 Y86.488 E44.19048
G0 F7200 X35.701 Y92.218
G1 F1800 X35.417 Y91.538 E44.2395
G1 X34.966 Y90.949 E44.28885
G1 X34.376 Y90.494 E44.33841
G1 X33.695 Y90.213 E44.38741
G1 X32.95 Y90.117 E44.43738
G1 X32.227 Y90.213 E44.4859
G1 X31.538 Y90.495 E44.53542
G1 X30.948 Y90.948 E44.5849
G1 X30.497 Y91.538 E44.6343
G1 X30.213 Y92.218 E44.68332
G1 X30.119 Y92.96 E44.73307
G1 X30.213 Y93.685 E44.7817
G1 X30.496 Y94.374 E44.83125
G1 X30.95 Y94.961 E44.88062
G1 X31.539 Y95.414 E44.93004
G1 X32.222 Y95.698 E44.97925
G1 X32.957 Y95.796 E45.02857
G1 X33.692 Y95.698 E45.0779
G1 X34.375 Y95.414 E45.1271
G1 X34.964 Y94.961 E45.17653
G1 X35.418 Y94.374 E45.22589
G1 X35.701 Y93.685 E45.27544
G1 X35.795 Y92.96 E45.32407
G1 X35.701 Y92.218 E45.37383
G0 F7200 X33.692 Y75.698
G1 F1800 X34.375 Y75.414 E45.42303
G1 X34.964 Y74.961 E45.47246
G1 X35.417 Y74.372 E45.52189
G1 X35.701 Y73.691 E45.57097
G1 X35.795 Y72.956 E45.62026
G1 X35.701 Y72.219 E45.66968
G1 X35.417 Y71.539 E45.7187
G1 X34.966 Y70.95 E45.76805
G1 X34.376 Y70.495 E45.81761
G1 X33.695 Y70.214 E45.86662
G1 X32.95 Y70.118 E45.91658
G1 X32.227 Y70.214 E45.9651
G1 X31.538 Y70.496 E46.01462
G1 X30.948 Y70.949 E46.0641
G1 X30.497 Y71.539 E46.1135
G1 X30.213 Y72.219 E46.16252
