;FLAVOR:Repetier
;TIME:7371
;Generated with Cura_SteamEngine 2.4.0
G21        ;metric values
G90        ;absolute positioning
M82        ;set extruder to absolute mode
G28 X0 Y0  ;move X/Y to min endstops
G28 Z0     ;move Z to min endstops
G0 Z10 F250
M109 S205 ;Uncomment to add your own temperature line
G92 E0
G1 F200 E5              ;extrude 3mm of feed stock
G0 Z0 F250
G92 E0                  ;zero the extruded length
;LAYER_COUNT:18
;LAYER:-5
M107
M207 X20
G1 F6000 E-7
G0 F7200 X34.397 Y38.9 Z0.2
G1 F6000 E0
G1 F1800 X35.862 Y37.697 E0.1261
G1 X36.324 Y37.39 E0.163
G1 X37.974 Y36.504 E0.28758
G1 X38.487 Y36.291 E0.32453
G1 X40.296 Y35.745 E0.45022
G1 X40.834 Y35.638 E0.48671
G1 X42.714 Y35.452 E0.61238
G1 X43.016 Y35.438 E0.63249
G1 X62.962 Y35.438 E1.95931
G1 X63.264 Y35.452 E1.97942
G1 X65.144 Y35.638 E2.10509
G1 X65.682 Y35.745 E2.14157
G1 X67.487 Y36.29 E2.267
G1 X67.993 Y36.501 E2.30347
G1 X69.661 Y37.393 E2.42929
G1 X70.119 Y37.699 E2.46593
G1 X71.578 Y38.896 E2.59147
G1 X71.971 Y39.289 E2.62844
G1 X74.389 Y42.237 E2.88207
G1 X75.493 Y40.583 E3.01435
G1 X76.69 Y39.124 E3.13989
G1 X77.083 Y38.731 E3.17686
G1 X78.542 Y37.534 E3.30239
G1 X79 Y37.228 E3.33903
G1 X80.668 Y36.336 E3.46486
G1 X81.174 Y36.125 E3.50133
G1 X82.979 Y35.58 E3.62675
G1 X83.517 Y35.473 E3.66324
G1 X85.397 Y35.287 E3.78891
G1 X85.699 Y35.273 E3.80902
G1 X105.645 Y35.273 E5.13583
G1 X105.947 Y35.287 E5.15594
G1 X107.825 Y35.473 E5.28148
G1 X108.368 Y35.581 E5.31831
G1 X110.169 Y36.126 E5.44348
G1 X110.677 Y36.336 E5.48004
G1 X112.347 Y37.231 E5.60608
G1 X112.798 Y37.532 E5.64215
G1 X114.264 Y38.735 E5.7683
G1 X114.654 Y39.125 E5.80498
G1 X115.849 Y40.58 E5.93023
G1 X116.153 Y41.036 E5.96669
G1 X117.05 Y42.712 E6.09314
G1 X117.256 Y43.207 E6.1288
G1 X117.805 Y45.019 E6.25475
G1 X117.912 Y45.559 E6.29137
G1 X118.098 Y47.438 E6.41697
G1 X118.112 Y47.729 E6.43635
G1 X118.112 Y67.686 E7.7639
G1 X118.098 Y67.988 E7.78401
G1 X117.912 Y69.867 E7.90961
G1 X117.805 Y70.407 E7.94623
G1 X117.256 Y72.219 E8.07217
G1 X117.05 Y72.714 E8.10784
G1 X116.153 Y74.39 E8.23429
G1 X115.849 Y74.846 E8.27075
G1 X114.654 Y76.301 E8.39599
G1 X114.259 Y76.696 E8.43315
G1 X112.8 Y77.892 E8.55865
G1 X112.349 Y78.193 E8.59471
G1 X111.381 Y78.712 E8.66778
G1 X111.381 Y80.39 E8.7794
G1 X112.77 Y81.133 E8.88418
G1 X113.235 Y81.444 E8.9214
G1 X114.694 Y82.641 E9.04693
G1 X115.087 Y83.034 E9.0839
G1 X116.284 Y84.493 E9.20944
G1 X116.59 Y84.951 E9.24608
G1 X117.482 Y86.619 E9.37191
G1 X117.693 Y87.125 E9.40837
G1 X118.238 Y88.93 E9.5338
G1 X118.345 Y89.468 E9.57029
G1 X118.531 Y91.348 E9.69595
G1 X118.545 Y91.641 E9.71547
G1 X118.545 Y111.596 E11.04288
G1 X118.531 Y111.898 E11.06299
G1 X118.345 Y113.778 E11.18866
G1 X118.24 Y114.307 E11.22453
G1 X117.693 Y116.121 E11.35057
G1 X117.482 Y116.627 E11.38704
G1 X116.59 Y118.295 E11.51286
G1 X116.286 Y118.751 E11.54932
G1 X115.087 Y120.211 E11.67499
G1 X114.695 Y120.604 E11.71191
G1 X113.235 Y121.802 E11.83754
G1 X112.777 Y122.108 E11.87419
G1 X111.109 Y123 E12.00001
G1 X110.603 Y123.211 E12.03648
G1 X108.798 Y123.756 E12.1619
G1 X108.26 Y123.863 E12.19839
G1 X106.38 Y124.049 E12.32406
G1 X106.078 Y124.063 E12.34417
G1 X86.132 Y124.063 E13.67098
G1 X85.83 Y124.049 E13.69109
G1 X83.95 Y123.863 E13.81676
G1 X83.412 Y123.756 E13.85325
G1 X81.607 Y123.211 E13.97867
G1 X81.101 Y123 E14.01514
G1 X79.433 Y122.108 E14.14097
G1 X78.975 Y121.802 E14.17761
G1 X77.515 Y120.604 E14.30324
G1 X77.123 Y120.211 E14.34016
G1 X75.924 Y118.751 E14.46583
G1 X75.62 Y118.295 E14.50229
G1 X74.03 Y115.328 E14.72621
G1 X71.522 Y118.382 E14.98909
G1 X71.132 Y118.772 E15.02578
G1 X69.677 Y119.967 E15.15102
G1 X69.221 Y120.271 E15.18748
G1 X67.548 Y121.166 E15.31369
G1 X67.042 Y121.377 E15.35016
G1 X65.237 Y121.922 E15.47558
G1 X64.699 Y122.029 E15.51207
G1 X62.819 Y122.215 E15.63774
G1 X62.517 Y122.229 E15.65785
G1 X42.571 Y122.229 E16.98466
G1 X42.269 Y122.215 E17.00477
G1 X40.391 Y122.029 E17.13031
G1 X39.848 Y121.921 E17.16714
G1 X38.047 Y121.376 E17.29231
G1 X37.539 Y121.166 E17.32887
G1 X35.867 Y120.27 E17.45506
G1 X35.416 Y119.969 E17.49113
G1 X33.957 Y118.773 E17.61662
G1 X33.561 Y118.377 E17.65387
G1 X32.365 Y116.918 E17.77937
G1 X32.064 Y116.468 E17.81538
G1 X31.166 Y114.79 E17.94198
G1 X30.96 Y114.295 E17.97765
G1 X30.411 Y112.483 E18.10359
G1 X30.304 Y111.943 E18.14021
G1 X30.118 Y110.064 E18.26581
G1 X30.104 Y109.762 E18.28593
G1 X30.104 Y89.807 E19.61334
G1 X30.118 Y89.514 E19.63285
G1 X30.304 Y87.636 E19.75839
G1 X30.411 Y87.096 E19.79501
G1 X30.96 Y85.284 E19.92095
G1 X31.166 Y84.789 E19.95662
G1 X32.067 Y83.106 E20.0836
G1 X32.365 Y82.661 E20.11923
G1 X33.561 Y81.202 E20.24472
G1 X33.957 Y80.806 E20.28198
G1 X36.586 Y78.651 E20.5081
G1 X34.402 Y76.861 E20.69594
G1 X34.007 Y76.466 E20.7331
G1 X32.813 Y75.011 E20.85831
G1 X32.502 Y74.544 E20.89563
G1 X31.615 Y72.893 E21.0203
G1 X31.402 Y72.38 E21.05725
G1 X30.856 Y70.571 E21.18295
G1 X30.749 Y70.033 E21.21944
G1 X30.563 Y68.153 E21.34511
G1 X30.549 Y67.851 E21.36522
G1 X30.549 Y47.896 E22.69263
G1 X30.563 Y47.603 E22.71214
G1 X30.749 Y45.723 E22.83781
G1 X30.856 Y45.185 E22.8743
G1 X31.402 Y43.376 E23
G1 X31.615 Y42.863 E23.03695
G1 X32.502 Y41.212 E23.16162
G1 X32.813 Y40.745 E23.19894
G1 X34.007 Y39.29 E23.32414
G1 X34.397 Y38.9 E23.36083
G0 F7200 X40.983 Y45.872
G1 F1800 X40.53 Y46.46 E23.41021
G1 X40.245 Y47.152 E23.45999
G1 X40.148 Y47.877 E23.50865
G1 X40.246 Y48.609 E23.55778
G1 X40.528 Y49.297 E23.60724
G1 X40.981 Y49.883 E23.65651
G1 X41.573 Y50.34 E23.70626
G1 X42.258 Y50.621 E23.75551
G1 X42.985 Y50.716 E23.80428
G1 X43.723 Y50.622 E23.85377
G1 X44.408 Y50.337 E23.90312
G1 X44.995 Y49.887 E23.95232
G1 X45.45 Y49.297 E24.00188
G1 X45.731 Y48.615 E24.05095
G1 X45.826 Y47.872 E24.10078
G1 X45.731 Y47.145 E24.14955
G1 X45.45 Y46.461 E24.19874
G1 X44.995 Y45.87 E24.24835
G1 X44.407 Y45.417 E24.29773
G1 X43.72 Y45.135 E24.34713
G1 X42.989 Y45.037 E24.39619
G1 X42.263 Y45.133 E24.4449
G1 X41.571 Y45.421 E24.49476
G1 X40.983 Y45.872 E24.54406
G0 F7200 X60.148 Y47.877
G1 F1800 X60.246 Y48.609 E24.59318
G1 X60.528 Y49.297 E24.64265
G1 X60.981 Y49.883 E24.69192
G1 X61.573 Y50.34 E24.74166
G1 X62.258 Y50.621 E24.79092
G1 X62.985 Y50.716 E24.83969
G1 X63.723 Y50.622 E24.88918
G1 X64.408 Y50.337 E24.93853
G1 X64.995 Y49.887 E24.98773
G1 X65.45 Y49.297 E25.03729
G1 X65.731 Y48.615 E25.08636
G1 X65.826 Y47.872 E25.13619
G1 X65.731 Y47.145 E25.18496
G1 X65.45 Y46.461 E25.23415
G1 X64.995 Y45.87 E25.28376
G1 X64.407 Y45.417 E25.33314
G1 X63.72 Y45.135 E25.38254
G1 X62.989 Y45.037 E25.4316
G1 X62.263 Y45.133 E25.48031
G1 X61.571 Y45.421 E25.53017
G1 X60.983 Y45.872 E25.57947
G1 X60.53 Y46.46 E25.62884
G1 X60.245 Y47.152 E25.67862
G1 X60.148 Y47.877 E25.72728
G0 F7200 X62.263 Y65.133
G1 F1800 X61.571 Y65.421 E25.77714
G1 X60.983 Y65.872 E25.82644
G1 X60.532 Y66.46 E25.87573
G1 X60.244 Y67.152 E25.92559
G1 X60.148 Y67.878 E25.9743
G1 X60.246 Y68.609 E26.02337
G1 X60.528 Y69.297 E26.07283
G1 X60.981 Y69.883 E26.1221
G1 X61.573 Y70.34 E26.17185
G1 X62.258 Y70.621 E26.2211
G1 X62.985 Y70.716 E26.26987
G1 X63.723 Y70.622 E26.31936
G1 X64.408 Y70.337 E26.36871
G1 X64.995 Y69.887 E26.41791
G1 X65.45 Y69.297 E26.46747
G1 X65.731 Y68.615 E26.51654
G1 X65.826 Y67.872 E26.56637
G1 X65.731 Y67.145 E26.61514
G1 X65.45 Y66.461 E26.66433
G1 X64.995 Y65.87 E26.71394
G1 X64.407 Y65.417 E26.76332
G1 X63.72 Y65.135 E26.81272
G1 X62.989 Y65.037 E26.86178
G1 X62.263 Y65.133 E26.91049
G0 F7200 X74.273 Y73.357
G1 F1800 X73.18 Y74.992 E27.04132
G1 X71.965 Y76.472 E27.16869
G1 X71.575 Y76.862 E27.20538
G1 X68.948 Y79.016 E27.43136
G1 X71.132 Y80.807 E27.61925
G1 X71.522 Y81.197 E27.65594
G1 X72.725 Y82.663 E27.78209
G1 X73.031 Y83.121 E27.81873
G1 X74.62 Y86.085 E28.04244
G1 X77.123 Y83.034 E28.30495
G1 X77.516 Y82.641 E28.34192
G1 X78.975 Y81.444 E28.46746
G1 X79.444 Y81.13 E28.505
G1 X80.396 Y80.622 E28.57678
G1 X80.396 Y78.944 E28.6884
G1 X78.995 Y78.194 E28.79411
G1 X78.539 Y77.889 E28.8306
G1 X77.086 Y76.697 E28.95562
G1 X76.696 Y76.307 E28.99231
G1 X74.273 Y73.357 E29.24625
G0 F7200 X83.213 Y69.132
G1 F1800 X83.665 Y69.721 E29.29564
G1 X84.255 Y70.173 E29.34508
G1 X84.935 Y70.457 E29.3941
G1 X85.677 Y70.551 E29.44385
G1 X86.402 Y70.457 E29.49248
G1 X87.091 Y70.174 E29.54203
G1 X87.678 Y69.72 E29.5914
G1 X88.131 Y69.131 E29.64082
G1 X88.414 Y68.451 E29.68982
G1 X88.51 Y67.705 E29.73985
G1 X88.414 Y66.982 E29.78837
G1 X88.132 Y66.295 E29.83777
G1 X87.679 Y65.707 E29.88714
G1 X87.094 Y65.257 E29.93624
G1 X86.397 Y64.968 E29.98643
G1 X85.672 Y64.872 E30.03508
G1 X84.941 Y64.97 E30.08414
G1 X84.254 Y65.252 E30.13354
G1 X83.664 Y65.706 E30.18306
G1 X83.213 Y66.294 E30.23236
G1 X82.929 Y66.978 E30.28162
G1 X82.834 Y67.709 E30.33066
G1 X82.928 Y68.447 E30.38015
G1 X83.213 Y69.132 E30.4295
G0 F7200 X85.677 Y50.551
G1 F1800 X86.402 Y50.457 E30.47813
G1 X87.091 Y50.174 E30.52768
G1 X87.678 Y49.72 E30.57704
G1 X88.131 Y49.131 E30.62647
G1 X88.414 Y48.451 E30.67546
G1 X88.51 Y47.705 E30.7255
G1 X88.414 Y46.982 E30.77401
G1 X88.132 Y46.295 E30.82341
G1 X87.679 Y45.707 E30.87279
G1 X87.094 Y45.257 E30.92188
G1 X86.397 Y44.968 E30.97208
G1 X85.672 Y44.872 E31.02072
G1 X84.941 Y44.97 E31.06979
G1 X84.254 Y45.252 E31.11919
G1 X83.664 Y45.706 E31.16871
G1 X83.213 Y46.294 E31.218
G1 X82.929 Y46.978 E31.26727
G1 X82.834 Y47.709 E31.3163
G1 X82.928 Y48.447 E31.36579
G1 X83.213 Y49.132 E31.41514
G1 X83.665 Y49.721 E31.46453
G1 X84.255 Y50.173 E31.51397
G1 X84.935 Y50.457 E31.56299
G1 X85.677 Y50.551 E31.61274
G0 F7200 X102.928 Y48.447
G1 F1800 X103.213 Y49.132 E31.6621
G1 X103.665 Y49.721 E31.71149
G1 X104.255 Y50.173 E31.76093
G1 X104.935 Y50.457 E31.80995
G1 X105.677 Y50.551 E31.8597
G1 X106.402 Y50.457 E31.90833
G1 X107.091 Y50.174 E31.95788
G1 X107.678 Y49.72 E32.00724
G1 X108.131 Y49.131 E32.05667
G1 X108.414 Y48.451 E32.10566
G1 X108.51 Y47.705 E32.1557
G1 X108.414 Y46.982 E32.20421
G1 X108.132 Y46.295 E32.25361
G1 X107.679 Y45.707 E32.30299
G1 X107.094 Y45.257 E32.35208
G1 X106.397 Y44.968 E32.40228
G1 X105.672 Y44.872 E32.45092
G1 X104.941 Y44.97 E32.49999
G1 X104.254 Y45.252 E32.54939
G1 X103.664 Y45.706 E32.59891
G1 X103.213 Y46.294 E32.6482
G1 X102.929 Y46.978 E32.69747
G1 X102.834 Y47.709 E32.7465
G1 X102.928 Y48.447 E32.79599
G0 F7200 X104.941 Y64.97
G1 F1800 X104.254 Y65.252 E32.84539
G1 X103.664 Y65.706 E32.89491
G1 X103.213 Y66.294 E32.94421
G1 X102.929 Y66.978 E32.99347
G1 X102.834 Y67.709 E33.04251
G1 X102.928 Y68.447 E33.092
G1 X103.213 Y69.132 E33.14135
G1 X103.665 Y69.721 E33.19074
G1 X104.255 Y70.173 E33.24018
G1 X104.935 Y70.457 E33.2892
G1 X105.677 Y70.551 E33.33895
G1 X106.402 Y70.457 E33.38758
G1 X107.091 Y70.174 E33.43713
G1 X107.678 Y69.72 E33.48649
G1 X108.131 Y69.131 E33.53592
G1 X108.414 Y68.451 E33.58492
G1 X108.51 Y67.705 E33.63495
G1 X108.414 Y66.982 E33.68347
G1 X108.132 Y66.295 E33.73287
G1 X107.679 Y65.707 E33.78224
G1 X107.094 Y65.257 E33.83134
G1 X106.397 Y64.968 E33.88153
G1 X105.672 Y64.872 E33.93018
G1 X104.941 Y64.97 E33.97924
G0 F7200 X106.105 Y88.785
G1 F1800 X105.368 Y88.879 E34.02866
G1 X104.688 Y89.163 E34.07768
G1 X104.098 Y89.616 E34.12716
G1 X103.645 Y90.206 E34.17664
G1 X103.361 Y90.886 E34.22566
G1 X103.267 Y91.622 E34.27502
G1 X103.361 Y92.36 E34.32451
G1 X103.645 Y93.041 E34.37359
G1 X104.098 Y93.629 E34.42297
G1 X104.687 Y94.082 E34.47239
G1 X105.37 Y94.366 E34.5216
G1 X106.105 Y94.464 E34.57092
G1 X106.84 Y94.366 E34.62025
G1 X107.523 Y94.082 E34.66945
G1 X108.112 Y93.629 E34.71888
G1 X108.564 Y93.042 E34.76816
G1 X108.847 Y92.36 E34.81728
G1 X108.943 Y91.617 E34.86712
G1 X108.847 Y90.893 E34.9157
G1 X108.565 Y90.204 E34.96522
G1 X108.112 Y89.614 E35.0147
G1 X107.522 Y89.163 E35.0641
G1 X106.842 Y88.879 E35.11312
G1 X106.105 Y88.785 E35.16254
G0 F7200 X106.105 Y108.785
G1 F1800 X105.368 Y108.879 E35.21197
G1 X104.688 Y109.163 E35.26099
G1 X104.098 Y109.616 E35.31047
G1 X103.645 Y110.206 E35.35995
G1 X103.361 Y110.886 E35.40897
G1 X103.267 Y111.622 E35.45833
G1 X103.361 Y112.36 E35.50782
G1 X103.645 Y113.041 E35.5569
G1 X104.098 Y113.629 E35.60627
G1 X104.687 Y114.082 E35.6557
G1 X105.37 Y114.366 E35.70491
G1 X106.105 Y114.464 E35.75423
G1 X106.84 Y114.366 E35.80356
G1 X107.523 Y114.082 E35.85276
G1 X108.112 Y113.629 E35.90219
G1 X108.564 Y113.042 E35.95147
G1 X108.847 Y112.36 E36.00059
G1 X108.943 Y111.617 E36.05042
G1 X108.847 Y110.893 E36.09901
G1 X108.565 Y110.204 E36.14853
G1 X108.112 Y109.614 E36.19801
G1 X107.522 Y109.163 E36.24741
G1 X106.842 Y108.879 E36.29643
G1 X106.105 Y108.785 E36.34585
G0 F7200 X88.847 Y110.893
G1 F1800 X88.565 Y110.204 E36.39537
G1 X88.112 Y109.614 E36.44486
G1 X87.522 Y109.163 E36.49426
G1 X86.842 Y108.879 E36.54328
G1 X86.105 Y108.785 E36.5927
G1 X85.368 Y108.879 E36.64212
G1 X84.688 Y109.163 E36.69114
G1 X84.098 Y109.616 E36.74062
G1 X83.645 Y110.206 E36.7901
G1 X83.361 Y110.886 E36.83912
G1 X83.267 Y111.622 E36.88848
G1 X83.361 Y112.36 E36.93797
G1 X83.645 Y113.041 E36.98705
G1 X84.098 Y113.629 E37.03643
G1 X84.687 Y114.082 E37.08585
G1 X85.37 Y114.366 E37.13506
G1 X86.105 Y114.464 E37.18438
G1 X86.84 Y114.366 E37.23371
G1 X87.523 Y114.082 E37.28291
G1 X88.112 Y113.629 E37.33234
G1 X88.564 Y113.042 E37.38162
G1 X88.847 Y112.36 E37.43074
G1 X88.943 Y111.617 E37.48058
G1 X88.847 Y110.893 E37.52916
G0 F7200 X86.84 Y94.366
G1 F1800 X87.523 Y94.082 E37.57836
G1 X88.112 Y93.629 E37.62779
G1 X88.564 Y93.042 E37.67707
G1 X88.847 Y92.36 E37.72619
G1 X88.943 Y91.617 E37.77603
G1 X88.847 Y90.893 E37.82461
G1 X88.565 Y90.204 E37.87413
G1 X88.112 Y89.614 E37.92361
G1 X87.522 Y89.163 E37.97301
G1 X86.842 Y88.879 E38.02203
G1 X86.105 Y88.785 E38.07146
G1 X85.368 Y88.879 E38.12088
G1 X84.688 Y89.163 E38.1699
G1 X84.098 Y89.616 E38.21938
G1 X83.645 Y90.206 E38.26886
G1 X83.361 Y90.886 E38.31788
G1 X83.267 Y91.622 E38.36724
G1 X83.361 Y92.36 E38.41673
G1 X83.645 Y93.041 E38.46581
G1 X84.098 Y93.629 E38.51518
G1 X84.687 Y94.082 E38.56461
G1 X85.37 Y94.366 E38.61382
G1 X86.105 Y94.464 E38.66314
G1 X86.84 Y94.366 E38.71247
G0 F7200 X65.286 Y90.526
G1 F1800 X65.381 Y89.783 E38.76229
G1 X65.286 Y89.056 E38.81106
G1 X65.005 Y88.372 E38.86025
G1 X64.55 Y87.781 E38.90987
G1 X63.962 Y87.328 E38.95924
G1 X63.275 Y87.046 E39.00864
G1 X62.544 Y86.948 E39.05771
G1 X61.818 Y87.044 E39.10642
G1 X61.126 Y87.332 E39.15628
G1 X60.538 Y87.783 E39.20557
G1 X60.085 Y88.371 E39.25495
G1 X59.8 Y89.063 E39.30473
G1 X59.703 Y89.788 E39.35339
G1 X59.801 Y90.52 E39.40252
G1 X60.083 Y91.208 E39.45198
G1 X60.536 Y91.794 E39.50125
G1 X61.128 Y92.251 E39.551
G1 X61.813 Y92.532 E39.60025
G1 X62.54 Y92.627 E39.64902
G1 X63.278 Y92.533 E39.69851
G1 X63.963 Y92.248 E39.74786
G1 X64.55 Y91.798 E39.79706
G1 X65.005 Y91.208 E39.84662
G1 X65.286 Y90.526 E39.89569
G0 F7200 X63.275 Y107.046
G1 F1800 X62.544 Y106.948 E39.94475
G1 X61.818 Y107.044 E39.99347
G1 X61.126 Y107.332 E40.04333
G1 X60.538 Y107.783 E40.09262
G1 X60.087 Y108.371 E40.14191
G1 X59.799 Y109.063 E40.19177
G1 X59.703 Y109.789 E40.24049
G1 X59.801 Y110.52 E40.28955
G1 X60.083 Y111.208 E40.33901
G1 X60.536 Y111.794 E40.38828
G1 X61.128 Y112.251 E40.43803
G1 X61.813 Y112.532 E40.48728
G1 X62.54 Y112.627 E40.53605
G1 X63.278 Y112.533 E40.58554
G1 X63.963 Y112.248 E40.63489
G1 X64.55 Y111.798 E40.6841
G1 X65.005 Y111.208 E40.73366
G1 X65.286 Y110.526 E40.78272
G1 X65.381 Y109.783 E40.83255
G1 X65.286 Y109.056 E40.88132
G1 X65.005 Y108.372 E40.93051
G1 X64.55 Y107.781 E40.98013
G1 X63.962 Y107.328 E41.0295
G1 X63.275 Y107.046 E41.0789
G0 F7200 X45.286 Y109.056
G1 F1800 X45.005 Y108.372 E41.12809
