;FLAVOR:Repetier
;TIME:8828
;Generated with Cura_SteamEngine 2.4.0
G21        ;metric values
G90        ;absolute positioning
M82        ;set extruder to absolute mode
G28 X0 Y0  ;move X/Y to min endstops
G28 Z0     ;move Z to min endstops
G0 Z10 F250
M109 S205 ;Uncomment to add your own temperature line
G92 E0
G1 F200 E5              ;extrude 3mm of feed stock
G0 Z0 F250
G92 E0                  ;zero the extruded length
;LAYER_COUNT:18
;LAYER:-5
M107
M207 X20
G1 F6000 E-7
G0 F7200 X24.772 Y36.118 Z0.2
G1 F6000 E0
G1 F1800 X25.23 Y35.812 E0.03664
G1 X26.898 Y34.92 E0.16247
G1 X27.404 Y34.709 E0.19893
G1 X29.209 Y34.164 E0.32436
G1 X29.747 Y34.057 E0.36085
G1 X31.625 Y33.872 E0.48638
G1 X32.179 Y33.872 E0.52323
G1 X34.055 Y34.057 E0.64863
G1 X34.598 Y34.165 E0.68545
G1 X36.399 Y34.71 E0.81062
G1 X36.907 Y34.92 E0.84719
G1 X38.577 Y35.815 E0.97322
G1 X39.028 Y36.116 E1.00929
G1 X40.494 Y37.319 E1.13544
G1 X40.884 Y37.709 E1.17213
G1 X42.42 Y39.58 E1.33316
G1 X43.547 Y37.894 E1.46806
G1 X44.757 Y36.42 E1.59492
G1 X45.147 Y36.03 E1.63161
G1 X46.602 Y34.836 E1.75681
G1 X47.069 Y34.525 E1.79413
G1 X48.72 Y33.638 E1.9188
G1 X49.233 Y33.425 E1.95575
G1 X51.042 Y32.879 E2.08145
G1 X51.58 Y32.772 E2.11794
G1 X53.46 Y32.586 E2.24361
G1 X53.762 Y32.572 E2.26372
G1 X73.708 Y32.572 E3.59053
G1 X74.01 Y32.586 E3.61064
G1 X75.889 Y32.772 E3.73625
G1 X76.427 Y32.879 E3.77273
G1 X78.236 Y33.425 E3.89843
G1 X78.749 Y33.638 E3.93538
G1 X80.4 Y34.525 E4.06005
G1 X80.867 Y34.836 E4.09738
G1 X82.322 Y36.03 E4.22258
G1 X82.712 Y36.42 E4.25927
G1 X83.915 Y37.886 E4.38542
G1 X85.442 Y40.173 E4.56834
G1 X86.595 Y38.011 E4.73133
G1 X86.906 Y37.546 E4.76855
G1 X88.103 Y36.087 E4.89408
G1 X88.496 Y35.694 E4.93105
G1 X89.955 Y34.497 E5.05659
G1 X90.413 Y34.191 E5.09323
G1 X92.081 Y33.299 E5.21906
G1 X92.587 Y33.088 E5.25552
G1 X94.392 Y32.543 E5.38095
G1 X94.93 Y32.436 E5.41744
G1 X96.81 Y32.25 E5.5431
G1 X97.112 Y32.236 E5.56322
G1 X117.058 Y32.236 E6.89003
G1 X117.36 Y32.25 E6.91014
G1 X119.238 Y32.436 E7.03568
G1 X119.781 Y32.544 E7.0725
G1 X121.582 Y33.089 E7.19767
G1 X122.09 Y33.299 E7.23424
G1 X123.76 Y34.194 E7.36027
G1 X124.211 Y34.495 E7.39634
G1 X125.677 Y35.698 E7.52249
G1 X126.067 Y36.088 E7.55918
G1 X127.262 Y37.543 E7.68443
G1 X127.566 Y37.999 E7.72088
G1 X128.463 Y39.675 E7.84734
G1 X128.669 Y40.17 E7.883
G1 X129.218 Y41.982 E8.00895
G1 X129.325 Y42.522 E8.04557
G1 X129.51 Y44.399 E8.17103
G1 X129.51 Y44.953 E8.20788
G1 X129.325 Y46.83 E8.33334
G1 X129.218 Y47.37 E8.36996
G1 X128.669 Y49.182 E8.49591
G1 X128.462 Y49.679 E8.53172
G1 X127.564 Y51.357 E8.65832
G1 X127.267 Y51.801 E8.69386
G1 X126.068 Y53.263 E8.81963
G1 X125.672 Y53.659 E8.85688
G1 X123.05 Y55.808 E9.0824
G1 X124.986 Y57.106 E9.23745
G1 X126.446 Y58.304 E9.36308
G1 X126.839 Y58.697 E9.40005
G1 X128.036 Y60.156 E9.52559
G1 X128.342 Y60.614 E9.56223
G1 X129.234 Y62.282 E9.68805
G1 X129.445 Y62.788 E9.72452
G1 X129.99 Y64.593 E9.84994
G1 X130.097 Y65.131 E9.88643
G1 X130.282 Y67.009 E10.01196
G1 X130.282 Y67.563 E10.04881
G1 X130.097 Y69.441 E10.17434
G1 X129.99 Y69.979 E10.21083
G1 X129.446 Y71.779 E10.33592
G1 X129.233 Y72.294 E10.37299
G1 X128.342 Y73.957 E10.49849
G1 X128.041 Y74.408 E10.53456
G1 X126.835 Y75.878 E10.66104
G1 X126.443 Y76.27 E10.69792
G1 X124.216 Y78.097 E10.88953
G1 X125.925 Y79.234 E11.02607
G1 X127.384 Y80.431 E11.15161
G1 X127.777 Y80.824 E11.18858
G1 X128.974 Y82.283 E11.31412
G1 X129.277 Y82.736 E11.35037
G1 X130.172 Y84.409 E11.47658
G1 X130.383 Y84.915 E11.51305
G1 X130.928 Y86.72 E11.63848
G1 X131.035 Y87.258 E11.67496
G1 X131.22 Y89.136 E11.80049
G1 X131.22 Y89.69 E11.83735
G1 X131.034 Y91.571 E11.96308
G1 X130.93 Y92.099 E11.99888
G1 X130.383 Y93.911 E12.12479
G1 X130.172 Y94.417 E12.16125
G1 X129.28 Y96.085 E12.28708
G1 X128.976 Y96.541 E12.32354
G1 X127.777 Y98.001 E12.44921
G1 X127.385 Y98.394 E12.48613
G1 X125.922 Y99.595 E12.61204
G1 X124.358 Y100.656 E12.73776
G1 X127.205 Y102.989 E12.98261
G1 X127.601 Y103.385 E13.01986
G1 X128.799 Y104.846 E13.14554
G1 X129.098 Y105.293 E13.18132
G1 X129.995 Y106.971 E13.30789
G1 X130.199 Y107.461 E13.34319
G1 X130.753 Y109.285 E13.47
G1 X130.859 Y109.82 E13.50628
G1 X131.043 Y111.696 E13.63167
G1 X131.043 Y112.242 E13.66799
G1 X130.859 Y114.126 E13.79391
G1 X130.753 Y114.658 E13.83
G1 X130.199 Y116.484 E13.95693
G1 X129.995 Y116.974 E13.99224
G1 X129.098 Y118.652 E14.1188
G1 X128.799 Y119.099 E14.15458
G1 X127.601 Y120.56 E14.28026
G1 X127.205 Y120.956 E14.31751
G1 X125.746 Y122.152 E14.44301
G1 X125.295 Y122.453 E14.47907
G1 X123.623 Y123.349 E14.60526
G1 X123.115 Y123.559 E14.64183
G1 X121.314 Y124.104 E14.76699
G1 X120.771 Y124.212 E14.80382
G1 X118.893 Y124.398 E14.92936
G1 X118.591 Y124.412 E14.94947
G1 X98.645 Y124.412 E16.27628
G1 X98.343 Y124.398 E16.29639
G1 X96.463 Y124.212 E16.42206
G1 X95.925 Y124.105 E16.45855
G1 X94.12 Y123.56 E16.58397
G1 X93.614 Y123.349 E16.62044
G1 X91.941 Y122.454 E16.74665
G1 X91.485 Y122.15 E16.78311
G1 X90.03 Y120.955 E16.90836
G1 X89.64 Y120.565 E16.94505
G1 X88.436 Y119.098 E17.07129
G1 X87.167 Y117.19 E17.22372
G1 X85.693 Y119.396 E17.40021
G1 X84.494 Y120.856 E17.52588
G1 X84.102 Y121.249 E17.5628
G1 X82.642 Y122.447 E17.68843
G1 X82.184 Y122.753 E17.72507
G1 X80.516 Y123.645 E17.8509
G1 X80.01 Y123.856 E17.88737
G1 X78.205 Y124.401 E18.01279
G1 X77.667 Y124.508 E18.04928
G1 X75.787 Y124.694 E18.17495
G1 X75.485 Y124.708 E18.19506
G1 X55.54 Y124.708 E19.5218
G1 X55.238 Y124.694 E19.54191
G1 X53.36 Y124.508 E19.66745
G1 X52.817 Y124.4 E19.70428
G1 X51.016 Y123.855 E19.82945
G1 X50.508 Y123.645 E19.86601
G1 X48.838 Y122.75 E19.99205
G1 X48.387 Y122.449 E20.02812
G1 X46.921 Y121.246 E20.15427
G1 X46.531 Y120.856 E20.19096
G1 X45.332 Y119.395 E20.31668
G1 X45.033 Y118.948 E20.35245
G1 X43.456 Y116.004 E20.57462
G1 X41.246 Y118.695 E20.80625
G1 X40.857 Y119.084 E20.84285
G1 X39.401 Y120.28 E20.96819
G1 X38.945 Y120.584 E21.00464
G1 X37.269 Y121.481 E21.13109
G1 X36.774 Y121.687 E21.16676
G1 X34.962 Y122.236 E21.2927
G1 X34.422 Y122.343 E21.32932
G1 X32.545 Y122.528 E21.45479
G1 X31.991 Y122.528 E21.49164
G1 X30.114 Y122.343 E21.6171
G1 X29.574 Y122.236 E21.65372
G1 X27.762 Y121.687 E21.77967
G1 X27.265 Y121.48 E21.81548
G1 X25.587 Y120.582 E21.94208
G1 X25.143 Y120.285 E21.97761
G1 X23.679 Y119.084 E22.10358
G1 X23.285 Y118.69 E22.14064
G1 X22.089 Y117.231 E22.26614
G1 X21.781 Y116.77 E22.30302
G1 X20.899 Y115.125 E22.42718
G1 X20.68 Y114.596 E22.46526
G1 X20.136 Y112.799 E22.59016
G1 X20.028 Y112.256 E22.62699
G1 X19.842 Y110.378 E22.75252
G1 X19.828 Y110.076 E22.77263
G1 X19.828 Y90.121 E24.10005
G1 X19.842 Y89.828 E24.11956
G1 X20.028 Y87.948 E24.24523
G1 X20.136 Y87.406 E24.28199
G1 X20.681 Y85.601 E24.40741
G1 X20.894 Y85.088 E24.44436
G1 X21.781 Y83.437 E24.56903
G1 X22.092 Y82.97 E24.60636
G1 X23.286 Y81.515 E24.73156
G1 X23.676 Y81.125 E24.76825
G1 X25.141 Y79.922 E24.89435
G1 X25.598 Y79.617 E24.9309
G1 X26.495 Y79.139 E24.99851
G1 X26.495 Y77.46 E25.1102
G1 X25.232 Y76.783 E25.20552
G1 X24.772 Y76.476 E25.24231
G1 X23.313 Y75.279 E25.36784
G1 X22.92 Y74.886 E25.40482
G1 X21.723 Y73.427 E25.53035
G1 X21.417 Y72.969 E25.56699
G1 X20.525 Y71.301 E25.69282
G1 X20.314 Y70.795 E25.72929
G1 X19.769 Y68.99 E25.85471
G1 X19.661 Y68.446 E25.8916
G1 X19.476 Y66.572 E26.01687
G1 X19.462 Y66.27 E26.03698
G1 X19.462 Y46.315 E27.36439
G1 X19.476 Y46.022 E27.3839
G1 X19.662 Y44.142 E27.50957
G1 X19.769 Y43.604 E27.54606
G1 X20.314 Y41.799 E27.67148
G1 X20.525 Y41.293 E27.70795
G1 X21.417 Y39.625 E27.83378
G1 X21.723 Y39.167 E27.87042
G1 X22.92 Y37.708 E27.99595
G1 X23.313 Y37.315 E28.03292
G1 X24.772 Y36.118 E28.15846
G0 F7200 X30.483 Y43.838
G1 F1800 X29.895 Y44.29 E28.2078
G1 X29.443 Y44.878 E28.25713
G1 X29.158 Y45.563 E28.30648
G1 X29.064 Y46.301 E28.35597
G1 X29.159 Y47.028 E28.40474
G1 X29.44 Y47.713 E28.45399
G1 X29.897 Y48.305 E28.50374
G1 X30.482 Y48.756 E28.55288
G1 X31.165 Y49.039 E28.60206
G1 X31.91 Y49.134 E28.65202
G1 X32.63 Y49.04 E28.70032
G1 X33.321 Y48.756 E28.75002
G1 X33.908 Y48.304 E28.7993
G1 X34.358 Y47.719 E28.84839
G1 X34.647 Y47.021 E28.89865
G1 X34.743 Y46.296 E28.94729
G1 X34.645 Y45.566 E28.99629
G1 X34.363 Y44.878 E29.04575
G1 X33.91 Y44.292 E29.09502
G1 X33.318 Y43.835 E29.14477
G1 X32.633 Y43.554 E29.19402
G1 X31.906 Y43.459 E29.24279
G1 X31.168 Y43.553 E29.29228
G1 X30.483 Y43.838 E29.34163
G0 F7200 X44.342 Y55.408
G1 F1800 X44.342 Y57.464 E29.4784
G1 X45.946 Y58.221 E29.59638
G1 X48.274 Y56.305 E29.79695
G1 X46.606 Y55.192 E29.93034
G1 X45.944 Y54.649 E29.98729
G1 X44.342 Y55.408 E30.10521
G0 F7200 X52.894 Y64.894
G1 F1800 X52.437 Y65.486 E30.15496
G1 X52.156 Y66.171 E30.20421
G1 X52.061 Y66.898 E30.25298
G1 X52.155 Y67.636 E30.30247
G1 X52.44 Y68.321 E30.35183
G1 X52.892 Y68.909 E30.40116
G1 X53.48 Y69.361 E30.4505
G1 X54.165 Y69.646 E30.49985
G1 X54.903 Y69.74 E30.54934
G1 X55.63 Y69.645 E30.59811
G1 X56.315 Y69.364 E30.64736
G1 X56.907 Y68.907 E30.69711
G1 X57.358 Y68.321 E30.7463
G1 X57.641 Y67.64 E30.79535
G1 X57.736 Y66.894 E30.84538
G1 X57.642 Y66.174 E30.89368
G1 X57.358 Y65.483 E30.94338
G1 X56.906 Y64.896 E30.99266
G1 X56.321 Y64.446 E31.04175
G1 X55.624 Y64.157 E31.09195
G1 X54.899 Y64.061 E31.14059
G1 X54.168 Y64.159 E31.18966
G1 X53.48 Y64.441 E31.23912
G1 X52.894 Y64.894 E31.28839
G0 F7200 X43.462 Y71.744
G1 F1800 X40.88 Y74.889 E31.55907
G1 X40.49 Y75.279 E31.59575
G1 X39.028 Y76.479 E31.72157
G1 X38.577 Y76.781 E31.75768
G1 X37.676 Y77.265 E31.82571
G1 X37.676 Y78.941 E31.9372
G1 X38.94 Y79.618 E32.03258
G1 X39.398 Y79.924 E32.06922
G1 X40.857 Y81.121 E32.19476
G1 X41.25 Y81.514 E32.23173
G1 X42.447 Y82.973 E32.35727
G1 X42.753 Y83.431 E32.39391
G1 X43.211 Y84.286 E32.45843
G1 X44.889 Y84.286 E32.57005
G1 X45.53 Y83.089 E32.66037
G1 X45.834 Y82.633 E32.69683
G1 X47.029 Y81.178 E32.82207
G1 X47.419 Y80.788 E32.85876
G1 X50.242 Y78.469 E33.10179
G1 X48.23 Y77.389 E33.25369
G1 X47.773 Y77.083 E33.29027
G1 X46.312 Y75.886 E33.41591
G1 X45.921 Y75.495 E33.4527
G1 X44.718 Y74.029 E33.57885
G1 X44.417 Y73.579 E33.61486
G1 X43.462 Y71.744 E33.75246
G0 F7200 X34.358 Y67.719
G1 F1800 X34.647 Y67.021 E33.80272
G1 X34.743 Y66.296 E33.85137
G1 X34.645 Y65.566 E33.90036
G1 X34.363 Y64.878 E33.94982
G1 X33.91 Y64.292 E33.99909
G1 X33.318 Y63.835 E34.04884
G1 X32.633 Y63.554 E34.09809
G1 X31.906 Y63.459 E34.14686
G1 X31.168 Y63.553 E34.19635
G1 X30.483 Y63.838 E34.24571
G1 X29.895 Y64.29 E34.29504
G1 X29.443 Y64.878 E34.34438
G1 X29.158 Y65.563 E34.39373
G1 X29.064 Y66.301 E34.44322
G1 X29.159 Y67.028 E34.49199
G1 X29.44 Y67.713 E34.54124
G1 X29.897 Y68.305 E34.59099
G1 X30.482 Y68.756 E34.64012
G1 X31.165 Y69.039 E34.6893
G1 X31.91 Y69.134 E34.73926
G1 X32.63 Y69.04 E34.78756
G1 X33.321 Y68.756 E34.83726
G1 X33.908 Y68.304 E34.88654
G1 X34.358 Y67.719 E34.93564
G0 F7200 X32.264 Y87.265
G1 F1800 X31.537 Y87.36 E34.98441
G1 X30.852 Y87.641 E35.03366
G1 X30.26 Y88.098 E35.08341
G1 X29.81 Y88.683 E35.1325
G1 X29.524 Y89.369 E35.18194
G1 X29.428 Y90.103 E35.23119
G1 X29.523 Y90.829 E35.27989
G1 X29.811 Y91.521 E35.32975
G1 X30.262 Y92.109 E35.37905
G1 X30.851 Y92.563 E35.42851
G1 X31.537 Y92.845 E35.47785
G1 X32.271 Y92.943 E35.52711
G1 X33 Y92.845 E35.57604
G1 X33.687 Y92.563 E35.62544
G1 X34.276 Y92.108 E35.67495
G1 X34.729 Y91.522 E35.72422
G1 X35.011 Y90.834 E35.77368
G1 X35.109 Y90.102 E35.82281
G1 X35.011 Y89.369 E35.872
G1 X34.73 Y88.686 E35.92113
G1 X34.275 Y88.096 E35.97069
G1 X33.687 Y87.644 E36.02003
G1 X33.002 Y87.359 E36.06938
G1 X32.264 Y87.265 E36.11887
G0 F7200 X44.708 Y98.478
G1 F1800 X44.708 Y103.032 E36.4218
G1 X46.311 Y103.791 E36.53978
G1 X48.385 Y102.089 E36.71825
G1 X50.1 Y100.943 E36.85546
G1 X47.424 Y98.749 E37.08565
G1 X46.437 Y97.761 E37.17855
G1 X44.708 Y98.478 E37.30306
G0 F7200 X53.507 Y110.262
G1 F1800 X53.056 Y110.85 E37.35236
G1 X52.768 Y111.542 E37.40221
G1 X52.672 Y112.267 E37.45086
G1 X52.77 Y112.999 E37.49999
G1 X53.052 Y113.687 E37.54945
G1 X53.505 Y114.273 E37.59872
G1 X54.097 Y114.73 E37.64847
G1 X54.782 Y115.011 E37.69772
G1 X55.509 Y115.106 E37.74649
G1 X56.247 Y115.012 E37.79598
G1 X56.932 Y114.727 E37.84533
G1 X57.519 Y114.277 E37.89454
G1 X57.974 Y113.687 E37.9441
G1 X58.255 Y113.005 E37.99316
G1 X58.35 Y112.26 E38.04312
G1 X58.255 Y111.538 E38.09156
G1 X57.975 Y110.852 E38.14085
G1 X57.519 Y110.26 E38.19056
G1 X56.931 Y109.807 E38.23994
G1 X56.244 Y109.525 E38.28934
G1 X55.513 Y109.427 E38.3384
G1 X54.787 Y109.523 E38.38711
G1 X54.095 Y109.811 E38.43697
G1 X53.507 Y110.262 E38.48627
G0 F7200 X72.672 Y112.267
G1 F1800 X72.77 Y112.999 E38.53539
G1 X73.052 Y113.687 E38.58485
G1 X73.505 Y114.273 E38.63412
G1 X74.097 Y114.73 E38.68387
G1 X74.782 Y115.011 E38.73312
G1 X75.508 Y115.106 E38.78183
G1 X76.246 Y115.012 E38.83132
G1 X76.931 Y114.727 E38.88067
G1 X77.518 Y114.277 E38.92987
G1 X77.973 Y113.687 E38.97943
G1 X78.254 Y113.005 E39.0285
G1 X78.349 Y112.26 E39.07846
G1 X78.254 Y111.538 E39.1269
G1 X77.974 Y110.852 E39.17619
G1 X77.518 Y110.26 E39.2259
G1 X76.93 Y109.807 E39.27527
G1 X76.243 Y109.525 E39.32467
G1 X75.517 Y109.428 E39.37339
G1 X74.782 Y109.525 E39.42271
G1 X74.095 Y109.811 E39.47221
G1 X73.507 Y110.262 E39.52151
G1 X73.056 Y110.85 E39.5708
G1 X72.768 Y111.542 E39.62066
G1 X72.672 Y112.267 E39.66931
G0 F7200 X81.424 Y101.091
G1 F1800 X84.1 Y103.286 E39.89954
G1 X84.49 Y103.676 E39.93623
G1 X85.695 Y105.144 E40.06257
G1 X86.966 Y107.046 E40.21474
G1 X88.435 Y104.848 E40.3906
G1 X89.64 Y103.38 E40.51693
G1 X90.03 Y102.99 E40.55362
G1 X91.481 Y101.799 E40.67849
G1 X93.072 Y100.747 E40.80537
G1 X90.205 Y98.394 E41.05209
G1 X89.813 Y98.001 E41.08902
G1 X87.409 Y95.071 E41.34113
G1 X86.195 Y96.888 E41.48649
G1 X84.994 Y98.353 E41.6125
G1 X84.598 Y98.749 E41.64976
G1 X83.139 Y99.945 E41.77525
G1 X81.424 Y101.091 E41.91246
G0 F7200 X96.338 Y90.831
G1 F1800 X96.789 Y91.419 E41.96175
G1 X97.377 Y91.87 E42.01105
G1 X98.069 Y92.158 E42.06091
G1 X98.795 Y92.254 E42.10962
G1 X99.526 Y92.156 E42.15868
G1 X100.214 Y91.874 E42.20815
G1 X100.802 Y91.42 E42.25756
G1 X101.256 Y90.828 E42.30719
G1 X101.537 Y90.153 E42.35582
G1 X101.633 Y89.406 E42.40592
G1 X101.537 Y88.683 E42.45444
G1 X101.255 Y87.994 E42.50396
G1 X100.802 Y87.406 E42.55334
G1 X100.214 Y86.954 E42.60267
G1 X99.529 Y86.669 E42.65203
G1 X98.791 Y86.575 E42.70152
G1 X98.064 Y86.67 E42.75029
G1 X97.379 Y86.951 E42.79954
G1 X96.787 Y87.408 E42.84929
G1 X96.334 Y87.994 E42.89856
G1 X96.052 Y88.682 E42.94802
G1 X95.954 Y89.412 E42.99701
G1 X96.05 Y90.139 E43.04579
G1 X96.338 Y90.831 E43.09565
G0 F7200 X87.394 Y84.104
G1 F1800 X88.615 Y82.284 E43.24144
G1 X89.813 Y80.824 E43.36707
G1 X90.206 Y80.431 E43.40404
G1 X92.435 Y78.603 E43.5958
G1 X90.727 Y77.463 E43.7324
G1 X89.27 Y76.269 E43.85771
G1 X88.873 Y75.872 E43.89505
G1 X87.679 Y74.416 E44.02031
G1 X86.253 Y72.284 E44.19093
G1 X85.082 Y74.026 E44.33056
G1 X83.876 Y75.495 E44.45699
G1 X83.485 Y75.886 E44.49377
G1 X80.661 Y78.2 E44.73663
G1 X82.683 Y79.282 E44.88918
G1 X83.137 Y79.585 E44.92549
G1 X84.603 Y80.788 E45.05164
G1 X84.989 Y81.174 E45.08795
G1 X87.394 Y84.104 E45.34011
G0 F7200 X78.471 Y88.347
G1 F1800 X78.016 Y87.758 E45.38962
G1 X77.43 Y87.305 E45.43889
G1 X76.741 Y87.022 E45.48844
G1 X76.014 Y86.928 E45.5372
G1 X75.278 Y87.022 E45.58656
G1 X74.593 Y87.307 E45.63591
G1 X74.005 Y87.759 E45.68524
G1 X73.553 Y88.347 E45.73458
G1 X73.268 Y89.032 E45.78393
G1 X73.174 Y89.77 E45.83342
G1 X73.269 Y90.497 E45.88219
G1 X73.55 Y91.182 E45.93144
G1 X74.007 Y91.774 E45.98119
G1 X74.592 Y92.224 E46.03029
G1 X75.277 Y92.509 E46.07964
