;FLAVOR:Repetier
;TIME:11259
;Generated with Cura_SteamEngine 2.4.0
G21        ;metric values
G90        ;absolute positioning
M82        ;set extruder to absolute mode
G28 X0 Y0  ;move X/Y to min endstops
G28 Z0     ;move Z to min endstops
G0 Z10 F250
M109 S205 ;Uncomment to add your own temperature line
G92 E0
G1 F200 E5              ;extrude 3mm of feed stock
G0 Z0 F250
G92 E0                  ;zero the extruded length
;LAYER_COUNT:18
;LAYER:-5
M107
M207 X20
G1 F6000 E-7
G0 F7200 X36.135 Y20.119 Z0.2
G1 F6000 E0
G1 F1800 X37.027 Y18.451 E0.12583
G1 X37.333 Y17.993 E0.16247
G1 X38.53 Y16.534 E0.288
G1 X38.923 Y16.141 E0.32497
G1 X40.382 Y14.944 E0.45051
G1 X40.84 Y14.638 E0.48715
G1 X42.508 Y13.746 E0.61298
G1 X43.014 Y13.535 E0.64944
G1 X44.819 Y12.99 E0.77487
G1 X45.357 Y12.883 E0.81136
G1 X47.237 Y12.697 E0.93702
G1 X47.539 Y12.683 E0.95713
G1 X107.484 Y12.683 E4.94469
G1 X107.786 Y12.697 E4.9648
G1 X109.666 Y12.883 E5.09047
G1 X110.204 Y12.99 E5.12696
G1 X112.009 Y13.535 E5.25238
G1 X112.515 Y13.746 E5.28885
G1 X114.183 Y14.638 E5.41468
G1 X114.641 Y14.944 E5.45132
G1 X116.1 Y16.141 E5.57685
G1 X116.493 Y16.534 E5.61383
G1 X117.69 Y17.993 E5.73936
G1 X117.996 Y18.451 E5.776
G1 X118.888 Y20.119 E5.90183
G1 X119.099 Y20.625 E5.9383
G1 X119.644 Y22.43 E6.06372
G1 X119.751 Y22.968 E6.10021
G1 X119.937 Y24.848 E6.22588
G1 X119.951 Y25.141 E6.24539
G1 X119.951 Y65.096 E8.90321
G1 X119.937 Y65.398 E8.92332
G1 X119.751 Y67.278 E9.04899
G1 X119.644 Y67.816 E9.08547
G1 X119.099 Y69.621 E9.2109
G1 X118.888 Y70.127 E9.24737
G1 X117.996 Y71.795 E9.37319
G1 X117.692 Y72.251 E9.40965
G1 X116.488 Y73.717 E9.53584
G1 X116.111 Y74.095 E9.57135
G1 X113.829 Y75.971 E9.76786
G1 X115.206 Y77.103 E9.88644
G1 X115.595 Y77.492 E9.92303
G1 X116.792 Y78.951 E10.04857
G1 X117.098 Y79.409 E10.08521
G1 X117.99 Y81.077 E10.21104
G1 X118.201 Y81.583 E10.2475
G1 X118.746 Y83.388 E10.37293
G1 X118.853 Y83.926 E10.40942
G1 X119.039 Y85.806 E10.53508
G1 X119.053 Y86.099 E10.5546
G1 X119.053 Y126.054 E13.21241
G1 X119.039 Y126.356 E13.23252
G1 X118.853 Y128.236 E13.35819
G1 X118.746 Y128.774 E13.39468
G1 X118.2 Y130.583 E13.52038
G1 X117.987 Y131.096 E13.55733
G1 X117.101 Y132.746 E13.68191
G1 X116.794 Y133.208 E13.71881
G1 X115.591 Y134.673 E13.84491
G1 X115.201 Y135.063 E13.8816
G1 X113.746 Y136.257 E14.0068
G1 X113.279 Y136.568 E14.04412
G1 X111.628 Y137.455 E14.16879
G1 X111.115 Y137.668 E14.20574
G1 X109.306 Y138.214 E14.33144
G1 X108.768 Y138.321 E14.36793
G1 X106.888 Y138.507 E14.4936
G1 X106.586 Y138.521 E14.51371
G1 X46.641 Y138.521 E18.50127
G1 X46.339 Y138.507 E18.52138
G1 X44.459 Y138.321 E18.64705
G1 X43.921 Y138.214 E18.68353
G1 X42.112 Y137.668 E18.80923
G1 X41.599 Y137.455 E18.84618
G1 X39.948 Y136.568 E18.97085
G1 X39.481 Y136.257 E19.00818
G1 X38.026 Y135.063 E19.13338
G1 X37.636 Y134.673 E19.17007
G1 X36.433 Y133.208 E19.29617
G1 X36.126 Y132.746 E19.33307
G1 X35.24 Y131.096 E19.45765
G1 X35.027 Y130.583 E19.4946
G1 X34.481 Y128.774 E19.62029
G1 X34.374 Y128.236 E19.65678
G1 X34.188 Y126.356 E19.78245
G1 X34.174 Y126.054 E19.80256
G1 X34.174 Y86.099 E22.46038
G1 X34.188 Y85.806 E22.47989
G1 X34.374 Y83.926 E22.60556
G1 X34.481 Y83.388 E22.64205
G1 X35.026 Y81.583 E22.76747
G1 X35.237 Y81.077 E22.80394
G1 X36.129 Y79.409 E22.92977
G1 X36.435 Y78.951 E22.96641
G1 X37.632 Y77.492 E23.09194
G1 X38.021 Y77.103 E23.12854
G1 X40.295 Y75.234 E23.32434
G1 X38.924 Y74.106 E23.44244
G1 X38.53 Y73.711 E23.47955
G1 X37.331 Y72.251 E23.60522
G1 X37.027 Y71.795 E23.64168
G1 X36.135 Y70.127 E23.76751
G1 X35.924 Y69.621 E23.80397
G1 X35.379 Y67.816 E23.9294
G1 X35.272 Y67.278 E23.96589
G1 X35.086 Y65.398 E24.09155
G1 X35.072 Y65.096 E24.11166
G1 X35.072 Y25.141 E26.76948
G1 X35.086 Y24.848 E26.789
G1 X35.272 Y22.968 E26.91466
G1 X35.379 Y22.43 E26.95115
G1 X35.924 Y20.625 E27.07658
G1 X36.135 Y20.119 E27.11304
G0 F7200 X45.053 Y23.704
G1 F1800 X44.768 Y24.389 E27.1624
G1 X44.674 Y25.127 E27.21189
G1 X44.769 Y25.854 E27.26066
G1 X45.05 Y26.539 E27.30991
G1 X45.507 Y27.131 E27.35966
G1 X46.093 Y27.584 E27.40893
G1 X46.781 Y27.866 E27.45839
G1 X47.512 Y27.964 E27.50745
G1 X48.238 Y27.868 E27.55616
G1 X48.93 Y27.58 E27.60602
G1 X49.518 Y27.129 E27.65532
G1 X49.969 Y26.541 E27.70461
G1 X50.257 Y25.849 E27.75447
G1 X50.353 Y25.122 E27.80325
G1 X50.255 Y24.392 E27.85225
G1 X49.973 Y23.704 E27.90171
G1 X49.519 Y23.116 E27.95112
G1 X48.927 Y22.662 E28.00075
G1 X48.253 Y22.382 E28.0493
G1 X47.512 Y22.286 E28.099
G1 X46.771 Y22.382 E28.14871
G1 X46.097 Y22.662 E28.19726
G1 X45.504 Y23.118 E28.24702
G1 X45.053 Y23.704 E28.29621
G0 F7200 X47.512 Y42.286
G1 F1800 X46.771 Y42.382 E28.34591
G1 X46.097 Y42.662 E28.39446
G1 X45.504 Y43.118 E28.44422
G1 X45.053 Y43.704 E28.49341
G1 X44.768 Y44.389 E28.54276
G1 X44.674 Y45.127 E28.59225
G1 X44.769 Y45.854 E28.64102
G1 X45.05 Y46.539 E28.69027
G1 X45.507 Y47.131 E28.74002
G1 X46.093 Y47.584 E28.78929
G1 X46.781 Y47.866 E28.83875
G1 X47.512 Y47.964 E28.88782
G1 X48.238 Y47.868 E28.93653
G1 X48.93 Y47.58 E28.98639
G1 X49.518 Y47.129 E29.03568
G1 X49.969 Y46.541 E29.08498
G1 X50.257 Y45.849 E29.13484
G1 X50.353 Y45.122 E29.18362
G1 X50.255 Y44.392 E29.23261
G1 X49.973 Y43.704 E29.28207
G1 X49.519 Y43.116 E29.33149
G1 X48.927 Y42.662 E29.38112
G1 X48.253 Y42.382 E29.42967
G1 X47.512 Y42.286 E29.47937
G0 F7200 X47.512 Y62.286
G1 F1800 X46.771 Y62.382 E29.52907
G1 X46.097 Y62.662 E29.57762
G1 X45.504 Y63.118 E29.62738
G1 X45.053 Y63.704 E29.67657
G1 X44.768 Y64.389 E29.72593
G1 X44.674 Y65.127 E29.77541
G1 X44.769 Y65.854 E29.82419
G1 X45.05 Y66.539 E29.87344
G1 X45.507 Y67.131 E29.92319
G1 X46.093 Y67.584 E29.97246
G1 X46.781 Y67.866 E30.02192
G1 X47.512 Y67.964 E30.07098
G1 X48.238 Y67.868 E30.11969
G1 X48.93 Y67.58 E30.16955
G1 X49.518 Y67.129 E30.21885
G1 X49.969 Y66.541 E30.26814
G1 X50.257 Y65.849 E30.318
G1 X50.353 Y65.122 E30.36678
G1 X50.255 Y64.392 E30.41578
G1 X49.973 Y63.704 E30.46524
G1 X49.519 Y63.116 E30.51465
G1 X48.927 Y62.662 E30.56428
G1 X48.253 Y62.382 E30.61283
G1 X47.512 Y62.286 E30.66253
G0 F7200 X64.768 Y64.389
G1 F1800 X64.674 Y65.127 E30.71202
G1 X64.769 Y65.854 E30.76079
G1 X65.05 Y66.539 E30.81004
G1 X65.507 Y67.131 E30.85979
G1 X66.093 Y67.584 E30.90906
G1 X66.781 Y67.866 E30.95852
G1 X67.512 Y67.964 E31.00759
G1 X68.238 Y67.868 E31.0563
G1 X68.93 Y67.58 E31.10616
G1 X69.518 Y67.129 E31.15545
G1 X69.969 Y66.541 E31.20475
G1 X70.257 Y65.849 E31.25461
G1 X70.353 Y65.122 E31.30339
G1 X70.255 Y64.392 E31.35238
G1 X69.973 Y63.704 E31.40184
G1 X69.519 Y63.116 E31.45126
G1 X68.927 Y62.662 E31.50089
G1 X68.253 Y62.382 E31.54944
G1 X67.512 Y62.286 E31.59914
G1 X66.771 Y62.382 E31.64884
G1 X66.097 Y62.662 E31.69739
G1 X65.504 Y63.118 E31.74715
G1 X65.053 Y63.704 E31.79634
G1 X64.768 Y64.389 E31.8457
G0 F7200 X66.781 Y47.866
G1 F1800 X67.512 Y47.964 E31.89476
G1 X68.238 Y47.868 E31.94347
G1 X68.93 Y47.58 E31.99333
G1 X69.518 Y47.129 E32.04263
G1 X69.969 Y46.541 E32.09192
G1 X70.257 Y45.849 E32.14178
G1 X70.353 Y45.122 E32.19056
G1 X70.255 Y44.392 E32.23955
G1 X69.973 Y43.704 E32.28902
G1 X69.519 Y43.116 E32.33843
G1 X68.927 Y42.662 E32.38806
G1 X68.253 Y42.382 E32.43661
G1 X67.512 Y42.286 E32.48631
G1 X66.771 Y42.382 E32.53602
G1 X66.097 Y42.662 E32.58456
G1 X65.504 Y43.118 E32.63433
G1 X65.053 Y43.704 E32.68351
G1 X64.768 Y44.389 E32.73287
G1 X64.674 Y45.127 E32.78236
G1 X64.769 Y45.854 E32.83113
G1 X65.05 Y46.539 E32.88038
G1 X65.507 Y47.131 E32.93013
G1 X66.093 Y47.584 E32.9794
G1 X66.781 Y47.866 E33.02886
G0 F7200 X67.512 Y27.964
G1 F1800 X68.238 Y27.868 E33.07757
G1 X68.93 Y27.58 E33.12743
G1 X69.518 Y27.129 E33.17673
G1 X69.969 Y26.541 E33.22602
G1 X70.257 Y25.849 E33.27588
G1 X70.353 Y25.122 E33.32466
G1 X70.255 Y24.392 E33.37366
G1 X69.973 Y23.704 E33.42312
G1 X69.519 Y23.116 E33.47253
G1 X68.927 Y22.662 E33.52216
G1 X68.253 Y22.382 E33.57071
G1 X67.512 Y22.286 E33.62041
G1 X66.771 Y22.382 E33.67012
G1 X66.097 Y22.662 E33.71867
G1 X65.504 Y23.118 E33.76843
G1 X65.053 Y23.704 E33.81762
G1 X64.768 Y24.389 E33.86697
G1 X64.674 Y25.127 E33.91646
G1 X64.769 Y25.854 E33.96523
G1 X65.05 Y26.539 E34.01448
G1 X65.507 Y27.131 E34.06423
G1 X66.093 Y27.584 E34.1135
G1 X66.781 Y27.866 E34.16296
G1 X67.512 Y27.964 E34.21202
G0 F7200 X84.768 Y25.854
G1 F1800 X85.049 Y26.539 E34.26127
G1 X85.506 Y27.131 E34.31102
G1 X86.092 Y27.584 E34.36029
G1 X86.78 Y27.866 E34.40975
G1 X87.511 Y27.964 E34.45881
G1 X88.237 Y27.868 E34.50753
G1 X88.929 Y27.58 E34.55739
G1 X89.517 Y27.129 E34.60668
G1 X89.968 Y26.541 E34.65598
G1 X90.256 Y25.849 E34.70584
G1 X90.352 Y25.122 E34.75462
G1 X90.254 Y24.392 E34.80361
G1 X89.972 Y23.704 E34.85307
G1 X89.518 Y23.116 E34.90249
G1 X88.926 Y22.662 E34.95212
G1 X88.252 Y22.382 E35.00067
G1 X87.511 Y22.286 E35.05037
G1 X86.77 Y22.382 E35.10007
G1 X86.096 Y22.662 E35.14862
G1 X85.503 Y23.118 E35.19838
G1 X85.052 Y23.704 E35.24757
G1 X84.767 Y24.389 E35.29692
G1 X84.673 Y25.127 E35.34641
G1 X84.768 Y25.854 E35.39518
G0 F7200 X86.77 Y42.382
G1 F1800 X86.096 Y42.662 E35.44373
G1 X85.503 Y43.118 E35.4935
G1 X85.052 Y43.704 E35.54268
G1 X84.767 Y44.389 E35.59204
G1 X84.673 Y45.127 E35.64153
G1 X84.768 Y45.854 E35.6903
G1 X85.049 Y46.539 E35.73955
G1 X85.506 Y47.131 E35.7893
G1 X86.092 Y47.584 E35.83857
G1 X86.78 Y47.866 E35.88803
G1 X87.511 Y47.964 E35.93709
G1 X88.237 Y47.868 E35.9858
G1 X88.929 Y47.58 E36.03566
G1 X89.517 Y47.129 E36.08496
G1 X89.968 Y46.541 E36.13425
G1 X90.256 Y45.849 E36.18411
G1 X90.352 Y45.122 E36.23289
G1 X90.254 Y44.392 E36.28189
G1 X89.972 Y43.704 E36.33135
G1 X89.518 Y43.116 E36.38076
G1 X88.926 Y42.662 E36.43039
G1 X88.252 Y42.382 E36.47894
G1 X87.511 Y42.286 E36.52864
G1 X86.77 Y42.382 E36.57835
G0 F7200 X87.511 Y62.286
G1 F1800 X86.77 Y62.382 E36.62805
G1 X86.096 Y62.662 E36.6766
G1 X85.503 Y63.118 E36.72636
G1 X85.052 Y63.704 E36.77555
G1 X84.767 Y64.389 E36.8249
G1 X84.673 Y65.127 E36.87439
G1 X84.768 Y65.854 E36.92316
G1 X85.049 Y66.539 E36.97241
G1 X85.506 Y67.131 E37.02216
G1 X86.092 Y67.584 E37.07143
G1 X86.78 Y67.866 E37.12089
G1 X87.511 Y67.964 E37.16996
G1 X88.237 Y67.868 E37.21867
G1 X88.929 Y67.58 E37.26853
G1 X89.517 Y67.129 E37.31782
G1 X89.968 Y66.541 E37.36712
G1 X90.256 Y65.849 E37.41698
G1 X90.352 Y65.122 E37.46576
G1 X90.254 Y64.392 E37.51475
G1 X89.972 Y63.704 E37.56421
G1 X89.518 Y63.116 E37.61363
G1 X88.926 Y62.662 E37.66326
G1 X88.252 Y62.382 E37.71181
G1 X87.511 Y62.286 E37.76151
G0 F7200 X104.767 Y64.389
G1 F1800 X104.673 Y65.127 E37.811
G1 X104.768 Y65.854 E37.85977
G1 X105.049 Y66.539 E37.90902
G1 X105.506 Y67.131 E37.95877
G1 X106.092 Y67.584 E38.00804
G1 X106.78 Y67.866 E38.0575
G1 X107.511 Y67.964 E38.10656
G1 X108.237 Y67.868 E38.15528
G1 X108.929 Y67.58 E38.20514
G1 X109.517 Y67.129 E38.25443
G1 X109.968 Y66.541 E38.30373
G1 X110.256 Y65.849 E38.35359
G1 X110.352 Y65.122 E38.40237
G1 X110.254 Y64.392 E38.45136
G1 X109.972 Y63.704 E38.50082
G1 X109.518 Y63.116 E38.55024
G1 X108.926 Y62.662 E38.59987
G1 X108.252 Y62.382 E38.64841
G1 X107.511 Y62.286 E38.69812
G1 X106.77 Y62.382 E38.74782
G1 X106.096 Y62.662 E38.79637
G1 X105.503 Y63.118 E38.84613
G1 X105.052 Y63.704 E38.89532
G1 X104.767 Y64.389 E38.94467
G0 F7200 X106.78 Y47.866
G1 F1800 X107.511 Y47.964 E38.99374
G1 X108.237 Y47.868 E39.04245
G1 X108.929 Y47.58 E39.09231
G1 X109.517 Y47.129 E39.1416
G1 X109.968 Y46.541 E39.1909
G1 X110.256 Y45.849 E39.24076
G1 X110.352 Y45.122 E39.28954
G1 X110.254 Y44.392 E39.33853
G1 X109.972 Y43.704 E39.38799
G1 X109.518 Y43.116 E39.43741
G1 X108.926 Y42.662 E39.48704
G1 X108.252 Y42.382 E39.53559
G1 X107.511 Y42.286 E39.58529
G1 X106.77 Y42.382 E39.63499
G1 X106.096 Y42.662 E39.68354
G1 X105.503 Y43.118 E39.7333
G1 X105.052 Y43.704 E39.78249
G1 X104.767 Y44.389 E39.83185
G1 X104.673 Y45.127 E39.88133
G1 X104.768 Y45.854 E39.93011
G1 X105.049 Y46.539 E39.97936
G1 X105.506 Y47.131 E40.02911
G1 X106.092 Y47.584 E40.07838
G1 X106.78 Y47.866 E40.12784
G0 F7200 X107.511 Y27.964
G1 F1800 X108.237 Y27.868 E40.17655
G1 X108.929 Y27.58 E40.22641
G1 X109.517 Y27.129 E40.2757
G1 X109.968 Y26.541 E40.325
G1 X110.256 Y25.849 E40.37486
G1 X110.352 Y25.122 E40.42364
G1 X110.254 Y24.392 E40.47263
G1 X109.972 Y23.704 E40.5221
G1 X109.518 Y23.116 E40.57151
G1 X108.926 Y22.662 E40.62114
G1 X108.252 Y22.382 E40.66969
G1 X107.511 Y22.286 E40.71939
G1 X106.77 Y22.382 E40.7691
G1 X106.096 Y22.662 E40.81764
G1 X105.503 Y23.118 E40.86741
G1 X105.052 Y23.704 E40.91659
G1 X104.767 Y24.389 E40.96595
G1 X104.673 Y25.127 E41.01544
G1 X104.768 Y25.854 E41.06421
G1 X105.049 Y26.539 E41.11346
G1 X105.506 Y27.131 E41.16321
G1 X106.092 Y27.584 E41.21248
G1 X106.78 Y27.866 E41.26194
G1 X107.511 Y27.964 E41.311
G0 F7200 X106.613 Y83.244
G1 F1800 X105.872 Y83.34 E41.3607
G1 X105.198 Y83.62 E41.40925
G1 X104.605 Y84.076 E41.45901
G1 X104.154 Y84.662 E41.5082
G1 X103.869 Y85.347 E41.55756
G1 X103.775 Y86.085 E41.60704
G1 X103.87 Y86.812 E41.65582
G1 X104.151 Y87.497 E41.70507
G1 X104.608 Y88.089 E41.75482
G1 X105.194 Y88.542 E41.80409
G1 X105.882 Y88.824 E41.85355
G1 X106.613 Y88.922 E41.90261
G1 X107.339 Y88.826 E41.95132
G1 X108.031 Y88.538 E42.00118
G1 X108.619 Y88.087 E42.05048
G1 X109.07 Y87.499 E42.09977
G1 X109.358 Y86.807 E42.14963
G1 X109.454 Y86.08 E42.19841
G1 X109.356 Y85.35 E42.24741
G1 X109.074 Y84.662 E42.29687
G1 X108.62 Y84.074 E42.34628
G1 X108.028 Y83.62 E42.39591
G1 X107.354 Y83.34 E42.44446
G1 X106.613 Y83.244 E42.49416
G0 F7200 X106.613 Y103.244
G1 F1800 X105.872 Y103.34 E42.54387
G1 X105.198 Y103.62 E42.59242
G1 X104.605 Y104.076 E42.64218
G1 X104.154 Y104.662 E42.69137
G1 X103.869 Y105.347 E42.74072
G1 X103.775 Y106.085 E42.79021
G1 X103.87 Y106.812 E42.83898
G1 X104.151 Y107.497 E42.88823
G1 X104.608 Y108.089 E42.93798
G1 X105.194 Y108.542 E42.98725
G1 X105.882 Y108.824 E43.03671
G1 X106.613 Y108.922 E43.08577
G1 X107.339 Y108.826 E43.13449
G1 X108.031 Y108.538 E43.18434
G1 X108.619 Y108.087 E43.23364
G1 X109.07 Y107.499 E43.28293
G1 X109.358 Y106.807 E43.33279
G1 X109.454 Y106.08 E43.38157
G1 X109.356 Y105.35 E43.43057
G1 X109.074 Y104.662 E43.48003
G1 X108.62 Y104.074 E43.52945
G1 X108.028 Y103.62 E43.57907
G1 X107.354 Y103.34 E43.62762
G1 X106.613 Y103.244 E43.67733
G0 F7200 X106.613 Y123.244
G1 F1800 X105.872 Y123.34 E43.72703
G1 X105.198 Y123.62 E43.77558
G1 X104.605 Y124.076 E43.82534
G1 X104.154 Y124.662 E43.87453
G1 X103.869 Y125.347 E43.92388
G1 X103.775 Y126.085 E43.97337
G1 X103.87 Y126.812 E44.02214
G1 X104.151 Y127.497 E44.07139
G1 X104.608 Y128.089 E44.12114
G1 X105.194 Y128.542 E44.17041
G1 X105.882 Y128.824 E44.21987
G1 X106.613 Y128.922 E44.26893
G1 X107.339 Y128.826 E44.31765
G1 X108.031 Y128.538 E44.36751
G1 X108.619 Y128.087 E44.4168
G1 X109.07 Y127.499 E44.4661
G1 X109.358 Y126.807 E44.51596
G1 X109.454 Y126.08 E44.56474
G1 X109.356 Y125.35 E44.61373
G1 X109.074 Y124.662 E44.66319
G1 X108.62 Y124.074 E44.71261
G1 X108.028 Y123.62 E44.76224
G1 X107.354 Y123.34 E44.81079
G1 X106.613 Y123.244 E44.86049
G0 F7200 X89.356 Y125.35
G1 F1800 X89.074 Y124.662 E44.90995
G1 X88.62 Y124.074 E44.95937
G1 X88.028 Y123.62 E45.00899
G1 X87.354 Y123.34 E45.05754
G1 X86.613 Y123.244 E45.10725
G1 X85.872 Y123.34 E45.15695
G1 X85.198 Y123.62 E45.2055
G1 X84.605 Y124.076 E45.25526
G1 X84.154 Y124.662 E45.30445
G1 X83.869 Y125.347 E45.3538
G1 X83.775 Y126.085 E45.40329
G1 X83.87 Y126.812 E45.45206
G1 X84.151 Y127.497 E45.50131
G1 X84.608 Y128.089 E45.55106
G1 X85.194 Y128.542 E45.60033
G1 X85.882 Y128.824 E45.64979
G1 X86.613 Y128.922 E45.69885
G1 X87.339 Y128.826 E45.74757
G1 X88.031 Y128.538 E45.79743
