;FLAVOR:Repetier
;TIME:8345
;Generated with Cura_SteamEngine 2.4.0
G21        ;metric values
G90        ;absolute positioning
M82        ;set extruder to absolute mode
G28 X0 Y0  ;move X/Y to min endstops
G28 Z0     ;move Z to min endstops
G0 Z10 F250
M109 S205 ;Uncomment to add your own temperature line
G92 E0
G1 F200 E5              ;extrude 3mm of feed stock
G0 Z0 F250
G92 E0                  ;zero the extruded length
;LAYER_COUNT:18
;LAYER:-5
M107
M207 X20
G1 F6000 E-7
G0 F7200 X31.071 Y31.417 Z0.2
G1 F6000 E0
G1 F1800 X31.464 Y31.024 E0.03697
G1 X32.923 Y29.827 E0.16251
G1 X33.381 Y29.521 E0.19915
G1 X35.049 Y28.629 E0.32497
G1 X35.555 Y28.418 E0.36144
G1 X37.36 Y27.873 E0.48686
G1 X37.898 Y27.766 E0.52335
G1 X39.778 Y27.58 E0.64902
G1 X40.08 Y27.566 E0.66913
G1 X60.026 Y27.566 E1.99595
G1 X60.328 Y27.58 E2.01606
G1 X62.208 Y27.766 E2.14173
G1 X62.746 Y27.873 E2.17821
G1 X64.551 Y28.418 E2.30364
G1 X65.057 Y28.629 E2.34011
G1 X66.725 Y29.521 E2.46593
G1 X67.183 Y29.827 E2.50257
G1 X68.642 Y31.024 E2.62811
G1 X69.035 Y31.417 E2.66508
G1 X70.233 Y32.876 E2.79066
G1 X71.823 Y35.257 E2.98111
G1 X73.496 Y32.13 E3.21702
G1 X73.8 Y31.675 E3.25342
G1 X74.998 Y30.215 E3.37905
G1 X75.392 Y29.821 E3.41612
G1 X76.853 Y28.622 E3.54184
G1 X77.3 Y28.323 E3.57761
G1 X78.978 Y27.426 E3.70418
G1 X79.468 Y27.222 E3.73949
G1 X81.292 Y26.668 E3.86629
G1 X81.827 Y26.562 E3.90257
G1 X83.706 Y26.377 E4.02817
G1 X84.007 Y26.363 E4.04821
G1 X103.953 Y26.363 E5.37503
G1 X104.254 Y26.377 E5.39507
G1 X106.133 Y26.562 E5.52067
G1 X106.671 Y26.669 E5.55716
G1 X108.489 Y27.22 E5.68352
G1 X108.991 Y27.429 E5.71969
G1 X110.653 Y28.319 E5.8451
G1 X111.106 Y28.622 E5.88136
G1 X112.567 Y29.82 E6.00704
G1 X112.963 Y30.216 E6.04429
G1 X114.161 Y31.677 E6.16997
G1 X114.464 Y32.13 E6.20623
G1 X115.354 Y33.792 E6.33164
G1 X115.563 Y34.294 E6.36781
G1 X116.114 Y36.112 E6.49418
G1 X116.221 Y36.65 E6.53066
G1 X116.406 Y38.529 E6.65626
G1 X116.42 Y38.819 E6.67557
G1 X116.42 Y78.769 E9.33306
G1 X116.406 Y79.076 E9.3535
G1 X116.221 Y80.955 E9.4791
G1 X116.115 Y81.49 E9.51538
G1 X115.561 Y83.314 E9.64218
G1 X115.357 Y83.804 E9.67749
G1 X114.46 Y85.482 E9.80406
G1 X114.161 Y85.929 E9.83983
G1 X112.962 Y87.39 E9.96556
G1 X112.572 Y87.78 E10.00224
G1 X111.107 Y88.983 E10.12834
G1 X110.645 Y89.29 E10.16524
G1 X108.995 Y90.176 E10.28982
G1 X108.482 Y90.389 E10.32677
G1 X106.673 Y90.935 E10.45247
G1 X106.135 Y91.042 E10.48896
G1 X104.255 Y91.228 E10.61463
G1 X103.953 Y91.242 E10.63474
G1 X101.157 Y91.242 E10.82073
G1 X100.492 Y93.098 E10.95188
G1 X101.287 Y93.751 E11.02031
G1 X101.673 Y94.137 E11.05662
G1 X102.876 Y95.602 E11.18272
G1 X103.183 Y96.064 E11.21962
G1 X104.069 Y97.714 E11.3442
G1 X104.282 Y98.227 E11.38115
G1 X104.828 Y100.036 E11.50685
G1 X104.935 Y100.574 E11.54334
G1 X105.121 Y102.454 E11.66901
G1 X105.135 Y102.745 E11.68839
G1 X105.135 Y122.702 E13.01593
G1 X105.121 Y123.004 E13.03604
G1 X104.935 Y124.884 E13.16171
G1 X104.828 Y125.422 E13.1982
G1 X104.283 Y127.227 E13.32362
G1 X104.072 Y127.733 E13.36009
G1 X103.18 Y129.401 E13.48592
G1 X102.876 Y129.857 E13.52237
G1 X101.677 Y131.317 E13.64804
G1 X101.285 Y131.71 E13.68497
G1 X99.825 Y132.908 E13.8106
G1 X99.367 Y133.214 E13.84724
G1 X97.699 Y134.106 E13.97306
G1 X97.193 Y134.317 E14.00953
G1 X95.388 Y134.862 E14.13496
G1 X94.85 Y134.969 E14.17144
G1 X92.97 Y135.155 E14.29711
G1 X92.668 Y135.169 E14.31722
G1 X52.723 Y135.169 E16.97438
G1 X52.421 Y135.155 E16.99449
G1 X50.543 Y134.969 E17.12002
G1 X50 Y134.861 E17.15685
G1 X48.199 Y134.316 E17.28202
G1 X47.691 Y134.106 E17.31858
G1 X46.021 Y133.211 E17.44462
G1 X45.57 Y132.91 E17.48069
G1 X44.104 Y131.707 E17.60684
G1 X43.714 Y131.317 E17.64353
G1 X42.519 Y129.862 E17.76877
G1 X42.215 Y129.406 E17.80523
G1 X41.318 Y127.73 E17.93168
G1 X41.112 Y127.235 E17.96735
G1 X40.563 Y125.423 E18.09329
G1 X40.456 Y124.883 E18.12991
G1 X40.27 Y123.004 E18.25551
G1 X40.256 Y122.702 E18.27563
G1 X40.256 Y102.745 E19.60317
G1 X40.27 Y102.454 E19.62255
G1 X40.456 Y100.575 E19.74815
G1 X40.563 Y100.035 E19.78477
G1 X41.112 Y98.223 E19.91072
G1 X41.319 Y97.726 E19.94653
G1 X42.217 Y96.048 E20.07313
G1 X42.514 Y95.604 E20.10866
G1 X43.792 Y94.048 E20.24261
G1 X43.033 Y92.445 E20.36059
G1 X40.08 Y92.445 E20.55702
G1 X39.778 Y92.431 E20.57713
G1 X37.898 Y92.245 E20.7028
G1 X37.36 Y92.138 E20.73929
G1 X35.551 Y91.592 E20.86499
G1 X35.038 Y91.379 E20.90194
G1 X33.387 Y90.492 E21.02661
G1 X32.92 Y90.181 E21.06393
G1 X31.465 Y88.987 E21.18914
G1 X31.075 Y88.597 E21.22582
G1 X29.872 Y87.132 E21.35192
G1 X29.565 Y86.67 E21.38882
G1 X28.679 Y85.02 E21.5134
G1 X28.466 Y84.507 E21.55035
G1 X27.92 Y82.698 E21.67605
G1 X27.813 Y82.16 E21.71254
G1 X27.627 Y80.28 E21.83821
G1 X27.613 Y79.978 E21.85832
G1 X27.613 Y40.024 E24.51607
G1 X27.627 Y39.731 E24.53558
G1 X27.813 Y37.851 E24.66125
G1 X27.92 Y37.313 E24.69774
G1 X28.465 Y35.508 E24.82316
G1 X28.676 Y35.002 E24.85963
G1 X29.568 Y33.334 E24.98545
G1 X29.874 Y32.876 E25.0221
G1 X31.071 Y31.417 E25.14763
G0 F7200 X38.045 Y38.001
G1 F1800 X37.594 Y38.587 E25.19682
G1 X37.309 Y39.272 E25.24617
G1 X37.215 Y40.01 E25.29566
G1 X37.31 Y40.737 E25.34443
G1 X37.591 Y41.422 E25.39368
G1 X38.048 Y42.014 E25.44343
G1 X38.634 Y42.467 E25.4927
G1 X39.322 Y42.749 E25.54216
G1 X40.053 Y42.847 E25.59123
G1 X40.779 Y42.751 E25.63994
G1 X41.471 Y42.463 E25.6898
G1 X42.059 Y42.012 E25.73909
G1 X42.51 Y41.424 E25.78839
G1 X42.798 Y40.732 E25.83825
G1 X42.894 Y40.005 E25.88703
G1 X42.796 Y39.273 E25.93616
G1 X42.513 Y38.586 E25.98558
G1 X42.06 Y37.999 E26.0349
G1 X41.468 Y37.545 E26.08453
G1 X40.794 Y37.265 E26.13308
G1 X40.053 Y37.169 E26.18278
G1 X39.312 Y37.265 E26.23249
G1 X38.638 Y37.545 E26.28104
G1 X38.045 Y38.001 E26.3308
G0 F7200 X40.053 Y57.169
G1 F1800 X39.312 Y57.265 E26.3805
G1 X38.638 Y57.545 E26.42905
G1 X38.045 Y58.001 E26.47881
G1 X37.594 Y58.587 E26.528
G1 X37.309 Y59.272 E26.57735
G1 X37.215 Y60.01 E26.62684
G1 X37.31 Y60.737 E26.67561
G1 X37.591 Y61.422 E26.72486
G1 X38.048 Y62.014 E26.77461
G1 X38.634 Y62.467 E26.82388
G1 X39.322 Y62.749 E26.87334
G1 X40.053 Y62.847 E26.92241
G1 X40.779 Y62.751 E26.97112
G1 X41.471 Y62.463 E27.02098
G1 X42.059 Y62.012 E27.07027
G1 X42.51 Y61.424 E27.11957
G1 X42.798 Y60.732 E27.16943
G1 X42.894 Y60.005 E27.21821
G1 X42.796 Y59.273 E27.26733
G1 X42.513 Y58.586 E27.31676
G1 X42.06 Y57.999 E27.36608
G1 X41.468 Y57.545 E27.41571
G1 X40.794 Y57.265 E27.46426
G1 X40.053 Y57.169 E27.51396
G0 F7200 X57.309 Y59.272
G1 F1800 X57.215 Y60.01 E27.56345
G1 X57.31 Y60.737 E27.61222
G1 X57.591 Y61.422 E27.66147
G1 X58.048 Y62.014 E27.71122
G1 X58.634 Y62.467 E27.76049
G1 X59.322 Y62.749 E27.80995
G1 X60.053 Y62.847 E27.85902
G1 X60.779 Y62.751 E27.90773
G1 X61.471 Y62.463 E27.95759
G1 X62.059 Y62.012 E28.00688
G1 X62.51 Y61.424 E28.05618
G1 X62.798 Y60.732 E28.10604
G1 X62.894 Y60.005 E28.15482
G1 X62.796 Y59.273 E28.20394
G1 X62.513 Y58.586 E28.25337
G1 X62.06 Y57.999 E28.30269
G1 X61.468 Y57.545 E28.35232
G1 X60.794 Y57.265 E28.40087
G1 X60.053 Y57.169 E28.45057
G1 X59.312 Y57.265 E28.50028
G1 X58.638 Y57.545 E28.54883
G1 X58.045 Y58.001 E28.59859
G1 X57.594 Y58.587 E28.64777
G1 X57.309 Y59.272 E28.69713
G0 F7200 X59.322 Y42.749
G1 F1800 X60.053 Y42.847 E28.74619
G1 X60.779 Y42.751 E28.7949
G1 X61.471 Y42.463 E28.84476
G1 X62.059 Y42.012 E28.89406
G1 X62.51 Y41.424 E28.94335
G1 X62.798 Y40.732 E28.99321
G1 X62.894 Y40.005 E29.04199
G1 X62.796 Y39.273 E29.09112
G1 X62.513 Y38.586 E29.14054
G1 X62.06 Y37.999 E29.18987
G1 X61.468 Y37.545 E29.23949
G1 X60.794 Y37.265 E29.28804
G1 X60.053 Y37.169 E29.33775
G1 X59.312 Y37.265 E29.38745
G1 X58.638 Y37.545 E29.436
G1 X58.045 Y38.001 E29.48576
G1 X57.594 Y38.587 E29.53495
G1 X57.309 Y39.272 E29.5843
G1 X57.215 Y40.01 E29.63379
G1 X57.31 Y40.737 E29.68256
G1 X57.591 Y41.422 E29.73181
G1 X58.048 Y42.014 E29.78156
G1 X58.634 Y42.467 E29.83083
G1 X59.322 Y42.749 E29.88029
G0 F7200 X81.236 Y39.537
G1 F1800 X81.521 Y40.222 E29.92965
G1 X81.973 Y40.81 E29.97898
G1 X82.561 Y41.262 E30.02832
G1 X83.246 Y41.547 E30.07767
G1 X83.984 Y41.641 E30.12716
G1 X84.711 Y41.546 E30.17593
G1 X85.396 Y41.265 E30.22518
G1 X85.988 Y40.808 E30.27493
G1 X86.441 Y40.222 E30.3242
G1 X86.723 Y39.534 E30.37366
G1 X86.821 Y38.803 E30.42272
G1 X86.725 Y38.077 E30.47144
G1 X86.437 Y37.385 E30.5213
G1 X85.986 Y36.797 E30.57059
G1 X85.397 Y36.343 E30.62006
G1 X84.711 Y36.061 E30.6694
G1 X83.977 Y35.963 E30.71866
G1 X83.248 Y36.061 E30.76758
G1 X82.561 Y36.343 E30.81698
G1 X81.972 Y36.798 E30.86649
G1 X81.519 Y37.384 E30.91576
G1 X81.236 Y38.073 E30.96531
G1 X81.142 Y38.8 E31.01407
G1 X81.236 Y39.537 E31.0635
G0 F7200 X101.142 Y38.8
G1 F1800 X101.236 Y39.537 E31.11292
G1 X101.521 Y40.222 E31.16227
G1 X101.973 Y40.81 E31.21161
G1 X102.561 Y41.262 E31.26094
G1 X103.246 Y41.547 E31.3103
G1 X103.984 Y41.641 E31.35978
G1 X104.711 Y41.546 E31.40856
G1 X105.396 Y41.265 E31.45781
G1 X105.988 Y40.808 E31.50756
G1 X106.441 Y40.222 E31.55683
G1 X106.723 Y39.534 E31.60629
G1 X106.821 Y38.803 E31.65535
G1 X106.725 Y38.077 E31.70406
G1 X106.437 Y37.385 E31.75392
G1 X105.986 Y36.797 E31.80322
G1 X105.397 Y36.343 E31.85269
G1 X104.711 Y36.061 E31.90202
G1 X103.977 Y35.963 E31.95128
G1 X103.248 Y36.061 E32.00021
G1 X102.561 Y36.343 E32.04961
G1 X101.972 Y36.798 E32.09912
G1 X101.519 Y37.384 E32.14839
G1 X101.236 Y38.073 E32.19794
G1 X101.142 Y38.8 E32.2467
G0 F7200 X103.248 Y56.061
G1 F1800 X102.561 Y56.343 E32.2961
G1 X101.972 Y56.798 E32.34561
G1 X101.519 Y57.384 E32.39488
G1 X101.236 Y58.073 E32.44443
G1 X101.142 Y58.8 E32.49319
G1 X101.236 Y59.537 E32.54261
G1 X101.521 Y60.222 E32.59197
G1 X101.973 Y60.81 E32.6413
G1 X102.561 Y61.262 E32.69064
G1 X103.246 Y61.547 E32.73999
G1 X103.984 Y61.641 E32.78948
G1 X104.711 Y61.546 E32.83825
G1 X105.396 Y61.265 E32.8875
G1 X105.988 Y60.808 E32.93725
G1 X106.441 Y60.222 E32.98652
G1 X106.723 Y59.534 E33.03598
G1 X106.821 Y58.803 E33.08504
G1 X106.725 Y58.077 E33.13376
G1 X106.437 Y57.385 E33.18362
G1 X105.986 Y56.797 E33.23291
G1 X105.397 Y56.343 E33.28238
G1 X104.711 Y56.061 E33.33172
G1 X103.977 Y55.963 E33.38098
G1 X103.248 Y56.061 E33.42991
G0 F7200 X86.725 Y58.077
G1 F1800 X86.437 Y57.385 E33.47977
G1 X85.986 Y56.797 E33.52906
G1 X85.397 Y56.343 E33.57853
G1 X84.711 Y56.061 E33.62787
G1 X83.977 Y55.963 E33.67713
G1 X83.248 Y56.061 E33.72606
G1 X82.561 Y56.343 E33.77546
G1 X81.972 Y56.798 E33.82497
G1 X81.519 Y57.384 E33.87424
G1 X81.236 Y58.073 E33.92378
G1 X81.142 Y58.8 E33.97255
G1 X81.236 Y59.537 E34.02197
G1 X81.521 Y60.222 E34.07132
G1 X81.973 Y60.81 E34.12066
G1 X82.561 Y61.262 E34.16999
G1 X83.246 Y61.547 E34.21934
G1 X83.984 Y61.641 E34.26883
G1 X84.711 Y61.546 E34.3176
G1 X85.396 Y61.265 E34.36686
G1 X85.988 Y60.808 E34.4166
G1 X86.441 Y60.222 E34.46587
G1 X86.723 Y59.534 E34.51534
G1 X86.821 Y58.803 E34.5644
G1 X86.725 Y58.077 E34.61311
G0 F7200 X83.977 Y75.963
G1 F1800 X83.248 Y76.061 E34.66204
G1 X82.561 Y76.343 E34.71144
G1 X81.972 Y76.798 E34.76095
G1 X81.518 Y77.386 E34.81037
G1 X81.237 Y78.071 E34.85962
G1 X81.142 Y78.798 E34.90839
G1 X81.236 Y79.536 E34.95788
G1 X81.521 Y80.221 E35.00723
G1 X81.973 Y80.809 E35.05656
G1 X82.561 Y81.261 E35.1059
G1 X83.246 Y81.546 E35.15525
G1 X83.984 Y81.64 E35.20474
G1 X84.711 Y81.545 E35.25351
G1 X85.396 Y81.264 E35.30276
G1 X85.988 Y80.807 E35.35251
G1 X86.441 Y80.221 E35.40178
G1 X86.723 Y79.533 E35.45124
G1 X86.821 Y78.802 E35.50031
G1 X86.725 Y78.076 E35.54902
G1 X86.437 Y77.383 E35.59894
G1 X85.985 Y76.796 E35.64822
G1 X85.4 Y76.344 E35.6974
G1 X84.71 Y76.061 E35.74701
G1 X83.977 Y75.963 E35.7962
G0 F7200 X72.21 Y83.558
G1 F1800 X70.539 Y86.674 E36.0314
G1 X70.234 Y87.132 E36.06801
G1 X68.958 Y88.686 E36.20176
G1 X69.717 Y90.289 E36.31974
G1 X75.517 Y90.289 E36.70556
G1 X76.182 Y88.434 E36.83664
G1 X75.387 Y87.78 E36.90512
G1 X74.998 Y87.39 E36.94177
G1 X73.799 Y85.929 E37.06749
G1 X72.21 Y83.558 E37.25735
G0 F7200 X62.798 Y80.731
G1 F1800 X62.894 Y80.004 E37.30613
G1 X62.796 Y79.272 E37.35526
G1 X62.513 Y78.585 E37.40468
G1 X62.06 Y77.998 E37.45401
G1 X61.468 Y77.544 E37.50363
G1 X60.793 Y77.263 E37.55227
G1 X60.054 Y77.169 E37.60183
G1 X59.312 Y77.266 E37.6516
G1 X58.636 Y77.544 E37.70022
G1 X58.046 Y77.998 E37.74975
G1 X57.594 Y78.586 E37.79908
G1 X57.309 Y79.271 E37.84843
G1 X57.215 Y80.009 E37.89792
G1 X57.31 Y80.736 E37.94669
G1 X57.591 Y81.421 E37.99595
G1 X58.048 Y82.013 E38.04569
G1 X58.634 Y82.466 E38.09496
G1 X59.322 Y82.748 E38.14443
G1 X60.053 Y82.846 E38.19349
G1 X60.779 Y82.75 E38.2422
G1 X61.471 Y82.462 E38.29206
G1 X62.059 Y82.011 E38.34135
G1 X62.51 Y81.423 E38.39065
G1 X62.798 Y80.731 E38.44051
G0 F7200 X42.894 Y80.004
G1 F1800 X42.796 Y79.272 E38.48964
G1 X42.513 Y78.585 E38.53906
G1 X42.06 Y77.998 E38.58838
G1 X41.468 Y77.544 E38.63801
G1 X40.793 Y77.263 E38.68665
G1 X40.054 Y77.169 E38.7362
G1 X39.312 Y77.266 E38.78598
G1 X38.636 Y77.544 E38.8346
G1 X38.046 Y77.998 E38.88412
G1 X37.594 Y78.586 E38.93346
G1 X37.309 Y79.271 E38.98281
G1 X37.215 Y80.009 E39.0323
G1 X37.31 Y80.736 E39.08107
G1 X37.591 Y81.421 E39.13032
G1 X38.048 Y82.013 E39.18007
G1 X38.634 Y82.466 E39.22934
G1 X39.322 Y82.748 E39.2788
G1 X40.053 Y82.846 E39.32786
G1 X40.779 Y82.75 E39.37658
G1 X41.471 Y82.462 E39.42644
G1 X42.059 Y82.011 E39.47573
G1 X42.51 Y81.423 E39.52503
G1 X42.798 Y80.731 E39.57489
G1 X42.894 Y80.004 E39.62367
G0 F7200 X51.278 Y100.272
G1 F1800 X50.69 Y100.723 E39.67296
G1 X50.236 Y101.312 E39.72243
G1 X49.954 Y101.998 E39.77177
G1 X49.856 Y102.729 E39.82083
G1 X49.954 Y103.46 E39.86989
G1 X50.236 Y104.148 E39.91935
G1 X50.691 Y104.737 E39.96886
G1 X51.277 Y105.19 E40.01813
G1 X51.966 Y105.473 E40.06768
G1 X52.693 Y105.567 E40.11644
G1 X53.43 Y105.473 E40.16586
G1 X54.115 Y105.188 E40.21522
G1 X54.703 Y104.736 E40.26455
G1 X55.155 Y104.148 E40.31389
G1 X55.44 Y103.463 E40.36324
G1 X55.534 Y102.725 E40.41273
G1 X55.439 Y101.998 E40.4615
G1 X55.158 Y101.313 E40.51075
G1 X54.701 Y100.721 E40.5605
G1 X54.115 Y100.268 E40.60977
G1 X53.427 Y99.986 E40.65923
G1 X52.696 Y99.888 E40.70829
G1 X51.97 Y99.984 E40.75701
G1 X51.278 Y100.272 E40.80687
G0 F7200 X52.696 Y119.888
G1 F1800 X51.97 Y119.984 E40.85558
G1 X51.278 Y120.272 E40.90544
G1 X50.69 Y120.723 E40.95473
G1 X50.236 Y121.312 E41.0042
G1 X49.954 Y121.998 E41.05354
G1 X49.856 Y122.729 E41.1026
G1 X49.954 Y123.46 E41.15166
G1 X50.236 Y124.148 E41.20112
G1 X50.691 Y124.737 E41.25063
G1 X51.277 Y125.19 E41.2999
G1 X51.966 Y125.473 E41.34945
G1 X52.693 Y125.567 E41.39821
G1 X53.43 Y125.473 E41.44764
G1 X54.115 Y125.188 E41.49699
G1 X54.703 Y124.736 E41.54633
G1 X55.155 Y124.148 E41.59566
G1 X55.44 Y123.463 E41.64501
G1 X55.534 Y122.725 E41.6945
G1 X55.439 Y121.998 E41.74327
G1 X55.158 Y121.313 E41.79252
G1 X54.701 Y120.721 E41.84227
G1 X54.115 Y120.268 E41.89154
G1 X53.427 Y119.986 E41.941
G1 X52.696 Y119.888 E41.99007
G0 F7200 X69.954 Y121.998
G1 F1800 X69.856 Y122.729 E42.03913
G1 X69.954 Y123.46 E42.08819
G1 X70.236 Y124.148 E42.13765
G1 X70.691 Y124.737 E42.18716
G1 X71.277 Y125.19 E42.23643
G1 X71.966 Y125.473 E42.28598
G1 X72.693 Y125.567 E42.33474
G1 X73.429 Y125.473 E42.3841
G1 X74.111 Y125.189 E42.43324
G1 X74.703 Y124.735 E42.48287
G1 X75.154 Y124.148 E42.53211
G1 X75.439 Y123.463 E42.58146
G1 X75.533 Y122.725 E42.63095
G1 X75.438 Y121.998 E42.67972
G1 X75.157 Y121.313 E42.72897
G1 X74.7 Y120.721 E42.77872
G1 X74.118 Y120.273 E42.82758
G1 X73.425 Y119.985 E42.8775
G1 X72.692 Y119.891 E42.92666
G1 X71.972 Y119.983 E42.97494
G1 X71.278 Y120.272 E43.02495
G1 X70.69 Y120.723 E43.07424
