;FLAVOR:Repetier
;TIME:7517
;Generated with Cura_SteamEngine 2.4.0
G21        ;metric values
G90        ;absolute positioning
M82        ;set extruder to absolute mode
G28 X0 Y0  ;move X/Y to min endstops
G28 Z0     ;move Z to min endstops
G0 Z10 F250
M109 S205 ;Uncomment to add your own temperature line
G92 E0
G1 F200 E5              ;extrude 3mm of feed stock
G0 Z0 F250
G92 E0                  ;zero the extruded length
;LAYER_COUNT:18
;LAYER:-5
M107
M207 X20
G1 F6000 E-7
G0 F7200 X33.371 Y38.071 Z0.2
G1 F6000 E0
G1 F1800 X34.837 Y36.868 E0.12615
G1 X35.287 Y36.567 E0.16216
G1 X36.96 Y35.672 E0.28838
G1 X37.466 Y35.461 E0.32484
G1 X39.271 Y34.916 E0.45027
G1 X39.809 Y34.809 E0.48676
G1 X41.689 Y34.623 E0.61242
G1 X41.991 Y34.609 E0.63253
G1 X101.936 Y34.609 E4.62009
G1 X102.238 Y34.623 E4.6402
G1 X104.117 Y34.809 E4.76581
G1 X104.655 Y34.916 E4.80229
G1 X106.46 Y35.461 E4.92772
G1 X106.966 Y35.672 E4.96419
G1 X108.639 Y36.567 E5.0904
G1 X109.089 Y36.868 E5.12641
G1 X110.555 Y38.071 E5.25256
G1 X110.945 Y38.461 E5.28925
G1 X112.14 Y39.916 E5.4145
G1 X112.444 Y40.372 E5.45095
G1 X113.341 Y42.048 E5.5774
G1 X113.547 Y42.543 E5.61307
G1 X114.096 Y44.355 E5.73901
G1 X114.203 Y44.895 E5.77563
G1 X114.389 Y46.774 E5.90124
G1 X114.403 Y47.065 E5.92062
G1 X114.403 Y67.022 E7.24816
G1 X114.389 Y67.324 E7.26827
G1 X114.203 Y69.203 E7.39387
G1 X114.096 Y69.743 E7.43049
G1 X113.547 Y71.555 E7.55644
G1 X113.341 Y72.05 E7.5921
G1 X112.444 Y73.726 E7.71856
G1 X112.14 Y74.182 E7.75501
G1 X110.945 Y75.637 E7.88026
G1 X110.55 Y76.032 E7.91742
G1 X107.823 Y78.267 E8.15196
G1 X110.05 Y80.093 E8.34353
G1 X110.443 Y80.486 E8.3805
G1 X111.64 Y81.945 E8.50604
G1 X111.946 Y82.403 E8.54268
G1 X112.838 Y84.071 E8.6685
G1 X113.049 Y84.577 E8.70497
G1 X113.594 Y86.382 E8.8304
G1 X113.701 Y86.92 E8.86688
G1 X113.887 Y88.8 E8.99255
G1 X113.901 Y89.093 E9.01207
G1 X113.901 Y109.048 E10.33948
G1 X113.887 Y109.35 E10.35959
G1 X113.701 Y111.229 E10.48519
G1 X113.594 Y111.767 E10.52168
G1 X113.049 Y113.572 E10.6471
G1 X112.838 Y114.078 E10.68357
G1 X111.943 Y115.751 E10.80978
G1 X111.642 Y116.201 E10.8458
G1 X110.439 Y117.667 E10.97195
G1 X110.049 Y118.057 E11.00863
G1 X108.594 Y119.252 E11.13388
G1 X108.138 Y119.556 E11.17034
G1 X106.462 Y120.453 E11.29679
G1 X105.967 Y120.659 E11.33245
G1 X104.155 Y121.208 E11.4584
G1 X103.615 Y121.315 E11.49502
G1 X101.736 Y121.501 E11.62062
G1 X101.434 Y121.515 E11.64073
G1 X41.489 Y121.515 E15.62829
G1 X41.187 Y121.501 E15.6484
G1 X39.308 Y121.315 E15.774
G1 X38.768 Y121.208 E15.81062
G1 X36.956 Y120.659 E15.93657
G1 X36.461 Y120.453 E15.97223
G1 X34.785 Y119.556 E16.09868
G1 X34.329 Y119.252 E16.13514
G1 X32.874 Y118.057 E16.26039
G1 X32.484 Y117.667 E16.29708
G1 X31.281 Y116.201 E16.42322
G1 X30.98 Y115.751 E16.45924
G1 X30.085 Y114.078 E16.58545
G1 X29.874 Y113.572 E16.62192
G1 X29.329 Y111.767 E16.74734
G1 X29.222 Y111.229 E16.78383
G1 X29.036 Y109.35 E16.90943
G1 X29.022 Y109.048 E16.92954
G1 X29.022 Y89.093 E18.25696
G1 X29.036 Y88.8 E18.27647
G1 X29.222 Y86.92 E18.40214
G1 X29.329 Y86.382 E18.43863
G1 X29.874 Y84.577 E18.56405
G1 X30.085 Y84.071 E18.60052
G1 X30.977 Y82.403 E18.72634
G1 X31.283 Y81.945 E18.76298
G1 X32.48 Y80.486 E18.88852
G1 X32.873 Y80.093 E18.92549
G1 X35.601 Y77.856 E19.16017
G1 X33.376 Y76.032 E19.35155
G1 X32.981 Y75.637 E19.38871
G1 X31.786 Y74.182 E19.51396
G1 X31.482 Y73.726 E19.55041
G1 X30.587 Y72.053 E19.67663
G1 X30.376 Y71.547 E19.71309
G1 X29.831 Y69.742 E19.83852
G1 X29.724 Y69.204 E19.87501
G1 X29.538 Y67.324 E20.00068
G1 X29.524 Y67.022 E20.02079
G1 X29.524 Y47.065 E21.34833
G1 X29.538 Y46.774 E21.36771
G1 X29.724 Y44.894 E21.49338
G1 X29.831 Y44.356 E21.52987
G1 X30.376 Y42.551 E21.65529
G1 X30.587 Y42.045 E21.69176
G1 X31.482 Y40.372 E21.81797
G1 X31.786 Y39.916 E21.85443
G1 X32.981 Y38.461 E21.97967
G1 X33.371 Y38.071 E22.01636
G0 F7200 X39.956 Y45.044
G1 F1800 X39.503 Y45.63 E22.06563
G1 X39.22 Y46.319 E22.11518
G1 X39.126 Y47.046 E22.16394
G1 X39.22 Y47.783 E22.21337
G1 X39.505 Y48.468 E22.26272
G1 X39.957 Y49.056 E22.31205
G1 X40.545 Y49.508 E22.36139
G1 X41.23 Y49.793 E22.41074
G1 X41.968 Y49.887 E22.46023
G1 X42.695 Y49.792 E22.509
G1 X43.38 Y49.511 E22.55825
G1 X43.972 Y49.054 E22.608
G1 X44.425 Y48.468 E22.65727
G1 X44.707 Y47.78 E22.70673
G1 X44.805 Y47.048 E22.75586
G1 X44.708 Y46.323 E22.80452
G1 X44.423 Y45.631 E22.8543
G1 X43.97 Y45.043 E22.90368
G1 X43.381 Y44.589 E22.95315
G1 X42.695 Y44.307 E23.00248
G1 X41.961 Y44.209 E23.05174
G1 X41.232 Y44.307 E23.10067
G1 X40.545 Y44.589 E23.15007
G1 X39.956 Y45.044 E23.19958
G0 F7200 X41.961 Y64.209
G1 F1800 X41.232 Y64.307 E23.24851
G1 X40.545 Y64.589 E23.29791
G1 X39.956 Y65.044 E23.34742
G1 X39.503 Y65.63 E23.39669
G1 X39.22 Y66.319 E23.44624
G1 X39.126 Y67.046 E23.495
G1 X39.22 Y67.783 E23.54442
G1 X39.505 Y68.468 E23.59378
G1 X39.957 Y69.056 E23.64311
G1 X40.545 Y69.508 E23.69245
G1 X41.23 Y69.793 E23.7418
G1 X41.968 Y69.887 E23.79129
G1 X42.695 Y69.792 E23.84006
G1 X43.38 Y69.511 E23.88931
G1 X43.972 Y69.054 E23.93906
G1 X44.425 Y68.468 E23.98833
G1 X44.707 Y67.78 E24.03779
G1 X44.805 Y67.049 E24.08685
G1 X44.709 Y66.323 E24.13557
G1 X44.421 Y65.631 E24.18543
G1 X43.97 Y65.043 E24.23472
G1 X43.381 Y64.589 E24.28419
G1 X42.695 Y64.307 E24.33353
G1 X41.961 Y64.209 E24.38279
G0 F7200 X59.22 Y66.319
G1 F1800 X59.126 Y67.046 E24.43155
G1 X59.22 Y67.783 E24.48097
G1 X59.505 Y68.468 E24.53032
G1 X59.957 Y69.056 E24.57966
G1 X60.545 Y69.508 E24.62899
G1 X61.23 Y69.793 E24.67835
G1 X61.968 Y69.887 E24.72784
G1 X62.695 Y69.792 E24.77661
G1 X63.38 Y69.511 E24.82586
G1 X63.972 Y69.054 E24.87561
G1 X64.425 Y68.468 E24.92488
G1 X64.707 Y67.78 E24.97434
G1 X64.805 Y67.049 E25.0234
G1 X64.709 Y66.323 E25.07211
G1 X64.421 Y65.631 E25.12197
G1 X63.97 Y65.043 E25.17127
G1 X63.381 Y64.589 E25.22074
G1 X62.695 Y64.307 E25.27007
G1 X61.961 Y64.209 E25.31933
G1 X61.232 Y64.307 E25.36826
G1 X60.545 Y64.589 E25.41766
G1 X59.956 Y65.044 E25.46717
G1 X59.503 Y65.63 E25.51644
G1 X59.22 Y66.319 E25.56599
G0 F7200 X61.23 Y49.793
G1 F1800 X61.968 Y49.887 E25.61548
G1 X62.695 Y49.792 E25.66425
G1 X63.38 Y49.511 E25.7135
G1 X63.972 Y49.054 E25.76325
G1 X64.425 Y48.468 E25.81252
G1 X64.707 Y47.78 E25.86198
G1 X64.805 Y47.048 E25.91111
G1 X64.708 Y46.323 E25.95977
G1 X64.423 Y45.631 E26.00955
G1 X63.97 Y45.043 E26.05892
G1 X63.381 Y44.589 E26.10839
G1 X62.695 Y44.307 E26.15773
G1 X61.961 Y44.209 E26.20699
G1 X61.232 Y44.307 E26.25592
G1 X60.545 Y44.589 E26.30532
G1 X59.956 Y45.044 E26.35483
G1 X59.503 Y45.63 E26.4041
G1 X59.22 Y46.319 E26.45365
G1 X59.126 Y47.046 E26.50241
G1 X59.22 Y47.783 E26.55183
G1 X59.505 Y48.468 E26.60119
G1 X59.957 Y49.056 E26.65052
G1 X60.545 Y49.508 E26.69986
G1 X61.23 Y49.793 E26.74921
G0 F7200 X79.219 Y47.783
G1 F1800 X79.504 Y48.468 E26.79856
G1 X79.956 Y49.056 E26.8479
G1 X80.544 Y49.508 E26.89723
G1 X81.229 Y49.793 E26.94658
G1 X81.967 Y49.887 E26.99607
G1 X82.694 Y49.792 E27.04484
G1 X83.379 Y49.511 E27.0941
G1 X83.971 Y49.054 E27.14384
G1 X84.424 Y48.468 E27.19311
G1 X84.706 Y47.78 E27.24258
G1 X84.804 Y47.048 E27.2917
G1 X84.707 Y46.323 E27.34036
G1 X84.422 Y45.631 E27.39014
G1 X83.969 Y45.043 E27.43952
G1 X83.38 Y44.589 E27.48899
G1 X82.694 Y44.307 E27.53833
G1 X81.96 Y44.209 E27.58758
G1 X81.231 Y44.307 E27.63651
G1 X80.544 Y44.589 E27.68591
G1 X79.955 Y45.044 E27.73542
G1 X79.502 Y45.63 E27.78469
G1 X79.219 Y46.319 E27.83424
G1 X79.125 Y47.046 E27.883
G1 X79.219 Y47.783 E27.93243
G0 F7200 X81.231 Y64.307
G1 F1800 X80.544 Y64.589 E27.98183
G1 X79.955 Y65.044 E28.03134
G1 X79.502 Y65.63 E28.08061
G1 X79.219 Y66.319 E28.13015
G1 X79.125 Y67.046 E28.17892
G1 X79.219 Y67.783 E28.22834
G1 X79.504 Y68.468 E28.27769
G1 X79.956 Y69.056 E28.32703
G1 X80.544 Y69.508 E28.37636
G1 X81.229 Y69.793 E28.42571
G1 X81.967 Y69.887 E28.4752
G1 X82.694 Y69.792 E28.52397
G1 X83.379 Y69.511 E28.57323
G1 X83.971 Y69.054 E28.62297
G1 X84.424 Y68.468 E28.67224
G1 X84.706 Y67.78 E28.72171
G1 X84.804 Y67.049 E28.77077
G1 X84.708 Y66.323 E28.81948
G1 X84.42 Y65.631 E28.86934
G1 X83.969 Y65.043 E28.91864
G1 X83.38 Y64.589 E28.9681
G1 X82.694 Y64.307 E29.01744
G1 X81.96 Y64.209 E29.0667
G1 X81.231 Y64.307 E29.11563
G0 F7200 X99.219 Y66.319
G1 F1800 X99.125 Y67.046 E29.16439
G1 X99.219 Y67.783 E29.21382
G1 X99.504 Y68.468 E29.26317
G1 X99.956 Y69.056 E29.3125
G1 X100.544 Y69.508 E29.36184
G1 X101.229 Y69.793 E29.41119
G1 X101.967 Y69.887 E29.46068
G1 X102.694 Y69.792 E29.50945
G1 X103.379 Y69.511 E29.5587
G1 X103.971 Y69.054 E29.60845
G1 X104.424 Y68.468 E29.65772
G1 X104.706 Y67.78 E29.70718
G1 X104.804 Y67.049 E29.75624
G1 X104.708 Y66.323 E29.80496
G1 X104.42 Y65.631 E29.85482
G1 X103.969 Y65.043 E29.90411
G1 X103.38 Y64.589 E29.95358
G1 X102.694 Y64.307 E30.00292
G1 X101.96 Y64.209 E30.05218
G1 X101.231 Y64.307 E30.10111
G1 X100.544 Y64.589 E30.15051
G1 X99.955 Y65.044 E30.20002
G1 X99.502 Y65.63 E30.24929
G1 X99.219 Y66.319 E30.29884
G0 F7200 X101.229 Y49.793
G1 F1800 X101.967 Y49.887 E30.34832
G1 X102.694 Y49.792 E30.3971
G1 X103.379 Y49.511 E30.44635
G1 X103.971 Y49.054 E30.4961
G1 X104.424 Y48.468 E30.54537
G1 X104.706 Y47.78 E30.59483
G1 X104.804 Y47.048 E30.64395
G1 X104.707 Y46.323 E30.69261
G1 X104.422 Y45.631 E30.74239
G1 X103.969 Y45.043 E30.79177
G1 X103.38 Y44.589 E30.84124
G1 X102.694 Y44.307 E30.89058
G1 X101.96 Y44.209 E30.93984
G1 X101.231 Y44.307 E30.98877
G1 X100.544 Y44.589 E31.03816
G1 X99.955 Y45.044 E31.08767
G1 X99.502 Y45.63 E31.13694
G1 X99.219 Y46.319 E31.18649
G1 X99.125 Y47.046 E31.23526
G1 X99.219 Y47.783 E31.28468
G1 X99.504 Y48.468 E31.33403
G1 X99.956 Y49.056 E31.38337
G1 X100.544 Y49.508 E31.4327
G1 X101.229 Y49.793 E31.48205
G0 F7200 X101.462 Y86.235
G1 F1800 X100.728 Y86.333 E31.53131
G1 X100.041 Y86.616 E31.58074
G1 X99.455 Y87.066 E31.62989
G1 X99 Y87.656 E31.67945
G1 X98.718 Y88.344 E31.72891
G1 X98.62 Y89.074 E31.7779
G1 X98.716 Y89.801 E31.82668
G1 X99.004 Y90.493 E31.87654
G1 X99.455 Y91.081 E31.92584
G1 X100.043 Y91.532 E31.97513
G1 X100.735 Y91.82 E32.02499
G1 X101.461 Y91.916 E32.07371
G1 X102.192 Y91.818 E32.12277
G1 X102.88 Y91.536 E32.17223
G1 X103.466 Y91.083 E32.2215
G1 X103.923 Y90.491 E32.27125
G1 X104.204 Y89.806 E32.3205
G1 X104.299 Y89.079 E32.36927
G1 X104.205 Y88.341 E32.41876
G1 X103.92 Y87.656 E32.46811
G1 X103.47 Y87.069 E32.51731
G1 X102.879 Y86.613 E32.56697
G1 X102.196 Y86.333 E32.61607
G1 X101.462 Y86.235 E32.66533
G0 F7200 X101.462 Y106.235
G1 F1800 X100.728 Y106.333 E32.71459
G1 X100.041 Y106.616 E32.76401
G1 X99.455 Y107.066 E32.81316
G1 X99 Y107.656 E32.86273
G1 X98.718 Y108.344 E32.91219
G1 X98.62 Y109.074 E32.96118
G1 X98.716 Y109.801 E33.00996
G1 X99.004 Y110.493 E33.05982
G1 X99.455 Y111.081 E33.10912
G1 X100.043 Y111.532 E33.15841
G1 X100.735 Y111.82 E33.20827
G1 X101.461 Y111.916 E33.25698
G1 X102.192 Y111.818 E33.30605
G1 X102.88 Y111.536 E33.35551
G1 X103.466 Y111.083 E33.40478
G1 X103.923 Y110.491 E33.45453
G1 X104.204 Y109.806 E33.50378
G1 X104.299 Y109.079 E33.55255
G1 X104.205 Y108.341 E33.60204
G1 X103.92 Y107.656 E33.65139
G1 X103.47 Y107.069 E33.70059
G1 X102.879 Y106.613 E33.75025
G1 X102.196 Y106.333 E33.79935
G1 X101.462 Y106.235 E33.84861
G0 F7200 X84.205 Y108.341
G1 F1800 X83.92 Y107.656 E33.89796
G1 X83.47 Y107.069 E33.94716
G1 X82.879 Y106.613 E33.99682
G1 X82.196 Y106.333 E34.04592
G1 X81.462 Y106.235 E34.09518
G1 X80.728 Y106.333 E34.14444
G1 X80.041 Y106.616 E34.19386
G1 X79.455 Y107.066 E34.24301
G1 X79 Y107.656 E34.29257
G1 X78.718 Y108.344 E34.34204
G1 X78.62 Y109.074 E34.39103
G1 X78.716 Y109.801 E34.43981
G1 X79.004 Y110.493 E34.48967
G1 X79.455 Y111.081 E34.53896
G1 X80.043 Y111.532 E34.58826
G1 X80.735 Y111.82 E34.63812
G1 X81.461 Y111.916 E34.68683
G1 X82.192 Y111.818 E34.73589
G1 X82.88 Y111.536 E34.78536
G1 X83.466 Y111.083 E34.83463
G1 X83.923 Y110.491 E34.88437
G1 X84.204 Y109.806 E34.93363
G1 X84.299 Y109.079 E34.9824
G1 X84.205 Y108.341 E35.03189
G0 F7200 X82.192 Y91.818
G1 F1800 X82.88 Y91.536 E35.08135
G1 X83.466 Y91.083 E35.13062
G1 X83.923 Y90.491 E35.18037
G1 X84.204 Y89.806 E35.22962
G1 X84.299 Y89.079 E35.27839
G1 X84.205 Y88.341 E35.32788
G1 X83.92 Y87.656 E35.37723
G1 X83.47 Y87.069 E35.42643
G1 X82.879 Y86.613 E35.47609
G1 X82.196 Y86.333 E35.52519
G1 X81.462 Y86.235 E35.57445
G1 X80.728 Y86.333 E35.62371
G1 X80.041 Y86.616 E35.67313
G1 X79.455 Y87.066 E35.72228
G1 X79 Y87.656 E35.77184
G1 X78.718 Y88.344 E35.8213
G1 X78.62 Y89.074 E35.8703
G1 X78.716 Y89.801 E35.91908
G1 X79.004 Y90.493 E35.96894
G1 X79.455 Y91.081 E36.01823
G1 X80.043 Y91.532 E36.06753
G1 X80.735 Y91.82 E36.11739
G1 X81.461 Y91.916 E36.1661
G1 X82.192 Y91.818 E36.21516
G0 F7200 X64.205 Y89.806
G1 F1800 X64.3 Y89.079 E36.26393
G1 X64.206 Y88.341 E36.31342
G1 X63.921 Y87.656 E36.36278
G1 X63.471 Y87.069 E36.41198
G1 X62.88 Y86.613 E36.46163
G1 X62.197 Y86.333 E36.51074
G1 X61.463 Y86.235 E36.55999
G1 X60.729 Y86.333 E36.60925
G1 X60.042 Y86.616 E36.65868
G1 X59.456 Y87.066 E36.70783
G1 X59.001 Y87.656 E36.75739
G1 X58.719 Y88.344 E36.80685
G1 X58.621 Y89.074 E36.85585
G1 X58.717 Y89.801 E36.90463
G1 X59.005 Y90.493 E36.95449
G1 X59.456 Y91.081 E37.00378
G1 X60.044 Y91.532 E37.05307
G1 X60.736 Y91.82 E37.10293
G1 X61.462 Y91.916 E37.15165
G1 X62.193 Y91.818 E37.20071
G1 X62.881 Y91.536 E37.25017
G1 X63.467 Y91.083 E37.29944
G1 X63.924 Y90.491 E37.34919
G1 X64.205 Y89.806 E37.39844
G0 F7200 X62.197 Y106.333
G1 F1800 X61.463 Y106.235 E37.4477
G1 X60.729 Y106.333 E37.49696
G1 X60.042 Y106.616 E37.54638
G1 X59.456 Y107.066 E37.59553
G1 X59.001 Y107.656 E37.64509
G1 X58.719 Y108.344 E37.69456
G1 X58.621 Y109.074 E37.74355
G1 X58.717 Y109.801 E37.79233
G1 X59.005 Y110.493 E37.84219
G1 X59.456 Y111.081 E37.89148
G1 X60.044 Y111.532 E37.94078
G1 X60.736 Y111.82 E37.99064
G1 X61.462 Y111.916 E38.03935
G1 X62.193 Y111.818 E38.08841
G1 X62.881 Y111.536 E38.13787
G1 X63.467 Y111.083 E38.18715
G1 X63.924 Y110.491 E38.23689
G1 X64.205 Y109.806 E38.28615
G1 X64.3 Y109.079 E38.33492
G1 X64.206 Y108.341 E38.38441
G1 X63.921 Y107.656 E38.43376
G1 X63.471 Y107.069 E38.48296
G1 X62.88 Y106.613 E38.53261
G1 X62.197 Y106.333 E38.58172
G0 F7200 X44.206 Y108.341
G1 F1800 X43.921 Y107.656 E38.63107
G1 X43.471 Y107.069 E38.68027
G1 X42.88 Y106.613 E38.72993
G1 X42.197 Y106.333 E38.77903
G1 X41.463 Y106.235 E38.82829
G1 X40.729 Y106.333 E38.87755
G1 X40.042 Y106.616 E38.92697
G1 X39.456 Y107.066 E38.97612
G1 X39.001 Y107.656 E39.02568
G1 X38.719 Y108.344 E39.07514
G1 X38.621 Y109.074 E39.12414
G1 X38.717 Y109.801 E39.17292
G1 X39.005 Y110.493 E39.22278
G1 X39.456 Y111.081 E39.27207
G1 X40.044 Y111.532 E39.32137
G1 X40.736 Y111.82 E39.37123
G1 X41.462 Y111.916 E39.41994
G1 X42.193 Y111.818 E39.469
G1 X42.881 Y111.536 E39.51846
G1 X43.467 Y111.083 E39.56773
G1 X43.924 Y110.491 E39.61748
G1 X44.205 Y109.806 E39.66673
G1 X44.3 Y109.079 E39.71551
G1 X44.206 Y108.341 E39.76499
G0 F7200 X42.193 Y91.818
G1 F1800 X42.881 Y91.536 E39.81446
G1 X43.467 Y91.083 E39.86373
G1 X43.924 Y90.491 E39.91347
G1 X44.205 Y89.806 E39.96273
G1 X44.3 Y89.079 E40.0115
G1 X44.206 Y88.341 E40.06099
G1 X43.921 Y87.656 E40.11034
G1 X43.471 Y87.069 E40.15954
G1 X42.88 Y86.613 E40.2092
G1 X42.197 Y86.333 E40.2583
G1 X41.463 Y86.235 E40.30756
G1 X40.729 Y86.333 E40.35682
G1 X40.042 Y86.616 E40.40624
G1 X39.456 Y87.066 E40.45539
G1 X39.001 Y87.656 E40.50495
G1 X38.719 Y88.344 E40.55441
G1 X38.621 Y89.074 E40.60341
G1 X38.717 Y89.801 E40.65219
G1 X39.005 Y90.493 E40.70205
G1 X39.456 Y91.081 E40.75134
G1 X40.044 Y91.532 E40.80064
G1 X40.736 Y91.82 E40.8505
