;FLAVOR:Repetier
;TIME:14189
;Generated with Cura_SteamEngine 2.4.0
G21        ;metric values
G90        ;absolute positioning
M82        ;set extruder to absolute mode
G28 X0 Y0  ;move X/Y to min endstops
G28 Z0     ;move Z to min endstops
G0 Z10 F250
M109 S205 ;Uncomment to add your own temperature line
G92 E0
G1 F200 E5              ;extrude 3mm of feed stock
G0 Z0 F250
G92 E0                  ;zero the extruded length
;LAYER_COUNT:18
;LAYER:-5
M107
M207 X20
G1 F6000 E-7
G0 F7200 X27.394 Y19.063 Z0.2
G1 F6000 E0
G1 F1800 X28.591 Y17.604 E0.12554
G1 X28.984 Y17.211 E0.16251
G1 X30.443 Y16.014 E0.28804
G1 X30.901 Y15.708 E0.32468
G1 X32.569 Y14.816 E0.45051
G1 X33.075 Y14.605 E0.48698
G1 X34.88 Y14.06 E0.6124
G1 X35.418 Y13.953 E0.64889
G1 X37.298 Y13.767 E0.77456
G1 X37.6 Y13.753 E0.79467
G1 X117.545 Y13.753 E6.11263
G1 X117.847 Y13.767 E6.13274
G1 X119.727 Y13.953 E6.25841
G1 X120.265 Y14.06 E6.2949
G1 X122.07 Y14.605 E6.42032
G1 X122.576 Y14.816 E6.45679
G1 X124.244 Y15.708 E6.58262
G1 X124.702 Y16.014 E6.61926
G1 X126.161 Y17.211 E6.74479
G1 X126.554 Y17.604 E6.78176
G1 X127.751 Y19.063 E6.9073
G1 X128.057 Y19.521 E6.94394
G1 X128.949 Y21.189 E7.06977
G1 X129.16 Y21.695 E7.10624
G1 X129.705 Y23.5 E7.23166
G1 X129.812 Y24.038 E7.26815
G1 X129.998 Y25.918 E7.39382
G1 X130.012 Y26.211 E7.41333
G1 X130.012 Y66.166 E10.07115
G1 X129.998 Y66.468 E10.09126
G1 X129.812 Y68.348 E10.21693
G1 X129.705 Y68.886 E10.25341
G1 X129.16 Y70.691 E10.37884
G1 X128.949 Y71.197 E10.41531
G1 X128.057 Y72.865 E10.54113
G1 X127.753 Y73.321 E10.57759
G1 X126.554 Y74.781 E10.70326
G1 X126.162 Y75.174 E10.74018
G1 X124.074 Y76.888 E10.91988
G1 X126.374 Y78.777 E11.11786
G1 X126.763 Y79.166 E11.15446
G1 X127.96 Y80.625 E11.28
G1 X128.266 Y81.083 E11.31664
G1 X129.158 Y82.751 E11.44246
G1 X129.369 Y83.257 E11.47893
G1 X129.914 Y85.062 E11.60435
G1 X130.021 Y85.6 E11.64084
G1 X130.207 Y87.48 E11.76651
G1 X130.221 Y87.773 E11.78602
G1 X130.221 Y127.728 E14.44384
G1 X130.207 Y128.03 E14.46395
G1 X130.021 Y129.908 E14.58949
G1 X129.913 Y130.451 E14.62632
G1 X129.368 Y132.252 E14.75148
G1 X129.158 Y132.76 E14.78805
G1 X128.263 Y134.43 E14.91409
G1 X127.962 Y134.881 E14.95015
G1 X126.759 Y136.347 E15.0763
G1 X126.369 Y136.737 E15.11299
G1 X124.914 Y137.932 E15.23824
G1 X124.458 Y138.236 E15.2747
G1 X122.782 Y139.133 E15.40115
G1 X122.287 Y139.339 E15.43681
G1 X120.475 Y139.888 E15.56276
G1 X119.935 Y139.995 E15.59938
G1 X118.056 Y140.181 E15.72498
G1 X117.754 Y140.195 E15.74509
G1 X37.809 Y140.195 E21.06305
G1 X37.507 Y140.181 E21.08316
G1 X35.628 Y139.995 E21.20877
G1 X35.088 Y139.888 E21.24539
G1 X33.276 Y139.339 E21.37133
G1 X32.779 Y139.132 E21.40714
G1 X31.101 Y138.234 E21.53374
G1 X30.657 Y137.937 E21.56928
G1 X29.195 Y136.738 E21.69505
G1 X28.799 Y136.342 E21.73231
G1 X27.603 Y134.883 E21.8578
G1 X27.295 Y134.422 E21.89468
G1 X26.413 Y132.777 E22.01884
G1 X26.194 Y132.248 E22.05693
G1 X25.65 Y130.451 E22.18182
G1 X25.542 Y129.908 E22.21865
G1 X25.356 Y128.03 E22.34419
G1 X25.342 Y127.728 E22.3643
G1 X25.342 Y87.773 E25.02212
G1 X25.356 Y87.48 E25.04163
G1 X25.542 Y85.6 E25.1673
G1 X25.649 Y85.062 E25.20379
G1 X26.195 Y83.253 E25.32948
G1 X26.408 Y82.74 E25.36643
G1 X27.295 Y81.089 E25.4911
G1 X27.606 Y80.622 E25.52843
G1 X28.8 Y79.167 E25.65363
G1 X29.194 Y78.773 E25.6907
G1 X31.282 Y77.06 E25.87035
G1 X28.983 Y75.174 E26.06816
G1 X28.591 Y74.781 E26.10508
G1 X27.392 Y73.321 E26.23075
G1 X27.088 Y72.865 E26.26721
G1 X26.196 Y71.197 E26.39303
G1 X25.985 Y70.691 E26.4295
G1 X25.44 Y68.886 E26.55493
G1 X25.333 Y68.348 E26.59141
G1 X25.147 Y66.468 E26.71708
G1 X25.133 Y66.166 E26.73719
G1 X25.133 Y26.211 E29.39501
G1 X25.147 Y25.918 E29.41452
G1 X25.333 Y24.038 E29.54019
G1 X25.44 Y23.5 E29.57668
G1 X25.985 Y21.695 E29.7021
G1 X26.196 Y21.189 E29.73857
G1 X27.088 Y19.521 E29.8644
G1 X27.394 Y19.063 E29.90104
G0 F7200 X35.114 Y24.775
G1 F1800 X34.829 Y25.467 E29.95082
G1 X34.732 Y26.192 E29.99948
G1 X34.83 Y26.924 E30.04861
G1 X35.112 Y27.611 E30.09801
G1 X35.566 Y28.201 E30.14753
G1 X36.154 Y28.652 E30.19682
G1 X36.838 Y28.937 E30.24611
G1 X37.573 Y29.031 E30.2954
G1 X38.308 Y28.937 E30.34469
G1 X38.992 Y28.652 E30.39399
G1 X39.581 Y28.2 E30.44337
G1 X40.033 Y27.61 E30.49281
G1 X40.317 Y26.93 E30.54183
G1 X40.411 Y26.188 E30.59159
G1 X40.317 Y25.463 E30.64022
G1 X40.034 Y24.774 E30.68977
G1 X39.58 Y24.187 E30.73913
G1 X38.991 Y23.734 E30.78856
G1 X38.309 Y23.451 E30.83767
G1 X37.574 Y23.353 E30.887
G1 X36.842 Y23.451 E30.93613
G1 X36.156 Y23.733 E30.98547
G1 X35.567 Y24.187 E31.03493
G1 X35.114 Y24.775 E31.08431
G0 F7200 X37.574 Y43.353
G1 F1800 X36.842 Y43.451 E31.13344
G1 X36.156 Y43.733 E31.18277
G1 X35.567 Y44.187 E31.23224
G1 X35.116 Y44.775 E31.28154
G1 X34.828 Y45.467 E31.3314
G1 X34.732 Y46.193 E31.38011
G1 X34.83 Y46.924 E31.42917
G1 X35.112 Y47.611 E31.47857
G1 X35.566 Y48.201 E31.52809
G1 X36.154 Y48.652 E31.57739
G1 X36.838 Y48.937 E31.62668
G1 X37.573 Y49.031 E31.67597
G1 X38.308 Y48.937 E31.72526
G1 X38.992 Y48.652 E31.77455
G1 X39.581 Y48.2 E31.82394
G1 X40.033 Y47.61 E31.87338
G1 X40.317 Y46.93 E31.9224
G1 X40.411 Y46.188 E31.97215
G1 X40.317 Y45.463 E32.02078
G1 X40.034 Y44.774 E32.07033
G1 X39.58 Y44.187 E32.1197
G1 X38.991 Y43.734 E32.16912
G1 X38.309 Y43.451 E32.21824
G1 X37.574 Y43.353 E32.26757
G0 F7200 X37.573 Y63.352
G1 F1800 X36.838 Y63.45 E32.31689
G1 X36.154 Y63.734 E32.36616
G1 X35.57 Y64.185 E32.41524
G1 X35.116 Y64.773 E32.46466
G1 X34.828 Y65.468 E32.5147
G1 X34.732 Y66.193 E32.56335
G1 X34.83 Y66.924 E32.61241
G1 X35.112 Y67.612 E32.66187
G1 X35.566 Y68.2 E32.71129
G1 X36.155 Y68.655 E32.7608
G1 X36.839 Y68.936 E32.80999
G1 X37.57 Y69.031 E32.85902
G1 X38.316 Y68.932 E32.90908
G1 X38.991 Y68.652 E32.95769
G1 X39.58 Y68.199 E33.00712
G1 X40.033 Y67.611 E33.0565
G1 X40.317 Y66.93 E33.10558
G1 X40.411 Y66.188 E33.15533
G1 X40.317 Y65.463 E33.20396
G1 X40.034 Y64.774 E33.25351
G1 X39.58 Y64.187 E33.30287
G1 X38.991 Y63.734 E33.3523
G1 X38.308 Y63.45 E33.40151
G1 X37.573 Y63.352 E33.45083
G0 F7200 X54.828 Y65.468
G1 F1800 X54.732 Y66.193 E33.49948
G1 X54.83 Y66.924 E33.54854
G1 X55.112 Y67.612 E33.598
G1 X55.566 Y68.2 E33.64742
G1 X56.155 Y68.655 E33.69693
G1 X56.839 Y68.936 E33.74612
G1 X57.57 Y69.031 E33.79515
G1 X58.316 Y68.932 E33.84521
G1 X58.991 Y68.652 E33.89382
G1 X59.58 Y68.199 E33.94325
G1 X60.033 Y67.611 E33.99263
G1 X60.317 Y66.93 E34.04171
G1 X60.411 Y66.188 E34.09146
G1 X60.317 Y65.463 E34.14009
G1 X60.034 Y64.774 E34.18964
G1 X59.58 Y64.187 E34.239
G1 X58.991 Y63.734 E34.28843
G1 X58.308 Y63.45 E34.33764
G1 X57.573 Y63.352 E34.38696
G1 X56.838 Y63.45 E34.43629
G1 X56.154 Y63.734 E34.48555
G1 X55.57 Y64.185 E34.53464
G1 X55.116 Y64.773 E34.58405
G1 X54.828 Y65.468 E34.6341
G0 F7200 X56.838 Y48.937
G1 F1800 X57.573 Y49.031 E34.68339
G1 X58.308 Y48.937 E34.73268
G1 X58.992 Y48.652 E34.78197
G1 X59.581 Y48.2 E34.83136
G1 X60.033 Y47.61 E34.8808
G1 X60.317 Y46.93 E34.92982
G1 X60.411 Y46.188 E34.97957
G1 X60.317 Y45.463 E35.0282
G1 X60.034 Y44.774 E35.07775
G1 X59.58 Y44.187 E35.12711
G1 X58.991 Y43.734 E35.17654
G1 X58.309 Y43.451 E35.22566
G1 X57.574 Y43.353 E35.27498
G1 X56.842 Y43.451 E35.32411
G1 X56.156 Y43.733 E35.37345
G1 X55.567 Y44.187 E35.42292
G1 X55.116 Y44.775 E35.47221
G1 X54.828 Y45.467 E35.52207
G1 X54.732 Y46.193 E35.57078
G1 X54.83 Y46.924 E35.61985
G1 X55.112 Y47.611 E35.66925
G1 X55.566 Y48.201 E35.71877
G1 X56.154 Y48.652 E35.76806
G1 X56.838 Y48.937 E35.81735
G0 F7200 X57.573 Y29.031
G1 F1800 X58.308 Y28.937 E35.86664
G1 X58.992 Y28.652 E35.91593
G1 X59.581 Y28.2 E35.96532
G1 X60.033 Y27.61 E36.01476
G1 X60.317 Y26.93 E36.06378
G1 X60.411 Y26.188 E36.11354
G1 X60.317 Y25.463 E36.16217
G1 X60.034 Y24.774 E36.21171
G1 X59.58 Y24.187 E36.26108
G1 X58.991 Y23.734 E36.31051
G1 X58.309 Y23.451 E36.35962
G1 X57.574 Y23.353 E36.40895
G1 X56.842 Y23.451 E36.45808
G1 X56.156 Y23.733 E36.50741
G1 X55.567 Y24.187 E36.55688
G1 X55.114 Y24.775 E36.60626
G1 X54.829 Y25.467 E36.65604
G1 X54.732 Y26.192 E36.7047
G1 X54.83 Y26.924 E36.75383
G1 X55.112 Y27.611 E36.80323
G1 X55.566 Y28.201 E36.85275
G1 X56.154 Y28.652 E36.90204
G1 X56.838 Y28.937 E36.95133
G1 X57.573 Y29.031 E37.00062
G0 F7200 X74.83 Y26.924
G1 F1800 X75.112 Y27.612 E37.05008
G1 X75.566 Y28.201 E37.09955
G1 X76.155 Y28.651 E37.14886
G1 X76.839 Y28.937 E37.19818
G1 X77.57 Y29.031 E37.2472
G1 X78.315 Y28.932 E37.2972
G1 X78.99 Y28.652 E37.34581
G1 X79.579 Y28.199 E37.39524
G1 X80.032 Y27.611 E37.44461
G1 X80.316 Y26.93 E37.49369
G1 X80.41 Y26.188 E37.54345
G1 X80.316 Y25.463 E37.59208
G1 X80.033 Y24.774 E37.64163
G1 X79.579 Y24.187 E37.69099
G1 X78.99 Y23.734 E37.74042
G1 X78.305 Y23.45 E37.78974
G1 X77.577 Y23.355 E37.83858
G1 X76.838 Y23.449 E37.88814
G1 X76.155 Y23.733 E37.93734
G1 X75.569 Y24.186 E37.98661
G1 X75.116 Y24.774 E38.03599
G1 X74.829 Y25.466 E38.08582
G1 X74.732 Y26.192 E38.13454
G1 X74.83 Y26.924 E38.18367
G0 F7200 X76.838 Y43.449
G1 F1800 X76.155 Y43.733 E38.23288
G1 X75.569 Y44.186 E38.28215
G1 X75.116 Y44.773 E38.33147
G1 X74.828 Y45.468 E38.38151
G1 X74.732 Y46.193 E38.43016
G1 X74.83 Y46.924 E38.47922
G1 X75.112 Y47.612 E38.52868
G1 X75.566 Y48.201 E38.57815
G1 X76.155 Y48.651 E38.62746
G1 X76.839 Y48.937 E38.67678
G1 X77.57 Y49.031 E38.7258
G1 X78.315 Y48.932 E38.7758
G1 X78.99 Y48.652 E38.82441
G1 X79.579 Y48.199 E38.87383
G1 X80.032 Y47.611 E38.92321
G1 X80.316 Y46.93 E38.97229
G1 X80.41 Y46.188 E39.02204
G1 X80.316 Y45.463 E39.07068
G1 X80.033 Y44.774 E39.12022
G1 X79.579 Y44.187 E39.16959
G1 X78.99 Y43.734 E39.21901
G1 X78.305 Y43.45 E39.26834
G1 X77.577 Y43.355 E39.31718
G1 X76.838 Y43.449 E39.36673
G0 F7200 X77.572 Y63.353
G1 F1800 X76.839 Y63.451 E39.41593
G1 X76.155 Y63.733 E39.46514
G1 X75.569 Y64.186 E39.51441
G1 X75.116 Y64.773 E39.56374
G1 X74.828 Y65.468 E39.61378
G1 X74.732 Y66.193 E39.66243
G1 X74.83 Y66.924 E39.71149
G1 X75.112 Y67.611 E39.76089
G1 X75.565 Y68.201 E39.81037
G1 X76.157 Y68.653 E39.85992
G1 X76.838 Y68.937 E39.909
G1 X77.572 Y69.031 E39.95822
G1 X78.307 Y68.937 E40.00751
G1 X78.991 Y68.652 E40.0568
G1 X79.58 Y68.2 E40.10619
G1 X80.032 Y67.61 E40.15563
G1 X80.316 Y66.93 E40.20465
G1 X80.41 Y66.188 E40.2544
G1 X80.316 Y65.463 E40.30304
G1 X80.033 Y64.774 E40.35258
G1 X79.579 Y64.187 E40.40195
G1 X78.99 Y63.734 E40.45138
G1 X78.308 Y63.451 E40.50049
G1 X77.572 Y63.353 E40.54988
G0 F7200 X94.827 Y65.467
G1 F1800 X94.731 Y66.193 E40.5986
G1 X94.829 Y66.924 E40.64766
G1 X95.111 Y67.611 E40.69706
G1 X95.565 Y68.201 E40.74658
G1 X96.153 Y68.652 E40.79587
G1 X96.837 Y68.937 E40.84517
G1 X97.572 Y69.031 E40.89446
G1 X98.307 Y68.937 E40.94375
G1 X98.991 Y68.652 E40.99304
G1 X99.58 Y68.2 E41.04243
G1 X100.032 Y67.61 E41.09187
G1 X100.316 Y66.93 E41.14089
G1 X100.41 Y66.188 E41.19064
G1 X100.316 Y65.463 E41.23927
G1 X100.033 Y64.774 E41.28882
G1 X99.579 Y64.187 E41.33818
G1 X98.99 Y63.734 E41.38761
G1 X98.308 Y63.451 E41.43673
G1 X97.573 Y63.353 E41.48605
G1 X96.841 Y63.451 E41.53518
G1 X96.155 Y63.733 E41.58452
G1 X95.566 Y64.187 E41.63399
G1 X95.115 Y64.775 E41.68328
G1 X94.827 Y65.467 E41.73314
G0 F7200 X114.731 Y66.193
G1 F1800 X114.829 Y66.924 E41.7822
G1 X115.111 Y67.611 E41.8316
G1 X115.565 Y68.201 E41.88112
G1 X116.153 Y68.652 E41.93042
G1 X116.837 Y68.937 E41.97971
G1 X117.572 Y69.031 E42.029
G1 X118.307 Y68.937 E42.07829
G1 X118.991 Y68.652 E42.12758
G1 X119.58 Y68.2 E42.17697
G1 X120.032 Y67.61 E42.22641
G1 X120.316 Y66.93 E42.27543
G1 X120.41 Y66.188 E42.32518
G1 X120.316 Y65.463 E42.37381
G1 X120.033 Y64.774 E42.42336
G1 X119.579 Y64.187 E42.47273
G1 X118.99 Y63.734 E42.52215
G1 X118.308 Y63.451 E42.57127
G1 X117.573 Y63.353 E42.6206
G1 X116.841 Y63.451 E42.66972
G1 X116.155 Y63.733 E42.71906
G1 X115.566 Y64.187 E42.76853
G1 X115.115 Y64.775 E42.81783
G1 X114.827 Y65.467 E42.86768
G1 X114.731 Y66.193 E42.9164
G0 F7200 X116.837 Y48.937
G1 F1800 X117.572 Y49.031 E42.96569
G1 X118.307 Y48.937 E43.01498
G1 X118.991 Y48.652 E43.06427
G1 X119.58 Y48.2 E43.11366
G1 X120.032 Y47.61 E43.1631
G1 X120.316 Y46.93 E43.21212
G1 X120.41 Y46.188 E43.26187
G1 X120.316 Y45.463 E43.3105
G1 X120.033 Y44.774 E43.36005
G1 X119.579 Y44.187 E43.40942
G1 X118.99 Y43.734 E43.45884
G1 X118.308 Y43.451 E43.50796
G1 X117.573 Y43.353 E43.55729
G1 X116.841 Y43.451 E43.60641
G1 X116.155 Y43.733 E43.65575
G1 X115.566 Y44.187 E43.70522
G1 X115.115 Y44.775 E43.75451
G1 X114.827 Y45.467 E43.80437
G1 X114.731 Y46.193 E43.85309
G1 X114.829 Y46.924 E43.90215
G1 X115.111 Y47.611 E43.95155
G1 X115.565 Y48.201 E44.00107
G1 X116.153 Y48.652 E44.05037
G1 X116.837 Y48.937 E44.09966
G0 F7200 X100.316 Y46.93
G1 F1800 X100.41 Y46.188 E44.14941
G1 X100.316 Y45.463 E44.19804
G1 X100.033 Y44.774 E44.24759
G1 X99.579 Y44.187 E44.29695
G1 X98.99 Y43.734 E44.34638
G1 X98.308 Y43.451 E44.3955
G1 X97.573 Y43.353 E44.44482
G1 X96.841 Y43.451 E44.49395
G1 X96.155 Y43.733 E44.54329
G1 X95.566 Y44.187 E44.59276
G1 X95.115 Y44.775 E44.64205
G1 X94.827 Y45.467 E44.69191
G1 X94.731 Y46.193 E44.74062
G1 X94.829 Y46.924 E44.78969
G1 X95.111 Y47.611 E44.83909
G1 X95.565 Y48.201 E44.88861
G1 X96.153 Y48.652 E44.9379
G1 X96.837 Y48.937 E44.98719
G1 X97.572 Y49.031 E45.03648
G1 X98.307 Y48.937 E45.08577
G1 X98.991 Y48.652 E45.13507
G1 X99.58 Y48.2 E45.18445
G1 X100.032 Y47.61 E45.23389
G1 X100.316 Y46.93 E45.28291
G0 F7200 X98.307 Y28.937
G1 F1800 X98.991 Y28.652 E45.33221
G1 X99.58 Y28.2 E45.38159
G1 X100.032 Y27.61 E45.43103
G1 X100.316 Y26.93 E45.48005
G1 X100.41 Y26.188 E45.52981
G1 X100.316 Y25.463 E45.57844
G1 X100.033 Y24.774 E45.62799
G1 X99.579 Y24.187 E45.67735
G1 X98.99 Y23.734 E45.72678
G1 X98.308 Y23.451 E45.77589
G1 X97.573 Y23.353 E45.82522
G1 X96.841 Y23.451 E45.87435
G1 X96.155 Y23.733 E45.92369
G1 X95.566 Y24.187 E45.97315
G1 X95.113 Y24.775 E46.02253
G1 X94.828 Y25.467 E46.07231
G1 X94.731 Y26.192 E46.12097
G1 X94.829 Y26.924 E46.1701
G1 X95.111 Y27.611 E46.2195
G1 X95.565 Y28.201 E46.26902
G1 X96.153 Y28.652 E46.31831
G1 X96.837 Y28.937 E46.3676
G1 X97.572 Y29.031 E46.41689
G1 X98.307 Y28.937 E46.46619
G0 F7200 X114.829 Y26.924
G1 F1800 X115.111 Y27.611 E46.51558
G1 X115.565 Y28.201 E46.56511
G1 X116.153 Y28.652 E46.6144
G1 X116.837 Y28.937 E46.66369
G1 X117.572 Y29.031 E46.71298
G1 X118.307 Y28.937 E46.76227
G1 X118.991 Y28.652 E46.81156
G1 X119.58 Y28.2 E46.86095
G1 X120.032 Y27.61 E46.91039
G1 X120.316 Y26.93 E46.95941
G1 X120.41 Y26.188 E47.00917
G1 X120.316 Y25.463 E47.0578
G1 X120.033 Y24.774 E47.10734
G1 X119.579 Y24.187 E47.15671
G1 X118.99 Y23.734 E47.20614
G1 X118.308 Y23.451 E47.25525
G1 X117.573 Y23.353 E47.30458
G1 X116.841 Y23.451 E47.35371
G1 X116.155 Y23.733 E47.40304
G1 X115.566 Y24.187 E47.45251
G1 X115.113 Y24.775 E47.50189
G1 X114.828 Y25.467 E47.55167
G1 X114.731 Y26.192 E47.60033
G1 X114.829 Y26.924 E47.64946
G0 F7200 X117.777 Y84.917
G1 F1800 X117.05 Y85.012 E47.69823
G1 X116.365 Y85.293 E47.74748
G1 X115.773 Y85.75 E47.79723
G1 X115.32 Y86.336 E47.8465
G1 X115.038 Y87.024 E47.89596
G1 X114.94 Y87.754 E47.94495
G1 X115.036 Y88.481 E47.99373
G1 X115.324 Y89.173 E48.04359
G1 X115.775 Y89.761 E48.09289
G1 X116.365 Y90.215 E48.14241
G1 X117.051 Y90.497 E48.19175
G1 X117.778 Y90.594 E48.24054
G1 X118.525 Y90.493 E48.29068
G1 X119.199 Y90.213 E48.33923
G1 X119.787 Y89.764 E48.38844
G1 X120.243 Y89.17 E48.43826
G1 X120.524 Y88.486 E48.48745
G1 X120.619 Y87.759 E48.53622
G1 X120.525 Y87.021 E48.58571
G1 X120.24 Y86.336 E48.63506
G1 X119.788 Y85.748 E48.68439
G1 X119.2 Y85.296 E48.73373
G1 X118.515 Y85.011 E48.78308
G1 X117.777 Y84.917 E48.83257
