;FLAVOR:Repetier
;TIME:9325
;Generated with Cura_SteamEngine 2.4.0
G21        ;metric values
G90        ;absolute positioning
M82        ;set extruder to absolute mode
G28 X0 Y0  ;move X/Y to min endstops
G28 Z0     ;move Z to min endstops
G0 Z10 F250
M109 S205 ;Uncomment to add your own temperature line
G92 E0
G1 F200 E5              ;extrude 3mm of feed stock
G0 Z0 F250
G92 E0                  ;zero the extruded length
;LAYER_COUNT:18
;LAYER:-5
M107
M207 X20
G1 F6000 E-7
G0 F7200 X28.905 Y36.598 Z0.2
G1 F6000 E0
G1 F1800 X29.369 Y36.289 E0.03708
G1 X31.027 Y35.4 E0.16223
G1 X31.541 Y35.188 E0.19921
G1 X33.345 Y34.641 E0.32461
G1 X33.885 Y34.534 E0.36123
G1 X35.764 Y34.348 E0.48683
G1 X36.066 Y34.334 E0.50694
G1 X116.011 Y34.334 E5.82491
G1 X116.313 Y34.348 E5.84502
G1 X118.193 Y34.534 E5.97069
G1 X118.731 Y34.641 E6.00717
G1 X120.54 Y35.187 E6.13287
G1 X121.053 Y35.4 E6.16982
G1 X122.704 Y36.287 E6.29449
G1 X123.171 Y36.598 E6.33182
G1 X124.626 Y37.792 E6.45702
G1 X125.016 Y38.182 E6.49371
G1 X126.219 Y39.647 E6.61981
G1 X126.526 Y40.109 E6.65671
G1 X127.412 Y41.759 E6.78129
G1 X127.625 Y42.272 E6.81824
G1 X128.171 Y44.081 E6.94393
G1 X128.278 Y44.619 E6.98042
G1 X128.464 Y46.499 E7.10609
G1 X128.478 Y46.79 E7.12547
G1 X128.478 Y66.747 E8.45302
G1 X128.464 Y67.049 E8.47313
G1 X128.278 Y68.929 E8.59879
G1 X128.171 Y69.467 E8.63528
G1 X127.626 Y71.272 E8.76071
G1 X127.415 Y71.778 E8.79718
G1 X126.523 Y73.446 E8.923
G1 X126.222 Y73.896 E8.95901
G1 X125.014 Y75.368 E9.08568
G1 X124.628 Y75.754 E9.122
G1 X122.271 Y77.69 E9.32489
G1 X124.537 Y79.551 E9.51995
G1 X124.927 Y79.941 E9.55664
G1 X126.122 Y81.396 E9.68188
G1 X126.426 Y81.852 E9.71834
G1 X127.323 Y83.528 E9.84479
G1 X127.529 Y84.023 E9.88045
G1 X128.078 Y85.835 E10.0064
G1 X128.185 Y86.375 E10.04302
G1 X128.371 Y88.254 E10.16862
G1 X128.385 Y88.547 E10.18813
G1 X128.385 Y108.502 E11.51555
G1 X128.371 Y108.804 E11.53566
G1 X128.185 Y110.683 E11.66126
G1 X128.078 Y111.223 E11.69788
G1 X127.529 Y113.035 E11.82383
G1 X127.323 Y113.53 E11.85949
G1 X126.426 Y115.206 E11.98594
G1 X126.122 Y115.662 E12.0224
G1 X124.927 Y117.117 E12.14764
G1 X124.537 Y117.507 E12.18433
G1 X123.071 Y118.71 E12.31048
G1 X122.621 Y119.011 E12.3465
G1 X120.948 Y119.906 E12.47271
G1 X120.442 Y120.117 E12.50918
G1 X118.637 Y120.662 E12.6346
G1 X118.099 Y120.769 E12.67109
G1 X116.22 Y120.955 E12.79669
G1 X115.918 Y120.969 E12.8168
G1 X35.973 Y120.969 E18.13476
G1 X35.671 Y120.955 E18.15488
G1 X33.791 Y120.769 E18.28054
G1 X33.253 Y120.662 E18.31703
G1 X31.448 Y120.117 E18.44246
G1 X30.942 Y119.906 E18.47892
G1 X29.269 Y119.011 E18.60514
G1 X28.819 Y118.71 E18.64115
G1 X27.353 Y117.507 E18.7673
G1 X26.963 Y117.117 E18.80399
G1 X25.768 Y115.662 E18.92923
G1 X25.464 Y115.206 E18.96569
G1 X24.569 Y113.533 E19.0919
G1 X24.358 Y113.027 E19.12837
G1 X23.813 Y111.222 E19.25379
G1 X23.706 Y110.684 E19.29028
G1 X23.52 Y108.804 E19.41595
G1 X23.506 Y108.502 E19.43606
G1 X23.506 Y88.547 E20.76347
G1 X23.52 Y88.254 E20.78299
G1 X23.706 Y86.374 E20.90866
G1 X23.813 Y85.836 E20.94514
G1 X24.358 Y84.031 E21.07057
G1 X24.569 Y83.525 E21.10704
G1 X25.464 Y81.852 E21.23325
G1 X25.768 Y81.396 E21.2697
G1 X26.963 Y79.941 E21.39495
G1 X27.353 Y79.551 E21.43164
G1 X29.713 Y77.611 E21.63486
G1 X27.452 Y75.757 E21.82936
G1 X27.057 Y75.362 E21.86652
G1 X25.863 Y73.907 E21.99173
G1 X25.552 Y73.44 E22.02905
G1 X24.665 Y71.789 E22.15372
G1 X24.452 Y71.276 E22.19067
G1 X23.906 Y69.467 E22.31637
G1 X23.799 Y68.929 E22.35286
G1 X23.613 Y67.049 E22.47852
G1 X23.599 Y66.747 E22.49864
G1 X23.599 Y46.79 E23.82618
G1 X23.613 Y46.499 E23.84556
G1 X23.799 Y44.62 E23.97116
G1 X23.906 Y44.08 E24.00778
G1 X24.453 Y42.276 E24.13318
G1 X24.665 Y41.762 E24.17017
G1 X25.554 Y40.104 E24.29531
G1 X25.863 Y39.64 E24.33239
G1 X27.057 Y38.186 E24.45755
G1 X27.451 Y37.792 E24.49461
G1 X28.905 Y36.598 E24.61976
G0 F7200 X34.62 Y44.315
G1 F1800 X34.033 Y44.767 E24.66905
G1 X33.581 Y45.353 E24.71828
G1 X33.295 Y46.048 E24.76827
G1 X33.198 Y46.773 E24.81693
G1 X33.296 Y47.505 E24.86605
G1 X33.578 Y48.193 E24.91551
G1 X34.031 Y48.779 E24.96478
G1 X34.623 Y49.236 E25.01453
G1 X35.308 Y49.517 E25.06378
G1 X36.035 Y49.612 E25.11256
G1 X36.773 Y49.518 E25.16204
G1 X37.458 Y49.233 E25.2114
G1 X38.046 Y48.781 E25.26073
G1 X38.498 Y48.193 E25.31007
G1 X38.783 Y47.508 E25.35942
G1 X38.877 Y46.77 E25.40891
G1 X38.782 Y46.043 E25.45768
G1 X38.501 Y45.358 E25.50693
G1 X38.044 Y44.766 E25.55668
G1 X37.459 Y44.315 E25.60582
G1 X36.776 Y44.032 E25.65499
G1 X36.031 Y43.937 E25.70495
G1 X35.311 Y44.031 E25.75325
G1 X34.62 Y44.315 E25.80295
G0 F7200 X36.031 Y63.937
G1 F1800 X35.311 Y64.031 E25.85125
G1 X34.62 Y64.315 E25.90095
G1 X34.033 Y64.767 E25.95023
G1 X33.583 Y65.352 E25.99933
G1 X33.294 Y66.049 E26.04952
G1 X33.198 Y66.774 E26.09817
G1 X33.296 Y67.505 E26.14723
G1 X33.578 Y68.193 E26.19669
G1 X34.031 Y68.779 E26.24596
G1 X34.623 Y69.236 E26.29571
G1 X35.308 Y69.517 E26.34496
G1 X36.035 Y69.612 E26.39373
G1 X36.773 Y69.518 E26.44322
G1 X37.458 Y69.233 E26.49257
G1 X38.046 Y68.781 E26.54191
G1 X38.498 Y68.193 E26.59124
G1 X38.783 Y67.508 E26.64059
G1 X38.877 Y66.77 E26.69008
G1 X38.782 Y66.043 E26.73885
G1 X38.501 Y65.358 E26.78811
G1 X38.044 Y64.766 E26.83785
G1 X37.459 Y64.315 E26.88699
G1 X36.776 Y64.032 E26.93617
G1 X36.031 Y63.937 E26.98613
G0 F7200 X53.294 Y66.049
G1 F1800 X53.198 Y66.774 E27.03478
G1 X53.296 Y67.505 E27.08384
G1 X53.578 Y68.193 E27.1333
G1 X54.031 Y68.779 E27.18257
G1 X54.623 Y69.236 E27.23232
G1 X55.308 Y69.517 E27.28157
G1 X56.035 Y69.612 E27.33034
G1 X56.773 Y69.518 E27.37983
G1 X57.458 Y69.233 E27.42918
G1 X58.046 Y68.781 E27.47852
G1 X58.498 Y68.193 E27.52785
G1 X58.783 Y67.508 E27.57721
G1 X58.877 Y66.77 E27.62669
G1 X58.782 Y66.043 E27.67547
G1 X58.501 Y65.358 E27.72472
G1 X58.044 Y64.766 E27.77447
G1 X57.459 Y64.315 E27.8236
G1 X56.776 Y64.032 E27.87278
G1 X56.031 Y63.937 E27.92274
G1 X55.311 Y64.031 E27.97104
G1 X54.62 Y64.315 E28.02074
G1 X54.033 Y64.767 E28.07002
G1 X53.583 Y65.352 E28.11911
G1 X53.294 Y66.049 E28.16931
G0 F7200 X73.198 Y66.774
G1 F1800 X73.296 Y67.505 E28.21837
G1 X73.578 Y68.193 E28.26783
G1 X74.032 Y68.781 E28.31725
G1 X74.625 Y69.236 E28.36697
G1 X75.3 Y69.516 E28.41558
G1 X76.033 Y69.614 E28.46477
G1 X76.782 Y69.513 E28.51504
G1 X77.457 Y69.232 E28.56368
G1 X78.046 Y68.781 E28.61303
G1 X78.497 Y68.193 E28.66232
G1 X78.782 Y67.508 E28.71168
G1 X78.876 Y66.77 E28.76116
G1 X78.781 Y66.043 E28.80994
G1 X78.5 Y65.358 E28.85919
G1 X78.043 Y64.766 E28.90894
G1 X77.457 Y64.313 E28.95821
G1 X76.769 Y64.031 E29.00767
G1 X76.043 Y63.934 E29.05639
G1 X75.308 Y64.031 E29.10571
G1 X74.621 Y64.317 E29.15521
G1 X74.033 Y64.768 E29.2045
G1 X73.582 Y65.356 E29.2538
G1 X73.294 Y66.048 E29.30366
G1 X73.198 Y66.774 E29.35237
G0 F7200 X75.3 Y49.516
G1 F1800 X76.033 Y49.614 E29.40156
G1 X76.782 Y49.513 E29.45184
G1 X77.457 Y49.232 E29.50047
G1 X78.046 Y48.781 E29.54982
G1 X78.497 Y48.193 E29.59912
G1 X78.782 Y47.508 E29.64847
G1 X78.876 Y46.77 E29.69796
G1 X78.781 Y46.043 E29.74673
G1 X78.5 Y45.358 E29.79598
G1 X78.043 Y44.766 E29.84573
G1 X77.457 Y44.313 E29.895
G1 X76.769 Y44.031 E29.94446
G1 X76.043 Y43.934 E29.99318
G1 X75.308 Y44.031 E30.0425
G1 X74.621 Y44.317 E30.092
G1 X74.033 Y44.768 E30.14129
G1 X73.58 Y45.356 E30.19067
G1 X73.295 Y46.048 E30.24045
G1 X73.198 Y46.773 E30.28911
G1 X73.296 Y47.505 E30.33824
G1 X73.578 Y48.193 E30.3877
G1 X74.032 Y48.781 E30.43712
G1 X74.625 Y49.236 E30.48684
G1 X75.3 Y49.516 E30.53545
G0 F7200 X58.783 Y47.508
G1 F1800 X58.877 Y46.77 E30.58493
G1 X58.782 Y46.043 E30.63371
G1 X58.501 Y45.358 E30.68296
G1 X58.044 Y44.766 E30.73271
G1 X57.459 Y44.315 E30.78184
G1 X56.776 Y44.032 E30.83102
G1 X56.031 Y43.937 E30.88098
G1 X55.311 Y44.031 E30.92928
G1 X54.62 Y44.315 E30.97898
G1 X54.033 Y44.767 E31.02826
G1 X53.581 Y45.353 E31.07749
G1 X53.295 Y46.048 E31.12748
G1 X53.198 Y46.773 E31.17614
G1 X53.296 Y47.505 E31.22527
G1 X53.578 Y48.193 E31.27473
G1 X54.031 Y48.779 E31.324
G1 X54.623 Y49.236 E31.37375
G1 X55.308 Y49.517 E31.423
G1 X56.035 Y49.612 E31.47177
G1 X56.773 Y49.518 E31.52126
G1 X57.458 Y49.233 E31.57061
G1 X58.046 Y48.781 E31.61995
G1 X58.498 Y48.193 E31.66928
G1 X58.783 Y47.508 E31.71863
G0 F7200 X93.197 Y46.773
G1 F1800 X93.295 Y47.505 E31.76776
G1 X93.577 Y48.193 E31.81722
G1 X94.03 Y48.779 E31.86649
G1 X94.622 Y49.236 E31.91624
G1 X95.307 Y49.517 E31.96549
G1 X96.034 Y49.612 E32.01426
G1 X96.772 Y49.518 E32.06375
G1 X97.457 Y49.233 E32.11311
G1 X98.045 Y48.781 E32.16244
G1 X98.497 Y48.193 E32.21178
G1 X98.782 Y47.508 E32.26113
G1 X98.876 Y46.77 E32.31062
G1 X98.781 Y46.043 E32.35939
G1 X98.5 Y45.358 E32.40864
G1 X98.043 Y44.766 E32.45839
G1 X97.458 Y44.315 E32.50752
G1 X96.775 Y44.032 E32.5567
G1 X96.03 Y43.937 E32.60666
G1 X95.31 Y44.031 E32.65496
G1 X94.619 Y44.315 E32.70466
G1 X94.032 Y44.767 E32.75394
G1 X93.58 Y45.353 E32.80317
G1 X93.294 Y46.048 E32.85316
G1 X93.197 Y46.773 E32.90182
G0 F7200 X113.197 Y46.773
G1 F1800 X113.295 Y47.505 E32.95095
G1 X113.577 Y48.193 E33.00041
G1 X114.03 Y48.779 E33.04968
G1 X114.622 Y49.236 E33.09943
G1 X115.307 Y49.517 E33.14868
G1 X116.034 Y49.612 E33.19745
G1 X116.772 Y49.518 E33.24694
G1 X117.457 Y49.233 E33.29629
G1 X118.045 Y48.781 E33.34563
G1 X118.497 Y48.193 E33.39496
G1 X118.782 Y47.508 E33.44432
G1 X118.876 Y46.77 E33.4938
G1 X118.781 Y46.043 E33.54258
G1 X118.5 Y45.358 E33.59183
G1 X118.043 Y44.766 E33.64158
G1 X117.458 Y44.315 E33.69071
G1 X116.775 Y44.032 E33.73989
G1 X116.03 Y43.937 E33.78985
G1 X115.31 Y44.031 E33.83815
G1 X114.619 Y44.315 E33.88785
G1 X114.032 Y44.767 E33.93713
G1 X113.58 Y45.353 E33.98636
G1 X113.294 Y46.048 E34.03635
G1 X113.197 Y46.773 E34.08501
G0 F7200 X115.31 Y64.031
G1 F1800 X114.619 Y64.315 E34.1347
G1 X114.032 Y64.767 E34.18399
G1 X113.582 Y65.352 E34.23308
G1 X113.293 Y66.049 E34.28327
G1 X113.197 Y66.774 E34.33192
G1 X113.295 Y67.505 E34.38098
G1 X113.577 Y68.193 E34.43045
G1 X114.03 Y68.779 E34.47972
G1 X114.622 Y69.236 E34.52946
G1 X115.307 Y69.517 E34.57872
G1 X116.034 Y69.612 E34.62749
G1 X116.772 Y69.518 E34.67698
G1 X117.457 Y69.233 E34.72633
G1 X118.045 Y68.781 E34.77566
G1 X118.497 Y68.193 E34.825
G1 X118.782 Y67.508 E34.87435
G1 X118.876 Y66.77 E34.92384
G1 X118.781 Y66.043 E34.97261
G1 X118.5 Y65.358 E35.02186
G1 X118.043 Y64.766 E35.07161
G1 X117.458 Y64.315 E35.12075
G1 X116.775 Y64.032 E35.16993
G1 X116.03 Y63.937 E35.21989
G1 X115.31 Y64.031 E35.26819
G0 F7200 X98.781 Y66.043
G1 F1800 X98.5 Y65.358 E35.31744
G1 X98.043 Y64.766 E35.36719
G1 X97.458 Y64.315 E35.41632
G1 X96.775 Y64.032 E35.4655
G1 X96.03 Y63.937 E35.51546
G1 X95.31 Y64.031 E35.56376
G1 X94.619 Y64.315 E35.61346
G1 X94.032 Y64.767 E35.66274
G1 X93.582 Y65.352 E35.71184
G1 X93.293 Y66.049 E35.76203
G1 X93.197 Y66.774 E35.81068
G1 X93.295 Y67.505 E35.85974
G1 X93.577 Y68.193 E35.9092
G1 X94.03 Y68.779 E35.95847
G1 X94.622 Y69.236 E36.00822
G1 X95.307 Y69.517 E36.05747
G1 X96.034 Y69.612 E36.10624
G1 X96.772 Y69.518 E36.15573
G1 X97.457 Y69.233 E36.20508
G1 X98.045 Y68.781 E36.25442
G1 X98.497 Y68.193 E36.30375
G1 X98.782 Y67.508 E36.3531
G1 X98.876 Y66.77 E36.40259
G1 X98.781 Y66.043 E36.45136
G0 F7200 X95.945 Y85.692
G1 F1800 X95.204 Y85.788 E36.50107
G1 X94.53 Y86.068 E36.54962
G1 X93.937 Y86.524 E36.59938
G1 X93.486 Y87.11 E36.64857
G1 X93.201 Y87.795 E36.69792
G1 X93.107 Y88.533 E36.74741
G1 X93.202 Y89.26 E36.79618
G1 X93.483 Y89.945 E36.84543
G1 X93.94 Y90.537 E36.89518
G1 X94.526 Y90.99 E36.94445
G1 X95.214 Y91.272 E36.99391
G1 X95.945 Y91.37 E37.04297
G1 X96.671 Y91.274 E37.09169
G1 X97.363 Y90.986 E37.14155
G1 X97.951 Y90.535 E37.19084
G1 X98.402 Y89.947 E37.24014
G1 X98.69 Y89.255 E37.28999
G1 X98.786 Y88.528 E37.33877
G1 X98.688 Y87.798 E37.38777
G1 X98.406 Y87.11 E37.43723
G1 X97.952 Y86.522 E37.48665
G1 X97.36 Y86.068 E37.53627
G1 X96.686 Y85.788 E37.58482
G1 X95.945 Y85.692 E37.63453
G0 F7200 X113.201 Y87.795
G1 F1800 X113.107 Y88.533 E37.68402
G1 X113.202 Y89.26 E37.73279
G1 X113.483 Y89.945 E37.78204
G1 X113.94 Y90.537 E37.83179
G1 X114.526 Y90.99 E37.88106
G1 X115.214 Y91.272 E37.93052
G1 X115.945 Y91.37 E37.97958
G1 X116.671 Y91.274 E38.02829
G1 X117.363 Y90.986 E38.07815
G1 X117.951 Y90.535 E38.12745
G1 X118.402 Y89.947 E38.17674
G1 X118.69 Y89.255 E38.2266
G1 X118.786 Y88.528 E38.27538
G1 X118.688 Y87.798 E38.32438
G1 X118.406 Y87.11 E38.37384
G1 X117.952 Y86.522 E38.42325
G1 X117.36 Y86.068 E38.47288
G1 X116.686 Y85.788 E38.52143
G1 X115.945 Y85.692 E38.57113
G1 X115.204 Y85.788 E38.62084
G1 X114.53 Y86.068 E38.66939
G1 X113.937 Y86.524 E38.71915
G1 X113.486 Y87.11 E38.76834
G1 X113.201 Y87.795 E38.81769
G0 F7200 X115.204 Y105.788
G1 F1800 X114.53 Y106.068 E38.86624
G1 X113.937 Y106.524 E38.916
G1 X113.486 Y107.11 E38.96519
G1 X113.201 Y107.795 E39.01454
G1 X113.107 Y108.533 E39.06403
G1 X113.202 Y109.26 E39.1128
G1 X113.483 Y109.945 E39.16205
G1 X113.94 Y110.537 E39.2118
G1 X114.526 Y110.99 E39.26107
G1 X115.214 Y111.272 E39.31053
G1 X115.945 Y111.37 E39.3596
G1 X116.671 Y111.274 E39.40831
G1 X117.363 Y110.986 E39.45817
G1 X117.951 Y110.535 E39.50746
G1 X118.402 Y109.947 E39.55676
G1 X118.69 Y109.255 E39.60662
G1 X118.786 Y108.528 E39.6554
G1 X118.688 Y107.798 E39.70439
G1 X118.406 Y107.11 E39.75385
G1 X117.952 Y106.522 E39.80327
G1 X117.36 Y106.068 E39.8529
G1 X116.686 Y105.788 E39.90145
G1 X115.945 Y105.692 E39.95115
G1 X115.204 Y105.788 E40.00085
G0 F7200 X98.688 Y107.798
G1 F1800 X98.406 Y107.11 E40.05031
G1 X97.952 Y106.522 E40.09973
G1 X97.36 Y106.068 E40.14936
G1 X96.686 Y105.788 E40.19791
G1 X95.945 Y105.692 E40.24761
G1 X95.204 Y105.788 E40.29731
G1 X94.53 Y106.068 E40.34586
G1 X93.937 Y106.524 E40.39562
G1 X93.486 Y107.11 E40.44481
G1 X93.201 Y107.795 E40.49417
G1 X93.107 Y108.533 E40.54365
G1 X93.202 Y109.26 E40.59243
G1 X93.483 Y109.945 E40.64168
G1 X93.94 Y110.537 E40.69143
G1 X94.526 Y110.99 E40.7407
G1 X95.214 Y111.272 E40.79016
G1 X95.945 Y111.37 E40.83922
G1 X96.671 Y111.274 E40.88793
G1 X97.363 Y110.986 E40.93779
G1 X97.951 Y110.535 E40.98709
G1 X98.402 Y109.947 E41.03638
G1 X98.69 Y109.255 E41.08624
G1 X98.786 Y108.528 E41.13502
G1 X98.688 Y107.798 E41.18402
G0 F7200 X78.786 Y108.528
G1 F1800 X78.688 Y107.798 E41.23301
G1 X78.406 Y107.11 E41.28247
G1 X77.953 Y106.524 E41.33174
G1 X77.361 Y106.067 E41.38149
G1 X76.676 Y105.786 E41.43074
G1 X75.949 Y105.691 E41.47951
G1 X75.212 Y105.785 E41.52894
G1 X74.527 Y106.07 E41.57829
G1 X73.939 Y106.522 E41.62762
G1 X73.487 Y107.11 E41.67696
G1 X73.202 Y107.795 E41.72631
G1 X73.108 Y108.533 E41.7758
G1 X73.203 Y109.26 E41.82457
G1 X73.484 Y109.945 E41.87382
G1 X73.941 Y110.537 E41.92357
G1 X74.526 Y110.988 E41.97271
G1 X75.209 Y111.271 E42.02189
G1 X75.946 Y111.365 E42.07131
G1 X76.688 Y111.268 E42.12109
G1 X77.361 Y110.989 E42.16955
G1 X77.949 Y110.536 E42.21893
G1 X78.402 Y109.949 E42.26825
G1 X78.69 Y109.254 E42.31829
G1 X78.786 Y108.528 E42.36701
G0 F7200 X76.688 Y91.268
G1 F1800 X77.361 Y90.989 E42.41547
G1 X77.949 Y90.536 E42.46485
G1 X78.402 Y89.949 E42.51417
G1 X78.69 Y89.254 E42.56421
G1 X78.786 Y88.528 E42.61293
G1 X78.688 Y87.798 E42.66192
G1 X78.406 Y87.11 E42.71138
G1 X77.953 Y86.524 E42.76065
G1 X77.361 Y86.067 E42.8104
G1 X76.676 Y85.786 E42.85965
G1 X75.949 Y85.691 E42.90842
G1 X75.212 Y85.785 E42.95785
G1 X74.527 Y86.07 E43.0072
G1 X73.939 Y86.522 E43.05653
G1 X73.487 Y87.11 E43.10587
G1 X73.202 Y87.795 E43.15522
G1 X73.108 Y88.533 E43.20471
G1 X73.203 Y89.26 E43.25348
G1 X73.484 Y89.945 E43.30273
G1 X73.941 Y90.537 E43.35248
G1 X74.526 Y90.988 E43.40162
