;FLAVOR:Repetier
;TIME:3327
;Generated with Cura_SteamEngine 2.4.0
G21        ;metric values
G90        ;absolute positioning
M82        ;set extruder to absolute mode
G28 X0 Y0  ;move X/Y to min endstops
G28 Z0     ;move Z to min endstops
G0 Z10 F250
M109 S205 ;Uncomment to add your own temperature line
G92 E0
G1 F200 E5              ;extrude 3mm of feed stock
G0 Z0 F250
G92 E0                  ;zero the extruded length
;LAYER_COUNT:18
;LAYER:-5
M107
M207 X20
G1 F6000 E-7
G0 F7200 X29.11 Y37.643 Z0.2
G1 F6000 E0
G1 F1800 X29.636 Y37.252 E0.0436
G1 X30.97 Y36.482 E0.14606
G1 X31.569 Y36.224 E0.18944
G1 X33.041 Y35.783 E0.29166
G1 X33.69 Y35.668 E0.3355
G1 X35.222 Y35.577 E0.43759
G1 X35.867 Y35.615 E0.48057
G1 X37.395 Y35.886 E0.5838
G1 X38.022 Y36.074 E0.62734
G1 X39.43 Y36.68 E0.72931
G1 X39.988 Y37.003 E0.7722
G1 X41.229 Y37.928 E0.87516
G1 X41.698 Y38.37 E0.91803
G1 X42.69 Y39.552 E1.02068
G1 X43.049 Y40.098 E1.06415
G1 X44.173 Y42.339 E1.23092
G1 X46.011 Y42.232 E1.35339
G1 X46.436 Y41.066 E1.43594
G1 X46.727 Y40.488 E1.47899
G1 X47.58 Y39.191 E1.58225
G1 X47.994 Y38.698 E1.62508
G1 X49.11 Y37.643 E1.72723
G1 X49.636 Y37.252 E1.77083
G1 X50.97 Y36.482 E1.87329
G1 X51.569 Y36.224 E1.91668
G1 X53.041 Y35.783 E2.01889
G1 X53.69 Y35.668 E2.06274
G1 X55.222 Y35.577 E2.16483
G1 X55.867 Y35.615 E2.20781
G1 X57.395 Y35.886 E2.31104
G1 X58.022 Y36.074 E2.35458
G1 X59.43 Y36.68 E2.45655
G1 X59.988 Y37.003 E2.49943
G1 X61.229 Y37.928 E2.6024
G1 X61.698 Y38.37 E2.64526
G1 X62.69 Y39.552 E2.74791
G1 X63.049 Y40.098 E2.79138
G1 X64.173 Y42.339 E2.95815
G1 X66.011 Y42.232 E3.08062
G1 X66.436 Y41.066 E3.16318
G1 X66.727 Y40.488 E3.20622
G1 X67.58 Y39.191 E3.30949
G1 X67.994 Y38.698 E3.35231
G1 X69.11 Y37.643 E3.45447
G1 X69.636 Y37.252 E3.49807
G1 X70.97 Y36.482 E3.60053
G1 X71.569 Y36.224 E3.64391
G1 X73.041 Y35.783 E3.74613
G1 X73.69 Y35.668 E3.78997
G1 X75.221 Y35.577 E3.892
G1 X75.866 Y35.615 E3.93498
G1 X77.394 Y35.886 E4.0382
G1 X78.021 Y36.074 E4.08175
G1 X79.426 Y36.679 E4.1835
G1 X79.992 Y37.006 E4.22699
G1 X81.224 Y37.926 E4.32927
G1 X81.697 Y38.373 E4.37256
G1 X82.688 Y39.553 E4.47506
G1 X83.046 Y40.095 E4.51827
G1 X84.171 Y42.338 E4.68519
G1 X86.01 Y42.233 E4.80772
G1 X86.435 Y41.066 E4.89034
G1 X86.726 Y40.488 E4.93339
G1 X87.579 Y39.191 E5.03665
G1 X87.993 Y38.698 E5.07947
G1 X89.109 Y37.643 E5.18163
G1 X89.635 Y37.252 E5.22523
G1 X90.969 Y36.482 E5.32769
G1 X91.568 Y36.224 E5.37107
G1 X93.04 Y35.783 E5.47329
G1 X93.689 Y35.668 E5.51714
G1 X95.221 Y35.577 E5.61922
G1 X95.866 Y35.615 E5.6622
G1 X97.394 Y35.886 E5.76543
G1 X98.021 Y36.074 E5.80898
G1 X99.426 Y36.679 E5.91073
G1 X99.992 Y37.006 E5.95422
G1 X101.224 Y37.926 E6.0565
G1 X101.697 Y38.373 E6.09979
G1 X102.688 Y39.553 E6.20229
G1 X103.046 Y40.095 E6.2455
G1 X104.171 Y42.338 E6.41242
G1 X106.01 Y42.233 E6.53495
G1 X106.435 Y41.066 E6.61757
G1 X106.726 Y40.488 E6.66062
G1 X107.579 Y39.191 E6.76388
G1 X107.993 Y38.698 E6.8067
G1 X109.109 Y37.643 E6.90886
G1 X109.635 Y37.252 E6.95246
G1 X110.969 Y36.482 E7.05492
G1 X111.568 Y36.224 E7.0983
G1 X113.04 Y35.783 E7.20052
G1 X113.689 Y35.668 E7.24436
G1 X115.221 Y35.577 E7.34645
G1 X115.866 Y35.615 E7.38943
G1 X117.394 Y35.886 E7.49266
G1 X118.021 Y36.074 E7.5362
G1 X119.426 Y36.679 E7.63796
G1 X119.992 Y37.006 E7.68144
G1 X121.224 Y37.926 E7.78373
G1 X121.697 Y38.373 E7.82702
G1 X122.688 Y39.553 E7.92952
G1 X123.046 Y40.095 E7.97273
G1 X123.736 Y41.471 E8.07513
G1 X123.96 Y42.085 E8.1186
G1 X124.316 Y43.58 E8.22083
G1 X124.391 Y44.097 E8.25558
G1 X124.433 Y44.822 E8.30389
G1 X124.433 Y45.177 E8.3275
G1 X124.391 Y45.904 E8.37594
G1 X124.317 Y46.415 E8.41029
G1 X123.96 Y47.916 E8.51292
G1 X123.736 Y48.53 E8.5564
G1 X123.046 Y49.906 E8.6588
G1 X122.688 Y50.448 E8.702
G1 X121.697 Y51.628 E8.80451
G1 X121.224 Y52.075 E8.8478
G1 X119.992 Y52.995 E8.95008
G1 X119.426 Y53.322 E8.99356
G1 X117.665 Y54.08 E9.1211
G1 X117.665 Y55.922 E9.24363
G1 X119.423 Y56.68 E9.37098
G1 X119.998 Y57.01 E9.41508
G1 X121.224 Y57.926 E9.51688
G1 X121.697 Y58.373 E9.56017
G1 X122.688 Y59.553 E9.66267
G1 X123.046 Y60.095 E9.70588
G1 X123.736 Y61.471 E9.80828
G1 X123.96 Y62.085 E9.85176
G1 X124.317 Y63.584 E9.95426
G1 X124.391 Y64.097 E9.98874
G1 X124.433 Y64.822 E10.03704
G1 X124.433 Y65.177 E10.06066
G1 X124.391 Y65.904 E10.1091
G1 X124.317 Y66.415 E10.14345
G1 X123.96 Y67.916 E10.24608
G1 X123.736 Y68.53 E10.28956
G1 X123.046 Y69.906 E10.39195
G1 X122.688 Y70.448 E10.43516
G1 X121.697 Y71.628 E10.53766
G1 X121.224 Y72.075 E10.58095
G1 X119.992 Y72.995 E10.68324
G1 X119.426 Y73.321 E10.72668
G1 X117.666 Y74.079 E10.85416
G1 X117.666 Y75.921 E10.97669
G1 X119.426 Y76.679 E11.10416
G1 X119.992 Y77.005 E11.14761
G1 X121.224 Y77.925 E11.24989
G1 X121.697 Y78.372 E11.29318
G1 X122.688 Y79.552 E11.39568
G1 X123.046 Y80.094 E11.43889
G1 X123.736 Y81.47 E11.54129
G1 X123.96 Y82.084 E11.58477
G1 X124.317 Y83.584 E11.68733
G1 X124.391 Y84.096 E11.72175
G1 X124.433 Y84.823 E11.77019
G1 X124.433 Y85.178 E11.7938
G1 X124.391 Y85.903 E11.84211
G1 X124.317 Y86.414 E11.87646
G1 X123.96 Y87.915 E11.97909
G1 X123.736 Y88.529 E12.02256
G1 X123.046 Y89.905 E12.12496
G1 X122.688 Y90.447 E12.16817
G1 X121.697 Y91.627 E12.27067
G1 X121.224 Y92.074 E12.31396
G1 X119.992 Y92.994 E12.41624
G1 X119.426 Y93.321 E12.45973
G1 X117.665 Y94.079 E12.58726
G1 X117.665 Y95.921 E12.70979
G1 X119.423 Y96.679 E12.83714
G1 X119.998 Y97.009 E12.88124
G1 X121.224 Y97.925 E12.98304
G1 X121.697 Y98.372 E13.02634
G1 X122.688 Y99.552 E13.12884
G1 X123.046 Y100.094 E13.17205
G1 X123.736 Y101.47 E13.27444
G1 X123.96 Y102.084 E13.31792
G1 X124.317 Y103.585 E13.42055
G1 X124.391 Y104.096 E13.4549
G1 X124.433 Y104.823 E13.50334
G1 X124.433 Y105.178 E13.52695
G1 X124.391 Y105.903 E13.57526
G1 X124.317 Y106.414 E13.60961
G1 X123.96 Y107.915 E13.71224
G1 X123.736 Y108.529 E13.75572
G1 X123.046 Y109.905 E13.85811
G1 X122.688 Y110.447 E13.90132
G1 X121.697 Y111.627 E14.00382
G1 X121.224 Y112.074 E14.04712
G1 X119.992 Y112.994 E14.1494
G1 X119.426 Y113.321 E14.19288
G1 X118.021 Y113.926 E14.29464
G1 X117.394 Y114.114 E14.33818
G1 X115.866 Y114.385 E14.44141
G1 X115.221 Y114.423 E14.48439
G1 X113.689 Y114.332 E14.58648
G1 X113.04 Y114.217 E14.63032
G1 X111.568 Y113.776 E14.73254
G1 X110.969 Y113.518 E14.77592
G1 X109.635 Y112.748 E14.87838
G1 X109.109 Y112.357 E14.92198
G1 X107.993 Y111.302 E15.02414
G1 X107.579 Y110.809 E15.06696
G1 X106.726 Y109.512 E15.17023
G1 X106.435 Y108.934 E15.21327
G1 X106.01 Y107.767 E15.29589
G1 X104.171 Y107.662 E15.41842
G1 X103.046 Y109.905 E15.58534
G1 X102.688 Y110.447 E15.62855
G1 X101.697 Y111.627 E15.73105
G1 X101.224 Y112.074 E15.77434
G1 X99.992 Y112.994 E15.87663
G1 X99.426 Y113.321 E15.92011
G1 X98.021 Y113.926 E16.02187
G1 X97.394 Y114.114 E16.06541
G1 X95.866 Y114.385 E16.16864
G1 X95.221 Y114.423 E16.21162
G1 X93.689 Y114.332 E16.31371
G1 X93.04 Y114.217 E16.35755
G1 X91.568 Y113.776 E16.45977
G1 X90.969 Y113.518 E16.50315
G1 X89.635 Y112.748 E16.60561
G1 X89.109 Y112.357 E16.64921
G1 X87.993 Y111.302 E16.75137
G1 X87.579 Y110.809 E16.79419
G1 X86.726 Y109.512 E16.89746
G1 X86.435 Y108.934 E16.9405
G1 X86.01 Y107.767 E17.02312
G1 X84.171 Y107.662 E17.14565
G1 X83.046 Y109.905 E17.31257
G1 X82.688 Y110.447 E17.35578
G1 X81.697 Y111.627 E17.45828
G1 X81.224 Y112.074 E17.50157
G1 X79.992 Y112.994 E17.60385
G1 X79.426 Y113.321 E17.64734
G1 X78.021 Y113.926 E17.74909
G1 X77.394 Y114.114 E17.79264
G1 X75.866 Y114.385 E17.89587
G1 X75.221 Y114.423 E17.93885
G1 X73.69 Y114.332 E18.04087
G1 X73.041 Y114.217 E18.08471
G1 X71.569 Y113.776 E18.18693
G1 X70.97 Y113.518 E18.23032
G1 X69.636 Y112.748 E18.33278
G1 X69.11 Y112.357 E18.37637
G1 X67.994 Y111.302 E18.47853
G1 X67.58 Y110.809 E18.52135
G1 X66.727 Y109.512 E18.62462
G1 X66.436 Y108.934 E18.66766
G1 X66.011 Y107.768 E18.75022
G1 X64.173 Y107.661 E18.87269
G1 X63.049 Y109.902 E19.03946
G1 X62.69 Y110.448 E19.08293
G1 X61.698 Y111.63 E19.18558
G1 X61.229 Y112.072 E19.22845
G1 X59.988 Y112.997 E19.33141
G1 X59.43 Y113.32 E19.3743
G1 X58.022 Y113.926 E19.47626
G1 X57.395 Y114.114 E19.51981
G1 X55.867 Y114.385 E19.62303
G1 X55.222 Y114.423 E19.66601
G1 X53.69 Y114.332 E19.7681
G1 X53.041 Y114.217 E19.81195
G1 X51.569 Y113.776 E19.91417
G1 X50.97 Y113.518 E19.95755
G1 X49.636 Y112.748 E20.06001
G1 X49.11 Y112.357 E20.10361
G1 X47.994 Y111.302 E20.20577
G1 X47.58 Y110.809 E20.24859
G1 X46.727 Y109.512 E20.35185
G1 X46.436 Y108.934 E20.3949
G1 X46.011 Y107.768 E20.47745
G1 X44.173 Y107.661 E20.59992
G1 X43.049 Y109.902 E20.7667
G1 X42.69 Y110.448 E20.81016
G1 X41.698 Y111.63 E20.91281
G1 X41.229 Y112.072 E20.95568
G1 X39.988 Y112.997 E21.05864
G1 X39.43 Y113.32 E21.10153
G1 X38.022 Y113.926 E21.2035
G1 X37.395 Y114.114 E21.24704
G1 X35.867 Y114.385 E21.35027
G1 X35.222 Y114.423 E21.39325
G1 X33.69 Y114.332 E21.49534
G1 X33.041 Y114.217 E21.53918
G1 X31.569 Y113.776 E21.6414
G1 X30.97 Y113.518 E21.68478
G1 X29.636 Y112.748 E21.78724
G1 X29.11 Y112.357 E21.83084
G1 X27.994 Y111.302 E21.933
G1 X27.58 Y110.809 E21.97582
G1 X26.727 Y109.512 E22.07909
G1 X26.439 Y108.939 E22.12175
G1 X25.909 Y107.484 E22.22476
G1 X25.759 Y106.853 E22.2679
G1 X25.582 Y105.33 E22.36989
G1 X25.582 Y104.67 E22.41379
G1 X25.759 Y103.146 E22.51585
G1 X25.909 Y102.515 E22.559
G1 X26.439 Y101.06 E22.66201
G1 X26.727 Y100.487 E22.70467
G1 X27.58 Y99.19 E22.80793
G1 X27.994 Y98.697 E22.85075
G1 X29.11 Y97.642 E22.95291
G1 X29.636 Y97.251 E22.99651
G1 X30.97 Y96.482 E23.09893
G1 X32.27 Y95.922 E23.19309
G1 X32.272 Y94.08 E23.31562
G1 X30.974 Y93.521 E23.40963
G1 X29.636 Y92.748 E23.51242
G1 X29.11 Y92.357 E23.55602
G1 X27.994 Y91.302 E23.65818
G1 X27.58 Y90.809 E23.701
G1 X26.727 Y89.512 E23.80427
G1 X26.439 Y88.939 E23.84693
G1 X25.909 Y87.484 E23.94993
G1 X25.759 Y86.853 E23.99308
G1 X25.582 Y85.33 E24.09507
G1 X25.582 Y84.67 E24.13897
G1 X25.759 Y83.146 E24.24103
G1 X25.909 Y82.515 E24.28418
G1 X26.439 Y81.06 E24.38718
G1 X26.727 Y80.487 E24.42984
G1 X27.58 Y79.19 E24.53311
G1 X27.994 Y78.697 E24.57593
G1 X29.11 Y77.642 E24.67809
G1 X29.636 Y77.251 E24.72169
G1 X30.974 Y76.478 E24.82448
G1 X32.27 Y75.921 E24.91831
G1 X32.27 Y74.079 E25.04084
G1 X30.974 Y73.522 E25.13468
G1 X29.636 Y72.749 E25.23747
G1 X29.11 Y72.358 E25.28106
G1 X27.994 Y71.303 E25.38322
G1 X27.58 Y70.81 E25.42605
G1 X26.727 Y69.513 E25.52931
G1 X26.439 Y68.94 E25.57197
G1 X25.909 Y67.485 E25.67498
G1 X25.759 Y66.854 E25.71812
G1 X25.582 Y65.33 E25.82018
G1 X25.582 Y64.67 E25.86408
G1 X25.759 Y63.147 E25.96608
G1 X25.909 Y62.516 E26.00922
G1 X26.439 Y61.061 E26.11223
G1 X26.727 Y60.488 E26.15489
G1 X27.58 Y59.191 E26.25815
G1 X27.994 Y58.698 E26.30097
G1 X29.11 Y57.643 E26.40313
G1 X29.636 Y57.252 E26.44673
G1 X30.97 Y56.483 E26.54916
G1 X32.27 Y55.923 E26.64331
G1 X32.272 Y54.081 E26.76585
G1 X30.974 Y53.522 E26.85986
G1 X29.636 Y52.749 E26.96265
G1 X29.11 Y52.358 E27.00624
G1 X27.994 Y51.303 E27.1084
G1 X27.58 Y50.81 E27.15122
G1 X26.727 Y49.513 E27.25449
G1 X26.439 Y48.94 E27.29715
G1 X25.909 Y47.485 E27.40016
G1 X25.759 Y46.854 E27.4433
G1 X25.582 Y45.33 E27.54536
G1 X25.582 Y44.67 E27.58926
G1 X25.759 Y43.147 E27.69125
G1 X25.909 Y42.516 E27.7344
G1 X26.439 Y41.061 E27.83741
G1 X26.727 Y40.488 E27.88007
G1 X27.58 Y39.191 E27.98333
G1 X27.994 Y38.698 E28.02615
G1 X29.11 Y37.643 E28.12831
G0 F7200 X32.994 Y42.994
G1 F1800 X32.538 Y43.582 E28.17781
G1 X32.259 Y44.264 E28.22682
G1 X32.161 Y44.996 E28.27595
G1 X32.263 Y45.746 E28.3263
G1 X32.543 Y46.421 E28.37491
G1 X32.992 Y47.006 E28.42397
G1 X33.58 Y47.461 E28.47342
G1 X34.269 Y47.743 E28.52295
G1 X35 Y47.841 E28.57201
G1 X35.737 Y47.743 E28.62147
G1 X36.418 Y47.461 E28.6705
G1 X37.007 Y47.007 E28.71996
G1 X37.461 Y46.421 E28.76928
G1 X37.743 Y45.732 E28.8188
G1 X37.841 Y45 E28.86793
G1 X37.744 Y44.269 E28.91698
G1 X37.459 Y43.579 E28.96664
G1 X37.007 Y42.994 E29.01582
G1 X36.421 Y42.54 E29.06513
G1 X35.732 Y42.258 E29.11465
G1 X35.001 Y42.16 E29.16371
G1 X34.269 Y42.257 E29.21283
G1 X33.579 Y42.542 E29.26249
G1 X32.994 Y42.994 E29.31167
G0 F7200 X37.666 Y54.08
G1 F1800 X37.666 Y55.923 E29.43426
G1 X39.434 Y56.684 E29.5623
G1 X39.988 Y57.003 E29.60483
G1 X41.229 Y57.928 E29.70779
G1 X41.698 Y58.37 E29.75066
G1 X42.69 Y59.552 E29.85331
G1 X43.049 Y60.098 E29.89677
G1 X44.173 Y62.339 E30.06354
G1 X46.011 Y62.232 E30.18602
G1 X46.436 Y61.066 E30.26857
G1 X46.727 Y60.488 E30.31162
G1 X47.58 Y59.191 E30.41488
G1 X47.994 Y58.698 E30.4577
G1 X49.11 Y57.643 E30.55986
G1 X49.636 Y57.252 E30.60346
G1 X50.97 Y56.483 E30.70589
G1 X52.27 Y55.923 E30.80004
G1 X52.272 Y54.081 E30.92257
G1 X50.974 Y53.522 E31.01658
G1 X49.636 Y52.749 E31.11937
G1 X49.11 Y52.358 E31.16297
G1 X47.994 Y51.303 E31.26513
G1 X47.58 Y50.81 E31.30795
G1 X46.727 Y49.513 E31.41122
G1 X46.436 Y48.935 E31.45426
G1 X46.011 Y47.769 E31.53682
G1 X44.173 Y47.662 E31.65929
G1 X43.049 Y49.903 E31.82606
G1 X42.69 Y50.449 E31.86953
G1 X41.698 Y51.631 E31.97218
G1 X41.229 Y52.073 E32.01505
G1 X39.988 Y52.998 E32.11801
G1 X39.43 Y53.321 E32.1609
G1 X37.666 Y54.08 E32.28864
G0 F7200 X52.543 Y46.421
G1 F1800 X52.992 Y47.006 E32.33769
G1 X53.58 Y47.461 E32.38715
G1 X54.269 Y47.743 E32.43667
G1 X55 Y47.841 E32.48573
G1 X55.737 Y47.743 E32.53519
G1 X56.418 Y47.461 E32.58422
G1 X57.007 Y47.007 E32.63369
G1 X57.461 Y46.418 E32.68316
G1 X57.743 Y45.736 E32.73225
G1 X57.841 Y44.998 E32.78177
G1 X57.743 Y44.269 E32.8307
G1 X57.461 Y43.58 E32.88023
G1 X57.007 Y42.994 E32.92954
G1 X56.421 Y42.54 E32.97885
G1 X55.732 Y42.258 E33.02837
G1 X55.001 Y42.16 E33.07743
G1 X54.269 Y42.257 E33.12655
G1 X53.579 Y42.542 E33.17621
G1 X52.994 Y42.994 E33.22539
G1 X52.538 Y43.582 E33.27489
G1 X52.259 Y44.264 E33.3239
G1 X52.161 Y44.996 E33.37303
G1 X52.263 Y45.746 E33.42338
G1 X52.543 Y46.421 E33.47199
G0 F7200 X57.666 Y54.08
G1 F1800 X57.666 Y55.923 E33.59459
G1 X59.434 Y56.684 E33.72263
G1 X59.988 Y57.003 E33.76515
G1 X61.229 Y57.928 E33.86811
G1 X61.698 Y58.37 E33.91098
G1 X62.69 Y59.552 E34.01363
G1 X63.049 Y60.098 E34.0571
G1 X64.173 Y62.339 E34.22387
G1 X66.011 Y62.232 E34.34634
G1 X66.436 Y61.066 E34.42889
G1 X66.727 Y60.488 E34.47194
G1 X67.58 Y59.191 E34.5752
G1 X67.994 Y58.698 E34.61803
G1 X69.11 Y57.643 E34.72019
G1 X69.636 Y57.252 E34.76378
G1 X70.97 Y56.483 E34.86621
G1 X72.27 Y55.923 E34.96037
G1 X72.272 Y54.081 E35.0829
G1 X70.974 Y53.522 E35.17691
G1 X69.636 Y52.749 E35.2797
G1 X69.11 Y52.358 E35.3233
G1 X67.994 Y51.303 E35.42545
G1 X67.58 Y50.81 E35.46828
G1 X66.727 Y49.513 E35.57154
G1 X66.436 Y48.935 E35.61459
G1 X66.011 Y47.769 E35.69714
G1 X64.173 Y47.662 E35.81961
G1 X63.049 Y49.903 E35.98639
G1 X62.69 Y50.449 E36.02985
G1 X61.698 Y51.631 E36.1325
G1 X61.229 Y52.073 E36.17537
G1 X59.988 Y52.998 E36.27833
G1 X59.43 Y53.321 E36.32122
G1 X57.666 Y54.08 E36.44896
G0 F7200 X55.737 Y62.258
G1 F1800 X55 Y62.16 E36.49842
G1 X54.269 Y62.258 E36.54748
G1 X53.58 Y62.54 E36.597
G1 X52.998 Y62.991 E36.64598
G1 X52.539 Y63.585 E36.69592
G1 X52.258 Y64.266 E36.74492
G1 X52.163 Y64.998 E36.79402
G1 X52.262 Y65.746 E36.84421
G1 X52.541 Y66.418 E36.89262
G1 X52.994 Y67.007 E36.94204
G1 X53.58 Y67.459 E36.99127
G1 X54.269 Y67.744 E37.04087
G1 X55.001 Y67.841 E37.08999
G1 X55.732 Y67.743 E37.13905
G1 X56.421 Y67.461 E37.18857
G1 X57.003 Y67.01 E37.23755
G1 X57.46 Y66.418 E37.2873
G1 X57.744 Y65.734 E37.33657
G1 X57.838 Y64.996 E37.38606
G1 X57.743 Y64.266 E37.43503
G1 X57.46 Y63.583 E37.4842
G1 X57.003 Y62.991 E37.53395
G1 X56.418 Y62.54 E37.58309
G1 X55.737 Y62.258 E37.63212
G0 F7200 X46.011 Y67.769
G1 F1800 X44.173 Y67.662 E37.75459
