;FLAVOR:Repetier
;TIME:4361
;Generated with Cura_SteamEngine 2.4.0
G21        ;metric values
G90        ;absolute positioning
M82        ;set extruder to absolute mode
G28 X0 Y0  ;move X/Y to min endstops
G28 Z0     ;move Z to min endstops
G0 Z10 F250
M109 S205 ;Uncomment to add your own temperature line
G92 E0
G1 F200 E5              ;extrude 3mm of feed stock
G0 Z0 F250
G92 E0                  ;zero the extruded length
;LAYER_COUNT:18
;LAYER:-5
M107
M207 X20
G1 F6000 E-7
G0 F7200 X39.081 Y27.01 Z0.2
G1 F6000 E0
G1 F1800 X39.505 Y26.529 E0.04265
G1 X40.638 Y25.507 E0.14415
G1 X41.172 Y25.127 E0.18775
G1 X42.489 Y24.403 E0.28772
G1 X43.084 Y24.157 E0.33055
G1 X44.536 Y23.747 E0.43091
G1 X45.164 Y23.646 E0.47323
G1 X46.695 Y23.576 E0.57518
G1 X47.336 Y23.62 E0.61792
G1 X48.815 Y23.894 E0.71797
G1 X49.421 Y24.08 E0.76014
G1 X50.821 Y24.69 E0.86172
G1 X51.384 Y25.019 E0.9051
G1 X52.587 Y25.917 E1.00496
G1 X53.059 Y26.363 E1.04816
G1 X54.062 Y27.55 E1.15153
G1 X54.721 Y28.294 E1.21765
G1 X55.324 Y28.675 E1.26509
G1 X56.008 Y28.871 E1.31243
G1 X56.718 Y28.871 E1.35965
G1 X57.399 Y28.673 E1.40683
G1 X58.006 Y28.29 E1.45457
G1 X58.691 Y27.519 E1.52318
G1 X59.666 Y26.364 E1.62373
G1 X60.142 Y25.913 E1.66734
G1 X61.339 Y25.019 E1.76673
G1 X61.906 Y24.689 E1.81037
G1 X63.297 Y24.082 E1.91132
G1 X63.91 Y23.894 E1.95397
G1 X65.389 Y23.62 E2.05403
G1 X66.03 Y23.576 E2.09677
G1 X67.557 Y23.645 E2.19845
G1 X68.189 Y23.748 E2.24105
G1 X69.65 Y24.162 E2.34206
G1 X70.226 Y24.398 E2.38347
G1 X71.559 Y25.131 E2.48466
G1 X72.088 Y25.507 E2.52783
G1 X73.22 Y26.527 E2.62919
G1 X74.194 Y27.636 E2.72738
G1 X75.896 Y26.103 E2.87975
G1 X76.427 Y25.725 E2.92311
G1 X77.754 Y24.994 E3.02389
G1 X78.347 Y24.751 E3.06652
G1 X79.797 Y24.341 E3.16675
G1 X80.427 Y24.239 E3.20921
G1 X81.954 Y24.169 E3.31089
G1 X82.598 Y24.213 E3.35383
G1 X84.082 Y24.489 E3.45424
G1 X84.677 Y24.672 E3.49565
G1 X86.089 Y25.287 E3.59809
G1 X86.637 Y25.606 E3.64027
G1 X87.85 Y26.512 E3.74099
G1 X88.317 Y26.952 E3.78367
G1 X89.314 Y28.133 E3.88648
G1 X89.985 Y28.89 E3.95377
G1 X90.58 Y29.265 E4.00055
G1 X91.273 Y29.465 E4.04853
G1 X91.974 Y29.465 E4.09516
G1 X92.667 Y29.266 E4.14313
G1 X93.265 Y28.888 E4.19019
G1 X94.803 Y27.156 E4.34427
G1 X94.779 Y27.132 E4.34653
G1 X94.925 Y26.958 E4.36163
G1 X95.398 Y26.514 E4.40479
G1 X96.611 Y25.607 E4.50554
G1 X97.168 Y25.284 E4.54837
G1 X98.564 Y24.674 E4.64971
G1 X99.165 Y24.489 E4.69154
G1 X100.65 Y24.213 E4.79202
G1 X101.294 Y24.169 E4.83496
G1 X102.821 Y24.239 E4.93664
G1 X103.451 Y24.341 E4.97909
G1 X104.901 Y24.751 E5.07933
G1 X105.494 Y24.994 E5.12196
G1 X106.821 Y25.725 E5.22274
G1 X107.352 Y26.103 E5.2661
G1 X108.476 Y27.115 E5.3667
G1 X108.909 Y27.607 E5.4103
G1 X109.764 Y28.836 E5.50989
G1 X110.067 Y29.4 E5.55248
G1 X110.633 Y30.823 E5.65435
G1 X110.798 Y31.429 E5.69613
G1 X111.026 Y32.936 E5.79752
G1 X111.049 Y33.573 E5.83992
G1 X110.929 Y35.087 E5.94095
G1 X110.806 Y35.716 E5.98358
G1 X110.346 Y37.159 E6.08433
G1 X110.084 Y37.742 E6.12685
G1 X109.23 Y39.175 E6.23781
G1 X109.964 Y40.136 E6.31825
G1 X110.209 Y40.516 E6.34833
G1 X110.347 Y40.821 E6.3706
G1 X110.792 Y42.004 E6.45468
G1 X110.912 Y42.42 E6.48348
G1 X110.96 Y42.782 E6.50777
G1 X111.041 Y44.025 E6.59063
G1 X111.034 Y44.469 E6.62017
G1 X110.976 Y44.815 E6.6435
G1 X110.698 Y46.033 E6.72661
G1 X110.567 Y46.445 E6.75537
G1 X110.403 Y46.783 E6.78036
G1 X109.796 Y47.846 E6.86178
G1 X109.54 Y48.22 E6.89193
G1 X109.305 Y48.473 E6.9149
G1 X108.4 Y49.332 E6.9979
G1 X108.052 Y49.612 E7.02762
G1 X107.742 Y49.795 E7.05156
G1 X106.644 Y50.349 E7.13337
G1 X106.22 Y50.521 E7.16381
G1 X105.891 Y50.601 E7.18633
G1 X104.65 Y50.821 E7.27017
G1 X104.211 Y50.862 E7.2995
G1 X103.86 Y50.843 E7.32288
G1 X102.62 Y50.694 E7.40596
G1 X102.179 Y50.605 E7.43589
G1 X101.853 Y50.486 E7.45897
G1 X100.713 Y49.989 E7.5417
G1 X99.417 Y49.296 E7.63946
G1 X97.949 Y50.858 E7.78205
G1 X99.659 Y53.634 E7.99894
G1 X99.804 Y53.903 E8.01926
G1 X100.472 Y55.343 E8.12486
G1 X100.677 Y55.973 E8.16893
G1 X101.331 Y59.23 E8.38991
G1 X104.116 Y57.636 E8.60337
G1 X104.529 Y57.444 E8.63366
G1 X104.856 Y57.345 E8.65639
G1 X106.079 Y57.066 E8.73983
G1 X106.522 Y57.002 E8.76961
G1 X106.859 Y57.002 E8.79203
G1 X108.112 Y57.084 E8.87555
G1 X108.556 Y57.15 E8.90541
G1 X108.895 Y57.252 E8.92896
G1 X110.06 Y57.691 E9.01178
G1 X110.465 Y57.883 E9.04159
G1 X110.741 Y58.066 E9.06362
G1 X111.716 Y58.812 E9.14529
G1 X113.146 Y57.961 E9.25598
G1 X113.736 Y57.695 E9.29903
G1 X115.175 Y57.238 E9.39946
G1 X115.806 Y57.114 E9.44224
G1 X117.319 Y56.994 E9.5432
G1 X117.956 Y57.017 E9.5856
G1 X119.463 Y57.245 E9.68699
G1 X120.069 Y57.41 E9.72877
G1 X121.492 Y57.976 E9.83064
G1 X122.056 Y58.279 E9.87323
G1 X123.285 Y59.134 E9.97282
G1 X123.777 Y59.567 E10.01642
G1 X124.788 Y60.69 E10.11693
G1 X125.171 Y61.229 E10.16092
G1 X125.895 Y62.546 E10.26089
G1 X126.141 Y63.141 E10.30372
G1 X126.551 Y64.591 E10.40396
G1 X126.653 Y65.22 E10.44634
G1 X126.723 Y66.749 E10.54816
G1 X126.679 Y67.393 E10.5911
G1 X126.403 Y68.877 E10.69151
G1 X126.22 Y69.472 E10.73292
G1 X125.602 Y70.889 E10.83575
G1 X125.289 Y71.428 E10.87721
G1 X124.377 Y72.647 E10.97848
G1 X123.935 Y73.115 E11.0213
G1 X122.759 Y74.107 E11.12365
G1 X122.003 Y74.778 E11.19089
G1 X121.623 Y75.379 E11.23819
G1 X121.427 Y76.064 E11.28558
G1 X121.427 Y76.772 E11.33268
G1 X121.623 Y77.456 E11.38001
G1 X122.005 Y78.062 E11.42766
G1 X122.761 Y78.732 E11.49486
G1 X123.938 Y79.725 E11.59729
G1 X124.381 Y80.193 E11.64016
G1 X125.279 Y81.396 E11.74002
G1 X125.608 Y81.959 E11.7834
G1 X126.215 Y83.352 E11.88448
G1 X126.404 Y83.966 E11.92721
G1 X126.679 Y85.444 E12.02721
G1 X126.723 Y86.088 E12.07015
G1 X126.653 Y87.617 E12.17197
G1 X126.551 Y88.246 E12.21436
G1 X126.141 Y89.696 E12.31459
G1 X125.895 Y90.291 E12.35742
G1 X125.171 Y91.608 E12.45739
G1 X124.788 Y92.147 E12.50138
G1 X123.777 Y93.27 E12.60189
G1 X123.286 Y93.702 E12.6454
G1 X122.056 Y94.558 E12.74508
G1 X121.492 Y94.861 E12.78767
G1 X120.071 Y95.427 E12.88942
G1 X119.471 Y95.589 E12.93076
G1 X117.95 Y95.819 E13.03309
G1 X117.323 Y95.842 E13.07482
G1 X115.802 Y95.722 E13.17631
G1 X115.172 Y95.599 E13.21901
G1 X113.735 Y95.141 E13.31934
G1 X113.138 Y94.873 E13.36287
G1 X111.717 Y94.023 E13.47302
G1 X110.76 Y94.757 E13.55325
G1 X110.372 Y95.005 E13.58388
G1 X110.069 Y95.142 E13.606
G1 X108.909 Y95.578 E13.68843
G1 X108.455 Y95.708 E13.71984
G1 X108.129 Y95.752 E13.74173
G1 X106.864 Y95.834 E13.82605
G1 X106.421 Y95.827 E13.85552
G1 X106.077 Y95.77 E13.87872
G1 X103.827 Y95.257 E14.03223
G1 X103.678 Y97.117 E14.15635
G1 X103.368 Y98.647 E14.2602
G1 X103.168 Y99.259 E14.30303
G1 X102.502 Y100.7 E14.40863
G1 X102.351 Y100.98 E14.42979
G1 X100.654 Y103.735 E14.64503
G1 X102.096 Y105.294 E14.78629
G1 X103.405 Y104.624 E14.88411
G1 X104.546 Y104.126 E14.96693
G1 X104.969 Y103.981 E14.99667
G1 X105.296 Y103.92 E15.0188
G1 X106.553 Y103.769 E15.10302
G1 X106.991 Y103.753 E15.13217
G1 X107.35 Y103.792 E15.15619
G1 X108.578 Y104.009 E15.23914
G1 X109.005 Y104.121 E15.26851
G1 X109.322 Y104.257 E15.29146
G1 X110.45 Y104.826 E15.3755
G1 X110.821 Y105.052 E15.40439
G1 X111.09 Y105.277 E15.42772
G1 X111.992 Y106.132 E15.5104
G1 X112.29 Y106.465 E15.54012
G1 X112.488 Y106.765 E15.56403
G1 X113.106 Y107.849 E15.64704
G1 X113.294 Y108.25 E15.6765
G1 X113.386 Y108.556 E15.69775
G1 X113.67 Y109.798 E15.7825
G1 X113.734 Y110.242 E15.81234
G1 X113.734 Y110.58 E15.83483
G1 X113.653 Y111.829 E15.91808
G1 X113.586 Y112.272 E15.94789
G1 X113.482 Y112.615 E15.97173
G1 X113.041 Y113.784 E16.05484
G1 X112.851 Y114.188 E16.08454
G1 X112.668 Y114.462 E16.10646
G1 X111.924 Y115.438 E16.18809
G1 X112.777 Y116.868 E16.29886
G1 X113.039 Y117.452 E16.34143
G1 X113.499 Y118.896 E16.44224
G1 X113.622 Y119.525 E16.48488
G1 X113.742 Y121.039 E16.58591
G1 X113.719 Y121.676 E16.62831
G1 X113.491 Y123.183 E16.72969
G1 X113.326 Y123.789 E16.77147
G1 X112.76 Y125.212 E16.87334
G1 X112.457 Y125.776 E16.91593
G1 X111.602 Y127.005 E17.01552
G1 X111.169 Y127.497 E17.05912
G1 X110.045 Y128.509 E17.15973
G1 X109.514 Y128.887 E17.20309
G1 X108.187 Y129.618 E17.30387
G1 X107.594 Y129.861 E17.3465
G1 X106.144 Y130.271 E17.44673
G1 X105.514 Y130.373 E17.48919
G1 X103.987 Y130.443 E17.59087
G1 X103.343 Y130.399 E17.63381
G1 X101.859 Y130.123 E17.73422
G1 X101.264 Y129.94 E17.77563
G1 X99.847 Y129.322 E17.87846
G1 X99.304 Y129.007 E17.92022
G1 X98.092 Y128.102 E18.02084
G1 X97.622 Y127.657 E18.06389
G1 X96.614 Y126.464 E18.16779
G1 X95.957 Y125.722 E18.23371
G1 X95.36 Y125.346 E18.28065
G1 X94.667 Y125.147 E18.32861
G1 X93.966 Y125.147 E18.37524
G1 X93.273 Y125.347 E18.42322
G1 X92.675 Y125.724 E18.47024
G1 X91.998 Y126.488 E18.53815
G1 X91.014 Y127.654 E18.63964
G1 X90.542 Y128.101 E18.68288
G1 X89.339 Y128.999 E18.78274
G1 X88.776 Y129.328 E18.82612
G1 X87.38 Y129.936 E18.9274
G1 X86.769 Y130.124 E18.96993
G1 X85.291 Y130.399 E19.06993
G1 X84.647 Y130.443 E19.11287
G1 X83.12 Y130.373 E19.21456
G1 X82.49 Y130.271 E19.25701
G1 X81.04 Y129.861 E19.35724
G1 X80.447 Y129.618 E19.39987
G1 X79.12 Y128.887 E19.50065
G1 X78.589 Y128.509 E19.54401
G1 X76.818 Y126.913 E19.7026
G1 X74.786 Y128.743 E19.8845
G1 X74.257 Y129.119 E19.92768
G1 X72.924 Y129.852 E20.02887
G1 X72.348 Y130.088 E20.07028
G1 X70.889 Y130.501 E20.17114
G1 X70.256 Y130.605 E20.21382
G1 X68.731 Y130.675 E20.31537
G1 X68.087 Y130.631 E20.3583
G1 X66.609 Y130.356 E20.45831
G1 X65.991 Y130.166 E20.50132
G1 X64.604 Y129.561 E20.60198
G1 X64.043 Y129.235 E20.64514
G1 X62.826 Y128.326 E20.74618
G1 X62.369 Y127.892 E20.78811
G1 X61.365 Y126.704 E20.89157
G1 X60.701 Y125.955 E20.95816
G1 X60.1 Y125.575 E21.00546
G1 X59.415 Y125.379 E21.05285
G1 X58.706 Y125.379 E21.10001
G1 X58.021 Y125.575 E21.14741
G1 X57.421 Y125.956 E21.19469
G1 X55.874 Y127.693 E21.34942
G1 X55.899 Y127.718 E21.35177
G1 X55.752 Y127.892 E21.36692
G1 X55.294 Y128.326 E21.40889
G1 X54.076 Y129.235 E21.50999
G1 X53.519 Y129.56 E21.55289
G1 X52.123 Y130.168 E21.65418
G1 X51.512 Y130.356 E21.6967
G1 X50.034 Y130.631 E21.7967
G1 X49.39 Y130.675 E21.83964
G1 X47.862 Y130.605 E21.94139
G1 X47.233 Y130.503 E21.98378
G1 X45.782 Y130.093 E22.08408
G1 X45.187 Y129.847 E22.12691
G1 X43.87 Y129.123 E22.22688
G1 X43.331 Y128.74 E22.27087
G1 X42.208 Y127.729 E22.37138
G1 X41.775 Y127.237 E22.41498
G1 X40.92 Y126.008 E22.51457
G1 X40.617 Y125.444 E22.55716
G1 X40.051 Y124.023 E22.65891
G1 X39.889 Y123.423 E22.70025
G1 X39.659 Y121.902 E22.80258
G1 X39.636 Y121.275 E22.84431
G1 X39.756 Y119.756 E22.94567
G1 X39.879 Y119.128 E22.98824
G1 X40.345 Y117.669 E23.09012
G1 X40.6 Y117.101 E23.13154
G1 X41.454 Y115.67 E23.24239
G1 X40.718 Y114.706 E23.32307
G1 X40.474 Y114.326 E23.35311
G1 X40.336 Y114.021 E23.37538
G1 X39.9 Y112.861 E23.45781
G1 X39.77 Y112.407 E23.48923
G1 X39.726 Y112.081 E23.51111
G1 X39.644 Y110.816 E23.59543
G1 X39.651 Y110.374 E23.62484
G1 X39.71 Y110.02 E23.64871
G1 X39.987 Y108.81 E23.73129
G1 X40.119 Y108.395 E23.76025
G1 X40.277 Y108.069 E23.78435
G1 X40.89 Y106.994 E23.86667
G1 X41.14 Y106.628 E23.89615
G1 X41.377 Y106.372 E23.91936
G1 X42.282 Y105.511 E24.00245
G1 X42.641 Y105.225 E24.03299
G1 X42.929 Y105.054 E24.05527
G1 X44.046 Y104.493 E24.13841
G1 X44.461 Y104.324 E24.16822
G1 X44.801 Y104.241 E24.1915
G1 X46.036 Y104.023 E24.27493
G1 X46.474 Y103.982 E24.30419
G1 X46.823 Y104.001 E24.32744
G1 X48.066 Y104.15 E24.41072
G1 X48.507 Y104.24 E24.44066
G1 X48.817 Y104.353 E24.4626
G1 X49.979 Y104.858 E24.54688
G1 X51.26 Y105.55 E24.64374
G1 X52.735 Y103.989 E24.7866
G1 X51.02 Y101.199 E25.00445
G1 X50.879 Y100.937 E25.02424
G1 X50.213 Y99.502 E25.12948
G1 X50.009 Y98.876 E25.17327
G1 X49.344 Y95.563 E25.39805
G1 X47.207 Y96.778 E25.56157
G1 X46.802 Y96.967 E25.5913
G1 X46.468 Y97.066 E25.61448
G1 X45.252 Y97.344 E25.69745
G1 X44.808 Y97.408 E25.72729
G1 X44.471 Y97.408 E25.74971
G1 X43.218 Y97.326 E25.83324
G1 X42.774 Y97.26 E25.8631
G1 X42.435 Y97.158 E25.88665
G1 X41.264 Y96.717 E25.96988
G1 X40.869 Y96.53 E25.99895
G1 X40.569 Y96.33 E26.02294
G1 X39.615 Y95.598 E26.10293
G1 X38.178 Y96.452 E26.21412
G1 X37.609 Y96.708 E26.25563
G1 X36.153 Y97.173 E26.3573
G1 X35.525 Y97.296 E26.39987
G1 X34.008 Y97.416 E26.5011
G1 X33.381 Y97.393 E26.54283
G1 X31.86 Y97.163 E26.64516
G1 X31.262 Y97.001 E26.68637
G1 X29.835 Y96.433 E26.78854
G1 X29.277 Y96.132 E26.83071
G1 X28.039 Y95.271 E26.93102
G1 X27.562 Y94.851 E26.9733
G1 X26.537 Y93.713 E27.07518
G1 X26.159 Y93.182 E27.11854
G1 X25.435 Y91.865 E27.21851
G1 X25.189 Y91.27 E27.26134
G1 X24.779 Y89.819 E27.36164
G1 X24.678 Y89.191 E27.40395
G1 X24.608 Y87.656 E27.50617
G1 X24.652 Y87.015 E27.54891
G1 X24.926 Y85.54 E27.6487
G1 X25.116 Y84.921 E27.69178
G1 X25.723 Y83.536 E27.79237
G1 X26.043 Y82.983 E27.83487
G1 X26.952 Y81.764 E27.93602
G1 X27.395 Y81.294 E27.97898
G1 X28.574 Y80.298 E28.08165
G1 X29.329 Y79.629 E28.14875
G1 X29.703 Y79.037 E28.19533
G1 X29.904 Y78.343 E28.24339
G1 X29.904 Y77.634 E28.29056
G1 X29.707 Y76.957 E28.33746
G1 X29.324 Y76.35 E28.3852
G1 X28.57 Y75.68 E28.4523
G1 X27.393 Y74.687 E28.55474
G1 X26.948 Y74.215 E28.59789
G1 X26.051 Y73.014 E28.6976
G1 X25.72 Y72.445 E28.74139
G1 X25.117 Y71.067 E28.84145
G1 X24.926 Y70.444 E28.88479
G1 X24.652 Y68.967 E28.98472
G1 X24.608 Y68.326 E29.02746
G1 X24.677 Y66.798 E29.12921
G1 X24.78 Y66.166 E29.1718
G1 X25.194 Y64.705 E29.27281
G1 X25.43 Y64.129 E29.31422
G1 X26.163 Y62.796 E29.41541
G1 X26.539 Y62.267 E29.45859
G1 X27.557 Y61.139 E29.55966
G1 X28.046 Y60.708 E29.60302
G1 X29.272 Y59.856 E29.70233
G1 X29.841 Y59.548 E29.74537
G1 X31.26 Y58.983 E29.84697
G1 X31.861 Y58.821 E29.88838
G1 X33.384 Y58.591 E29.99084
G1 X34.012 Y58.568 E30.03264
G1 X35.524 Y58.688 E30.13353
G1 X36.155 Y58.812 E30.17631
G1 X37.594 Y59.269 E30.27675
G1 X38.184 Y59.535 E30.3198
G1 X39.614 Y60.386 E30.43049
G1 X40.567 Y59.656 E30.51035
G1 X40.957 Y59.406 E30.54116
G1 X41.26 Y59.269 E30.56328
G1 X42.421 Y58.832 E30.6458
G1 X42.875 Y58.702 E30.67722
G1 X43.201 Y58.658 E30.6991
G1 X44.466 Y58.576 E30.78342
G1 X44.91 Y58.584 E30.81296
G1 X45.26 Y58.641 E30.83655
G1 X46.833 Y59.012 E30.94406
G1 X47.004 Y56.9 E31.08501
G1 X47.308 Y55.381 E31.18806
G1 X47.514 Y54.753 E31.23202
G1 X48.187 Y53.301 E31.33848
G1 X48.322 Y53.051 E31.35738
G1 X50.025 Y50.282 E31.57362
G1 X48.579 Y48.722 E31.71512
G1 X47.275 Y49.394 E31.8127
G1 X46.137 Y49.892 E31.89533
G1 X45.71 Y50.038 E31.92535
G1 X45.382 Y50.1 E31.94755
G1 X44.127 Y50.249 E32.03162
G1 X43.684 Y50.265 E32.06111
G1 X43.337 Y50.228 E32.08433
G1 X42.101 Y50.01 E32.16781
G1 X41.678 Y49.899 E32.1969
G1 X41.357 Y49.762 E32.22012
G1 X40.225 Y49.191 E32.30446
G1 X39.859 Y48.968 E32.33297
G1 X39.584 Y48.739 E32.35677
G1 X38.679 Y47.88 E32.43977
G1 X38.388 Y47.553 E32.46889
G1 X38.202 Y47.271 E32.49136
G1 X37.57 Y46.162 E32.57627
G1 X37.388 Y45.772 E32.6049
G1 X37.288 Y45.438 E32.62809
G1 X37.009 Y44.217 E32.71141
G1 X36.946 Y43.776 E32.74104
G1 X36.946 Y43.433 E32.76386
G1 X37.028 Y42.186 E32.84699
G1 X37.094 Y41.741 E32.87691
G1 X37.196 Y41.404 E32.90034
G1 X37.633 Y40.243 E32.98286
G1 X37.827 Y39.835 E33.01291
G1 X38.018 Y39.547 E33.0359
G1 X38.756 Y38.582 E33.11671
G1 X37.902 Y37.146 E33.22785
G1 X37.646 Y36.577 E33.26935
G1 X37.181 Y35.121 E33.37102
G1 X37.058 Y34.493 E33.41359
G1 X36.938 Y32.976 E33.51482
G1 X36.961 Y32.349 E33.55656
G1 X37.191 Y30.828 E33.65888
G1 X37.353 Y30.23 E33.7001
G1 X37.921 Y28.803 E33.80226
G1 X38.222 Y28.245 E33.84444
G1 X39.081 Y27.01 E33.94451
G0 F7200 X44.356 Y30.988
G1 F1800 X43.903 Y31.576 E33.99388
G1 X43.619 Y32.259 E34.04309
G1 X43.521 Y32.994 E34.09241
